;FLAVOR:Marlin
;TIME:3177
;Filament used: 4.19785m
;Layer height: 0.2
;MINX:-31.05
;MINY:-39.8
;MINZ:0.3
;MAXX:31.05
;MAXY:39.8
;MAXZ:3.9
;Generated with Cura_SteamEngine 4.6.2
M104 S200
M105
M109 S200
M82 ;absolute extrusion mode
G90
G1 F300 Z1
G1 F5000 X77 Y26
G1 F300 Z0.315
G92 E0
G1 F2520 X77 Y-45 E4
G1 F2520 X77.5 Y-45 E4.05
G1 F2520 X77.5 Y26 E8
G1 F5000 X77.25 Y26
G92 E0
G1 F2520 X77.25 Y-45 E4
G1 F2520 X77.75 Y-45 E4.05
G1 F2520 X77.75 Y26 E8
G1 F5000 X77 Y0
G1 F300 Z1
G1 X0 Y0 F5000
G92 E0
G92 E0
G92 E0
G1 F900 E-6.5
;LAYER_COUNT:19
;LAYER:0
M106 S255
;MESH:character-tray-lid.stl
G0 F2400 X-23.005 Y0.00 Z0.3
;TYPE:WALL-INNER
G1 F900 E0
G1 F1800 X-22.562 Y4.487 E0.22495
G1 X-21.253 Y8.804 E0.45001
G1 X-19.127 Y12.781 E0.67499
G1 X-16.266 Y16.266 E0.89994
G1 X-12.781 Y19.127 E1.12489
G1 X-8.804 Y21.253 E1.34988
G1 X-4.487 Y22.562 E1.57494
G1 X0.00 Y23.005 E1.79988
G1 X4.487 Y22.562 E2.02483
G1 X8.804 Y21.253 E2.24989
G1 X12.781 Y19.127 E2.47487
G1 X16.266 Y16.266 E2.69982
G1 X19.127 Y12.781 E2.92478
G1 X21.253 Y8.804 E3.14976
G1 X22.562 Y4.487 E3.37482
G1 X23.005 Y0.00 E3.59977
G1 X22.562 Y-4.487 E3.82471
G1 X21.253 Y-8.804 E4.04977
G1 X19.127 Y-12.781 E4.27476
G1 X16.266 Y-16.266 E4.49971
G1 X12.781 Y-19.127 E4.72466
G1 X8.804 Y-21.253 E4.94964
G1 X4.487 Y-22.562 E5.1747
G1 X0.00 Y-23.005 E5.39965
G1 X-4.069 Y-22.605 E5.60363
G1 X-4.489 Y-22.562 E5.62469
G1 X-8.398 Y-21.377 E5.82848
G1 X-8.804 Y-21.253 E5.84966
G1 X-12.781 Y-19.127 E6.07464
G1 X-16.266 Y-16.266 E6.29959
G1 X-19.127 Y-12.781 E6.52455
G1 X-21.253 Y-8.804 E6.74953
G1 X-22.562 Y-4.487 E6.97459
G1 X-23.005 Y0.00 E7.19954
G0 F2400 X-30.25 Y39
G1 F1800 X-30.25 Y-39 E11.09097
G1 X30.25 Y-39 E14.10933
G1 X30.25 Y39 E18.00076
G1 X-30.25 Y39 E21.01912
G0 F2400 X-30.65 Y39.4
G1 F1800 X-30.65 Y-39.4 E24.95047
G1 X30.65 Y-39.4 E28.00874
G1 X30.65 Y39.4 E31.94009
G1 X-30.65 Y39.4 E34.99836
G0 F2400 X-30.58 Y39.33
G0 X-22.703 Y0.00
G0 X-22.603 Y0.00
G1 F1800 X-22.168 Y4.409 E35.21939
G1 X-20.882 Y8.65 E35.44049
G1 X-18.793 Y12.558 E35.66157
G1 X-15.982 Y15.982 E35.88258
G1 X-12.558 Y18.793 E36.1036
G1 X-8.65 Y20.882 E36.32468
G1 X-4.409 Y22.168 E36.54578
G1 X0.00 Y22.603 E36.76681
G1 X4.409 Y22.168 E36.98784
G1 X8.65 Y20.882 E37.20894
G1 X12.558 Y18.793 E37.43002
G1 X15.982 Y15.982 E37.65104
G1 X18.793 Y12.558 E37.87205
G1 X20.882 Y8.65 E38.09313
G1 X22.168 Y4.409 E38.31423
G1 X22.603 Y0.00 E38.53526
G1 X22.168 Y-4.409 E38.7563
G1 X20.882 Y-8.65 E38.9774
G1 X18.793 Y-12.558 E39.19847
G1 X15.982 Y-15.982 E39.41949
G1 X12.558 Y-18.793 E39.64051
G1 X8.65 Y-20.882 E39.86159
G1 X4.409 Y-22.168 E40.08268
G1 X0.00 Y-22.603 E40.30372
G1 X-4.029 Y-22.207 E40.50569
G1 X-4.41 Y-22.168 E40.5248
G1 X-8.282 Y-20.994 E40.72666
G1 X-8.65 Y-20.882 E40.74585
G1 X-12.558 Y-18.793 E40.96693
G1 X-15.982 Y-15.982 E41.18795
G1 X-18.793 Y-12.558 E41.40896
G1 X-20.882 Y-8.65 E41.63004
G1 X-22.168 Y-4.409 E41.85114
G1 X-22.603 Y0.00 E42.07217
G0 F2400 X-22.703 Y0.00
G0 X-22.207 Y-4.416
G0 X-20.918 Y-8.665
G0 X-18.826 Y-12.58
G0 X-16.01 Y-16.01
G0 X-12.58 Y-18.826
G0 X-8.731 Y-20.952
G0 X-8.496 Y-20.511
;TYPE:WALL-OUTER
G1 F1800 X-12.335 Y-18.459 E42.28935
G1 X-15.698 Y-15.698 E42.50643
G1 X-18.459 Y-12.335 E42.72351
G1 X-20.511 Y-8.496 E42.94068
G1 X-21.774 Y-4.331 E43.15782
G1 X-22.201 Y0.00 E43.37494
G1 X-21.774 Y4.331 E43.59206
G1 X-20.511 Y8.496 E43.8092
G1 X-18.459 Y12.335 E44.02637
G1 X-15.698 Y15.698 E44.24345
G1 X-12.335 Y18.459 E44.46054
G1 X-8.496 Y20.511 E44.67771
G1 X-4.331 Y21.774 E44.89484
G1 X0.00 Y22.201 E45.11197
G1 X4.331 Y21.774 E45.32909
G1 X8.496 Y20.511 E45.54623
G1 X12.335 Y18.459 E45.7634
G1 X15.698 Y15.698 E45.98048
G1 X18.459 Y12.335 E46.19756
G1 X20.511 Y8.496 E46.41473
G1 X21.774 Y4.331 E46.63187
G1 X22.201 Y0.00 E46.84899
G1 X21.774 Y-4.331 E47.06611
G1 X20.511 Y-8.496 E47.28325
G1 X18.459 Y-12.335 E47.50042
G1 X15.698 Y-15.698 E47.7175
G1 X12.335 Y-18.459 E47.93459
G1 X8.496 Y-20.511 E48.15176
G1 X4.331 Y-21.774 E48.3689
G1 X0.00 Y-22.201 E48.58602
G1 X-3.989 Y-21.809 E48.78599
G1 X-4.331 Y-21.774 E48.80314
G1 X-8.166 Y-20.611 E49.00307
G1 X-8.496 Y-20.511 E49.02028
G0 F2400 X-8.672 Y-20.417
G0 X-8.907 Y-20.858
G0 X-12.58 Y-18.826
G0 X-16.01 Y-16.01
G0 X-18.826 Y-12.58
G0 X-20.918 Y-8.665
G0 X-22.207 Y-4.416
G0 X-30.58 Y39.33
G0 X-31.05 Y39.8
G1 F1800 X-31.05 Y-39.8 E52.99154
G1 X31.05 Y-39.8 E56.08972
G1 X31.05 Y39.8 E60.06098
G1 X-31.05 Y39.8 E63.15916
G0 F2400 X-31.05 Y39.6
G0 X-30.58 Y39.33
G0 X-29.86 Y38.61
;TYPE:SKIN
G1 F1800 X-29.86 Y-38.61 E67.01168
G1 X29.86 Y-38.61 E69.99112
G1 X29.86 Y38.61 E73.84365
G1 X-29.86 Y38.61 E76.82309
G0 F2400 X-12.999 Y19.453
G1 F1800 X-8.954 Y21.615 E77.05191
G1 X-4.563 Y22.946 E77.28082
G1 X0.00 Y23.397 E77.50958
G1 X4.563 Y22.946 E77.73834
G1 X8.954 Y21.615 E77.96725
G1 X12.999 Y19.453 E78.19607
G1 X16.543 Y16.543 E78.42485
G1 X19.453 Y12.999 E78.65363
G1 X21.615 Y8.954 E78.88245
G1 X22.946 Y4.563 E79.11136
G1 X23.397 Y0.00 E79.34012
G1 X22.946 Y-4.563 E79.56888
G1 X21.615 Y-8.954 E79.79779
G1 X19.453 Y-12.999 E80.02661
G1 X16.543 Y-16.543 E80.25539
G1 X12.999 Y-19.453 E80.48417
G1 X8.954 Y-21.615 E80.71299
G1 X4.563 Y-22.946 E80.9419
G1 X0.00 Y-23.397 E81.17066
G1 X-4.108 Y-22.993 E81.3766
G1 X-4.565 Y-22.946 E81.39952
G1 X-8.511 Y-21.75 E81.60523
G1 X-8.954 Y-21.615 E81.62833
G1 X-12.999 Y-19.453 E81.85716
G1 X-16.543 Y-16.543 E82.08594
G1 X-19.453 Y-12.999 E82.31471
G1 X-21.615 Y-8.954 E82.54354
G1 X-22.946 Y-4.563 E82.77245
G1 X-23.397 Y0.00 E83.00121
G1 X-22.946 Y4.563 E83.22996
G1 X-21.615 Y8.954 E83.45888
G1 X-19.453 Y12.999 E83.6877
G1 X-16.543 Y16.543 E83.91648
G1 X-12.999 Y19.453 E84.14525
G0 F2400 X-29.452 Y38.429
G1 F1800 X-29.68 Y38.202 E84.16131
G0 F2400 X-29.68 Y37.636
G1 F1800 X-28.886 Y38.429 E84.21729
G0 F2400 X-28.321 Y38.429
G1 F1800 X-29.68 Y37.07 E84.31318
G0 F2400 X-29.68 Y36.505
G1 F1800 X-27.755 Y38.429 E84.44896
G0 F2400 X-27.189 Y38.429
G1 F1800 X-29.68 Y35.939 E84.62468
G0 F2400 X-29.68 Y35.373
G1 F1800 X-26.623 Y38.429 E84.84033
G0 F2400 X-26.058 Y38.429
G1 F1800 X-29.68 Y34.808 E85.09585
G0 F2400 X-29.68 Y34.242
G1 F1800 X-25.492 Y38.429 E85.3913
G0 F2400 X-24.926 Y38.429
G1 F1800 X-29.68 Y33.676 E85.72668
G0 F2400 X-29.68 Y33.11
G1 F1800 X-24.361 Y38.429 E86.10197
G0 F2400 X-23.795 Y38.429
G1 F1800 X-29.68 Y32.545 E86.51715
G0 F2400 X-29.68 Y31.979
G1 F1800 X-23.229 Y38.429 E86.97227
G0 F2400 X-22.664 Y38.429
G1 F1800 X-29.68 Y31.413 E87.46729
G0 F2400 X-29.68 Y30.848
G1 F1800 X-22.098 Y38.429 E88.0022
G0 F2400 X-21.532 Y38.429
G1 F1800 X-29.68 Y30.282 E88.57705
G0 F2400 X-29.68 Y29.716
G1 F1800 X-20.967 Y38.429 E89.1918
G0 F2400 X-20.401 Y38.429
G1 F1800 X-29.68 Y29.151 E89.84645
G0 F2400 X-29.68 Y28.585
G1 F1800 X-19.835 Y38.429 E90.54103
G0 F2400 X-19.27 Y38.429
G1 F1800 X-29.68 Y28.019 E91.27551
G0 F2400 X-29.68 Y27.454
G1 F1800 X-18.704 Y38.429 E92.04989
G0 F2400 X-18.138 Y38.429
G1 F1800 X-29.68 Y26.888 E92.86421
G0 F2400 X-29.68 Y26.322
G1 F1800 X-17.573 Y38.429 E93.71842
G0 F2400 X-17.007 Y38.429
G1 F1800 X-29.68 Y25.757 E94.61254
G0 F2400 X-29.68 Y25.191
G1 F1800 X-16.441 Y38.429 E95.54658
G0 F2400 X-15.875 Y38.429
G1 F1800 X-29.68 Y24.625 E96.52057
G0 F2400 X-29.68 Y24.06
G1 F1800 X-15.31 Y38.429 E97.53441
G0 F2400 X-14.744 Y38.429
G1 F1800 X-29.68 Y23.494 E98.58819
G0 F2400 X-29.68 Y22.928
G1 F1800 X-14.178 Y38.429 E99.68191
G0 F2400 X-13.613 Y38.429
G1 F1800 X-29.68 Y22.362 E100.81552
G0 F2400 X-29.68 Y21.797
G1 F1800 X-13.047 Y38.429 E101.98903
G0 F2400 X-12.481 Y38.429
G1 F1800 X-29.68 Y21.231 E103.20248
G0 F2400 X-29.68 Y20.665
G1 F1800 X-11.916 Y38.429 E104.45583
G0 F2400 X-11.35 Y38.429
G1 F1800 X-29.68 Y20.1 E105.74907
G0 F2400 X-29.68 Y19.534
G1 F1800 X-10.784 Y38.429 E107.08225
G0 F2400 X-10.219 Y38.429
G1 F1800 X-29.68 Y18.968 E108.45533
G0 F2400 X-29.68 Y18.403
G1 F1800 X-9.653 Y38.429 E109.86831
G0 F2400 X-9.087 Y38.429
G1 F1800 X-29.68 Y17.837 E111.32122
G0 F2400 X-29.68 Y17.271
G1 F1800 X-8.522 Y38.429 E112.81403
G0 F2400 X-7.956 Y38.429
G1 F1800 X-29.68 Y16.706 E114.34674
G0 F2400 X-29.68 Y16.14
G1 F1800 X-7.39 Y38.429 E115.91939
G0 F2400 X-6.824 Y38.429
G1 F1800 X-29.68 Y15.574 E117.53196
G0 F2400 X-29.68 Y15.009
G1 F1800 X-6.259 Y38.429 E119.18441
G0 F2400 X-5.693 Y38.429
G1 F1800 X-29.68 Y14.443 E120.87678
G0 F2400 X-29.68 Y13.877
G1 F1800 X-5.127 Y38.429 E122.6091
G0 F2400 X-4.562 Y38.429
G1 F1800 X-29.68 Y13.311 E124.38131
G0 F2400 X-29.68 Y12.746
G1 F1800 X-3.996 Y38.429 E126.19342
G0 F2400 X-3.43 Y38.429
G1 F1800 X-29.68 Y12.18 E128.04546
G0 F2400 X-29.68 Y11.614
G1 F1800 X-2.865 Y38.429 E129.9374
G0 F2400 X-2.299 Y38.429
G1 F1800 X-29.68 Y11.049 E131.86925
G0 F2400 X-29.68 Y10.483
G1 F1800 X-1.733 Y38.429 E133.84102
G0 F2400 X-1.168 Y38.429
G1 F1800 X-29.68 Y9.917 E135.8527
G0 F2400 X-29.68 Y9.352
G1 F1800 X-.602 Y38.429 E137.90427
G0 F2400 X-0.036 Y38.429
G1 F1800 X-29.68 Y8.786 E139.99578
G0 F2400 X-29.68 Y8.22
G1 F1800 X0.528 Y38.429 E142.12715
G0 F2400 X1.094 Y38.429
G1 F1800 X-29.68 Y7.655 E144.29843
G0 F2400 X-29.68 Y7.089
G1 F1800 X1.66 Y38.429 E146.50963
G0 F2400 X2.225 Y38.429
G1 F1800 X-29.68 Y6.523 E148.76074
G0 F2400 X-29.68 Y5.958
G1 F1800 X2.791 Y38.429 E151.05174
G0 F2400 X3.357 Y38.429
G1 F1800 X-29.68 Y5.392 E153.38268
G0 F2400 X-29.68 Y4.826
G1 F1800 X3.923 Y38.429 E155.75355
G0 F2400 X4.488 Y38.429
G1 F1800 X-29.68 Y4.261 E158.16429
G0 F2400 X-29.68 Y3.695
G1 F1800 X5.054 Y38.429 E160.61496
G0 F2400 X5.62 Y38.429
G1 F1800 X-13.695 Y19.114 E161.97774
G1 X-13.765 Y19.044
G0 F2400 X-12.114 Y20.129
G1 F1800 X6.185 Y38.429 E163.26887
G0 F2400 X6.751 Y38.429
G1 F1800 X-10.899 Y20.779 E164.51417
G1 X-10.969 Y20.709
G0 F2400 X-9.683 Y21.428
G1 F1800 X7.317 Y38.429 E165.71365
G0 F2400 X7.882 Y38.429
G1 F1800 X-8.652 Y21.894 E166.88025
G1 X-8.722 Y21.824
G0 F2400 X-7.841 Y22.14
G1 F1800 X8.448 Y38.429 E168.02952
G0 F2400 X9.014 Y38.429
G1 F1800 X-7.029 Y22.386 E169.16144
G1 X-7.099 Y22.316
G0 F2400 X-6.217 Y22.632
G1 F1800 X9.579 Y38.429 E170.27597
G0 F2400 X10.145 Y38.429
G1 F1800 X-5.405 Y22.878 E171.37314
G1 X-5.475 Y22.808
G0 F2400 X-4.595 Y23.123
G1 F1800 X10.711 Y38.429 E172.45307
G0 F2400 X11.276 Y38.429
G1 F1800 X-3.967 Y23.185 E173.52858
G0 F2400 X-3.339 Y23.247
G1 F1800 X11.842 Y38.429 E174.59971
G0 F2400 X12.408 Y38.429
G1 F1800 X-2.711 Y23.309 E175.66648
G0 F2400 X-2.083 Y23.372
G1 F1800 X12.973 Y38.429 E176.72879
G0 F2400 X13.539 Y38.429
G1 F1800 X-1.455 Y23.434 E177.78674
G0 F2400 X-.828 Y23.495
G1 F1800 X14.105 Y38.429 E178.84038
G0 F2400 X14.671 Y38.429
G1 F1800 X-.2 Y23.557 E179.88964
G0 F2400 X0.35 Y23.543
G1 F1800 X15.236 Y38.429 E180.93993
G0 F2400 X15.802 Y38.429
G1 F1800 X0.864 Y23.492 E181.99385
G0 F2400 X1.379 Y23.441
G1 F1800 X16.368 Y38.429 E183.05137
G0 F2400 X16.933 Y38.429
G1 F1800 X1.894 Y23.39 E184.11245
G0 F2400 X2.409 Y23.339
G1 F1800 X17.499 Y38.429 E185.17713
G0 F2400 X18.065 Y38.429
G1 F1800 X2.923 Y23.288 E186.24545
G0 F2400 X3.438 Y23.237
G1 F1800 X18.63 Y38.429 E187.31732
G0 F2400 X19.196 Y38.429
G1 F1800 X3.953 Y23.186 E188.3928
G0 F2400 X4.468 Y23.135
G1 F1800 X19.762 Y38.429 E189.47187
G0 F2400 X20.327 Y38.429
G1 F1800 X4.922 Y23.024 E190.55878
G0 F2400 X5.357 Y22.893
G1 F1800 X20.893 Y38.429 E191.65493
G0 F2400 X21.459 Y38.429
G1 F1800 X5.791 Y22.761 E192.76039
G0 F2400 X6.225 Y22.63
G1 F1800 X22.024 Y38.429 E193.8751
G0 F2400 X22.59 Y38.429
G1 F1800 X6.659 Y22.498 E194.99911
G0 F2400 X7.093 Y22.367
G1 F1800 X23.156 Y38.429 E196.13241
G0 F2400 X23.722 Y38.429
G1 F1800 X7.527 Y22.235 E197.27502
G0 F2400 X7.962 Y22.104
G1 F1800 X24.287 Y38.429 E198.42684
G0 F2400 X24.853 Y38.429
G1 F1800 X8.396 Y21.972 E199.58797
G0 F2400 X8.83 Y21.841
G1 F1800 X25.419 Y38.429 E200.75838
G0 F2400 X25.984 Y38.429
G1 F1800 X9.227 Y21.672 E201.94067
G0 F2400 X9.596 Y21.475
G1 F1800 X26.55 Y38.429 E203.13687
G0 F2400 X27.116 Y38.429
G1 F1800 X9.965 Y21.278 E204.34696
G0 F2400 X10.333 Y21.081
G1 F1800 X27.681 Y38.429 E205.57096
G0 F2400 X28.247 Y38.429
G1 F1800 X10.702 Y20.885 E206.80882
G0 F2400 X11.071 Y20.687
G1 F1800 X28.813 Y38.429 E208.06061
G0 F2400 X29.378 Y38.429
G1 F1800 X11.439 Y20.49 E209.32631
G0 F2400 X11.808 Y20.293
G1 F1800 X29.68 Y38.165 E210.58727
G0 F2400 X29.68 Y37.599
G1 F1800 X12.177 Y20.096 E211.8222
G0 F2400 X12.545 Y19.899
G1 F1800 X29.68 Y37.034 E213.03117
G0 F2400 X29.68 Y36.468
G1 F1800 X12.914 Y19.702 E214.2141
G0 F2400 X13.254 Y19.477
G1 F1800 X29.68 Y35.902 E215.37301
G0 F2400 X29.68 Y35.336
G1 F1800 X13.565 Y19.221 E216.51001
G0 F2400 X13.875 Y18.966
G1 F1800 X29.68 Y34.771 E217.62514
G0 F2400 X29.68 Y34.205
G1 F1800 X14.185 Y18.711 E218.71836
G0 F2400 X14.497 Y18.456
G1 F1800 X29.68 Y33.639 E219.7896
G0 F2400 X29.68 Y33.074
G1 F1800 X14.807 Y18.201 E220.83897
G0 F2400 X15.117 Y17.946
G1 F1800 X29.68 Y32.508 E221.86643
G0 F2400 X29.68 Y31.942
G1 F1800 X15.428 Y17.691 E222.87195
G0 F2400 X15.739 Y17.436
G1 F1800 X29.68 Y31.377 E223.85557
G0 F2400 X29.68 Y30.811
G1 F1800 X16.049 Y17.181 E224.81727
G0 F2400 X16.36 Y16.926
G1 F1800 X29.68 Y30.245 E225.75704
G0 F2400 X29.68 Y29.68
G1 F1800 X16.67 Y16.67 E226.67496
G0 F2400 X16.925 Y16.359
G1 F1800 X29.68 Y29.114 E227.5749
G0 F2400 X29.68 Y28.548
G1 F1800 X17.18 Y16.049 E228.4568
G0 F2400 X17.435 Y15.738
G1 F1800 X29.68 Y27.983 E229.32075
G0 F2400 X29.68 Y27.417
G1 F1800 X17.691 Y15.428 E230.16664
G0 F2400 X17.945 Y15.117
G1 F1800 X29.68 Y26.851 E230.99457
G0 F2400 X29.68 Y26.285
G1 F1800 X18.2 Y14.806 E231.80452
G0 F2400 X18.456 Y14.496
G1 F1800 X29.68 Y25.72 E232.59643
G0 F2400 X29.68 Y25.154
G1 F1800 X18.711 Y14.185 E233.37035
G0 F2400 X18.966 Y13.874
G1 F1800 X29.68 Y24.588 E234.12628
G0 F2400 X29.68 Y24.023
G1 F1800 X19.221 Y13.564 E234.86422
G0 F2400 X19.476 Y13.254
G1 F1800 X29.68 Y23.457 E235.58413
G0 F2400 X29.68 Y22.891
G1 F1800 X19.702 Y12.913 E236.28813
G0 F2400 X19.899 Y12.545
G1 F1800 X29.68 Y22.326 E236.97824
G0 F2400 X29.68 Y21.76
G1 F1800 X20.095 Y12.176 E237.65448
G0 F2400 X20.293 Y11.807
G1 F1800 X29.68 Y21.194 E238.31678
G0 F2400 X29.68 Y20.629
G1 F1800 X20.489 Y11.438 E238.96525
G0 F2400 X20.687 Y11.07
G1 F1800 X29.68 Y20.063 E239.59976
G0 F2400 X29.68 Y19.497
G1 F1800 X20.884 Y10.702 E240.22033
G0 F2400 X21.08 Y10.332
G1 F1800 X29.68 Y18.932 E240.8271
G0 F2400 X29.68 Y18.366
G1 F1800 X21.278 Y9.964 E241.41991
G0 F2400 X21.475 Y9.596
G1 F1800 X29.68 Y17.8 E241.99878
G0 F2400 X29.68 Y17.235
G1 F1800 X21.672 Y9.227 E242.56379
G0 F2400 X21.84 Y8.829
G1 F1800 X29.68 Y16.669 E243.11695
G0 F2400 X29.68 Y16.103
G1 F1800 X21.971 Y8.395 E243.66082
G0 F2400 X22.103 Y7.961
G1 F1800 X29.68 Y15.537 E244.19538
G0 F2400 X29.68 Y14.972
G1 F1800 X22.234 Y7.527 E244.7207
G0 F2400 X22.366 Y7.092
G1 F1800 X29.68 Y14.406 E245.23675
G0 F2400 X29.68 Y13.84
G1 F1800 X22.498 Y6.658 E245.74348
G0 F2400 X22.629 Y6.224
G1 F1800 X29.68 Y13.275 E246.24096
G0 F2400 X29.68 Y12.709
G1 F1800 X22.761 Y5.79 E246.72913
G0 F2400 X22.892 Y5.356
G1 F1800 X29.68 Y12.143 E247.20803
G0 F2400 X29.68 Y11.578
G1 F1800 X23.024 Y4.922 E247.67765
G0 F2400 X23.135 Y4.467
G1 F1800 X29.68 Y11.012 E248.13943
G0 F2400 X29.68 Y10.446
G1 F1800 X23.186 Y3.952 E248.59762
G0 F2400 X23.236 Y3.437
G1 F1800 X29.68 Y9.881 E249.05228
G0 F2400 X29.68 Y9.315
G1 F1800 X23.287 Y2.923 E249.5033
G0 F2400 X23.338 Y2.408
G1 F1800 X29.68 Y8.749 E249.95073
G0 F2400 X29.68 Y8.184
G1 F1800 X23.389 Y1.893 E250.39459
G0 F2400 X23.44 Y1.378
G1 F1800 X29.68 Y7.618 E250.83486
G0 F2400 X29.68 Y7.052
G1 F1800 X23.49 Y0.863 E251.27156
G0 F2400 X23.541 Y0.348
G1 F1800 X29.68 Y6.486 E251.70467
G0 F2400 X29.68 Y5.921
G1 F1800 X23.557 Y-.201 E252.13664
G0 F2400 X23.495 Y-.829
G1 F1800 X29.68 Y5.355 E252.57299
G0 F2400 X29.68 Y4.789
G1 F1800 X23.432 Y-1.457 E253.01375
G0 F2400 X23.37 Y-2.085
G1 F1800 X29.68 Y4.224 E253.45892
G0 F2400 X29.68 Y3.658
G1 F1800 X23.309 Y-2.712 E253.90839
G0 F2400 X23.246 Y-3.34
G1 F1800 X29.68 Y3.092 E254.36228
G0 F2400 X29.68 Y2.527
G1 F1800 X23.184 Y-3.968 E254.82057
G0 F2400 X23.122 Y-4.596
G1 F1800 X29.68 Y1.961 E255.28324
G0 F2400 X29.68 Y1.395
G1 F1800 X22.877 Y-5.406 E255.76315
G1 X22.807 Y-5.476
G0 F2400 X22.631 Y-6.218
