;FLAVOR:Marlin
;TIME:2177
;Filament used: 2.76446m
;Layer height: 0.2
;MINX:-39.8
;MINY:-29.05
;MINZ:0.3
;MAXX:39.8
;MAXY:29.05
;MAXZ:2.9
;Generated with Cura_SteamEngine 4.6.2
M104 S200
M105
M109 S200
M82 ;absolute extrusion mode
G90
G1 F300 Z1
G1 F5000 X77 Y26
G1 F300 Z0.315
G92 E0
G1 F2520 X77 Y-45 E4
G1 F2520 X77.5 Y-45 E4.05
G1 F2520 X77.5 Y26 E8
G1 F5000 X77.25 Y26
G92 E0
G1 F2520 X77.25 Y-45 E4
G1 F2520 X77.75 Y-45 E4.05
G1 F2520 X77.75 Y26 E8
G1 F5000 X77 Y0
G1 F300 Z1
G1 X0 Y0 F5000
G92 E0
G92 E0
G92 E0
G1 F900 E-6.5
;LAYER_COUNT:14
;LAYER:0
M106 S255
;MESH:character-tray-lid.stl
G0 F2400 X13.778 Y0.00 Z0.3
;TYPE:WALL-INNER
G1 F900 E0
G1 F1800 X13.352 Y-4.311 E0.21612
G1 X12.095 Y-8.46 E0.43241
G1 X10.052 Y-12.281 E0.64858
G1 X7.303 Y-15.63 E0.86474
G1 X3.953 Y-18.379 E1.08094
G1 X0.133 Y-20.422 E1.29707
G1 X-4.016 Y-21.68 E1.51337
G1 X-8.327 Y-22.105 E1.72949
G1 X-12.231 Y-21.721 E1.9252
G1 X-12.638 Y-21.68 E1.9456
G1 X-16.394 Y-20.542 E2.1414
G1 X-16.787 Y-20.422 E2.1619
G1 X-20.608 Y-18.379 E2.37807
G1 X-23.957 Y-15.63 E2.59424
G1 X-26.706 Y-12.281 E2.8104
G1 X-28.749 Y-8.46 E3.02657
G1 X-30.007 Y-4.311 E3.24287
G1 X-30.432 Y0.00 E3.45899
G1 X-30.007 Y4.311 E3.67511
G1 X-28.749 Y8.46 E3.89141
G1 X-26.706 Y12.281 E4.10757
G1 X-23.957 Y15.63 E4.32374
G1 X-20.608 Y18.379 E4.5399
G1 X-16.787 Y20.422 E4.75607
G1 X-12.638 Y21.68 E4.97237
G1 X-8.327 Y22.105 E5.18849
G1 X-4.016 Y21.68 E5.40461
G1 X0.133 Y20.422 E5.62091
G1 X3.953 Y18.379 E5.83703
G1 X7.303 Y15.63 E6.05323
G1 X10.052 Y12.281 E6.26939
G1 X12.095 Y8.46 E6.48556
G1 X13.352 Y4.311 E6.70185
G1 X13.778 Y0.00 E6.91797
G0 F2400 X37 Y-21.25
G1 F1800 X37 Y21.25 E9.03831
G1 X39 Y21.25 E9.13809
G1 X39 Y28.25 E9.48732
G1 X-39 Y28.25 E13.37875
G1 X-39 Y21.25 E13.72798
G1 X-37 Y21.25 E13.82776
G1 X-37 Y-21.25 E15.9481
G1 X-39 Y-21.25 E16.04788
G1 X-39 Y-28.25 E16.39711
G1 X39 Y-28.25 E20.28855
G1 X39 Y-21.25 E20.63778
G1 X37 Y-21.25 E20.73756
G0 F2400 X37.4 Y-20.85
G1 F1800 X37.4 Y20.85 E22.81798
G1 X39.4 Y20.85 E22.91776
G1 X39.4 Y28.65 E23.3069
G1 X-39.4 Y28.65 E27.23825
G1 X-39.4 Y20.85 E27.62739
G1 X-37.4 Y20.85 E27.72718
G1 X-37.4 Y-20.85 E29.8076
G1 X-39.4 Y-20.85 E29.90738
G1 X-39.4 Y-28.65 E30.29652
G1 X39.4 Y-28.65 E34.22787
G1 X39.4 Y-20.85 E34.61701
G1 X37.4 Y-20.85 E34.71679
G0 F2400 X37.33 Y-20.92
G0 X13.476 Y0.00
G0 X13.376 Y0.00
G1 F1800 X12.958 Y-4.233 E34.929
G1 X11.724 Y-8.306 E35.14133
G1 X9.718 Y-12.058 E35.35359
G1 X7.019 Y-15.346 E35.56582
G1 X3.73 Y-18.045 E35.77808
G1 X-0.021 Y-20.051 E35.9903
G1 X-4.094 Y-21.286 E36.20264
G1 X-8.327 Y-21.703 E36.41485
G1 X-12.192 Y-21.323 E36.6086
G1 X-12.56 Y-21.286 E36.62706
G1 X-16.278 Y-20.159 E36.82088
G1 X-16.633 Y-20.051 E36.8394
G1 X-20.385 Y-18.045 E37.05166
G1 X-23.673 Y-15.346 E37.26388
G1 X-26.372 Y-12.058 E37.47611
G1 X-28.378 Y-8.306 E37.68837
G1 X-29.613 Y-4.233 E37.90071
G1 X-30.03 Y0.00 E38.11292
G1 X-29.613 Y4.233 E38.32513
G1 X-28.378 Y8.306 E38.53747
G1 X-26.372 Y12.058 E38.74973
G1 X-23.673 Y15.346 E38.96196
G1 X-20.385 Y18.045 E39.17418
G1 X-16.633 Y20.051 E39.38645
G1 X-12.56 Y21.286 E39.59878
G1 X-8.327 Y21.703 E39.81099
G1 X-4.094 Y21.286 E40.0232
G1 X-0.021 Y20.051 E40.23554
G1 X3.73 Y18.045 E40.44776
G1 X7.019 Y15.346 E40.66002
G1 X9.718 Y12.058 E40.87225
G1 X11.724 Y8.306 E41.08451
G1 X12.958 Y4.233 E41.29684
G1 X13.376 Y0.00 E41.50905
G0 F2400 X13.476 Y0.00
G0 X37.372 Y-20.878
G0 X37.8 Y-20.45
;TYPE:WALL-OUTER
G1 F1800 X37.8 Y20.45 E43.54956
G1 X39.8 Y20.45 E43.64934
G1 X39.8 Y29.05 E44.07839
G1 X-39.8 Y29.05 E48.04965
G1 X-39.8 Y20.45 E48.47871
G1 X-37.8 Y20.45 E48.57849
G1 X-37.8 Y-20.45 E50.619
G1 X-39.8 Y-20.45 E50.71878
G1 X-39.8 Y-29.05 E51.14784
G1 X39.8 Y-29.05 E55.1191
G1 X39.8 Y-20.45 E55.54815
G1 X37.8 Y-20.45 E55.64793
G0 F2400 X37.8 Y-20.25
G0 X37.3 Y-20.25
G0 X-8.327 Y-21.743
G0 X-12.567 Y-21.325
G0 X-16.714 Y-20.121
G0 X-16.479 Y-19.68
G1 F1800 X-20.162 Y-17.711 E55.85629
G1 X-23.389 Y-15.062 E56.06458
G1 X-26.038 Y-11.835 E56.27287
G1 X-28.007 Y-8.152 E56.48123
G1 X-29.219 Y-4.155 E56.68961
G1 X-29.628 Y0.00 E56.8979
G1 X-29.219 Y4.155 E57.1062
G1 X-28.007 Y8.152 E57.31457
G1 X-26.038 Y11.835 E57.52293
G1 X-23.389 Y15.062 E57.73122
G1 X-20.162 Y17.711 E57.93952
G1 X-16.479 Y19.68 E58.14787
G1 X-12.482 Y20.892 E58.35625
G1 X-8.327 Y21.301 E58.56454
G1 X-4.172 Y20.892 E58.77284
G1 X-.175 Y19.68 E58.98122
G1 X3.507 Y17.711 E59.18953
G1 X6.735 Y15.062 E59.39786
G1 X9.384 Y11.835 E59.60615
G1 X11.353 Y8.152 E59.81451
G1 X12.564 Y4.155 E60.02287
G1 X12.974 Y0.00 E60.23117
G1 X12.564 Y-4.155 E60.43947
G1 X11.353 Y-8.152 E60.64784
G1 X9.384 Y-11.835 E60.85619
G1 X6.735 Y-15.062 E61.06448
G1 X3.507 Y-17.711 E61.27281
G1 X-.175 Y-19.68 E61.48113
G1 X-4.172 Y-20.892 E61.6895
G1 X-8.327 Y-21.301 E61.8978
G1 X-12.153 Y-20.925 E62.0896
G1 X-12.482 Y-20.892 E62.1061
G1 X-16.162 Y-19.776 E62.29795
G1 X-16.479 Y-19.68 E62.31447
G0 F2400 X-16.655 Y-19.586
G0 X-16.89 Y-20.027
G0 X-16.937 Y-20.784
;TYPE:SKIN
G1 F1800 X-20.826 Y-18.705 E62.53448
G1 X-24.234 Y-15.907 E62.75447
G1 X-27.032 Y-12.499 E62.97446
G1 X-29.111 Y-8.61 E63.19446
G1 X-30.391 Y-4.387 E63.41462
G1 X-30.824 Y0.00 E63.63455
G1 X-30.391 Y4.387 E63.85448
G1 X-29.111 Y8.61 E64.07463
G1 X-27.032 Y12.499 E64.29464
G1 X-24.234 Y15.907 E64.51463
G1 X-20.826 Y18.705 E64.73461
G1 X-16.937 Y20.784 E64.95462
G1 X-12.714 Y22.064 E65.17477
G1 X-8.327 Y22.497 E65.39471
G1 X-3.94 Y22.064 E65.61464
G1 X0.283 Y20.784 E65.83479
G1 X4.171 Y18.705 E66.05475
G1 X7.58 Y15.907 E66.27478
G1 X10.378 Y12.499 E66.49477
G1 X12.457 Y8.61 E66.71477
G1 X13.736 Y4.387 E66.93491
G1 X14.17 Y0.00 E67.15485
G1 X13.736 Y-4.387 E67.37479
G1 X12.457 Y-8.61 E67.59492
G1 X10.378 Y-12.499 E67.81493
G1 X7.58 Y-15.907 E68.03492
G1 X4.171 Y-18.705 E68.25494
G1 X0.283 Y-20.784 E68.47491
G1 X-3.94 Y-22.064 E68.69506
G1 X-8.327 Y-22.497 E68.91499
G1 X-12.27 Y-22.109 E69.11266
G1 X-12.714 Y-22.064 E69.13492
G1 X-16.507 Y-20.915 E69.33265
G1 X-16.937 Y-20.784 E69.35508
G0 F2400 X-36.61 Y-21.64
G1 F1800 X-38.61 Y-21.64 E69.45486
G1 X-38.61 Y-27.86 E69.76517
G1 X38.61 Y-27.86 E73.61769
G1 X38.61 Y-21.64 E73.92801
G1 X36.61 Y-21.64 E74.02779
G1 X36.61 Y21.64 E76.18704
G1 X38.61 Y21.64 E76.28682
G1 X38.61 Y27.86 E76.59714
G1 X-38.61 Y27.86 E80.44966
G1 X-38.61 Y21.64 E80.75998
G1 X-36.61 Y21.64 E80.85976
G1 X-36.61 Y-21.64 E83.019
G0 F2400 X-37.372 Y20.878
G0 X-38.429 Y27.189
G1 F1800 X-37.939 Y27.679 E83.05358
G0 F2400 X-37.374 Y27.679
G1 F1800 X-38.429 Y26.623 E83.12805
G0 F2400 X-38.429 Y26.058
G1 F1800 X-36.808 Y27.679 E83.24242
G0 F2400 X-36.242 Y27.679
G1 F1800 X-38.429 Y25.492 E83.39672
G0 F2400 X-38.429 Y24.926
G1 F1800 X-35.677 Y27.679 E83.59093
G0 F2400 X-35.111 Y27.679
G1 F1800 X-38.429 Y24.361 E83.82503
G0 F2400 X-38.429 Y23.795
G1 F1800 X-34.545 Y27.679 E84.09907
G0 F2400 X-33.98 Y27.679
G1 F1800 X-38.429 Y23.229 E84.413
G0 F2400 X-38.429 Y22.664
G1 F1800 X-33.414 Y27.679 E84.76684
G0 F2400 X-32.848 Y27.679
G1 F1800 X-38.429 Y22.098 E85.16061
G0 F2400 X-38.142 Y21.819
G1 F1800 X-32.282 Y27.679 E85.57406
G0 F2400 X-31.717 Y27.679
G1 F1800 X-37.577 Y21.819 E85.98752
G0 F2400 X-37.011 Y21.819
G1 F1800 X-31.151 Y27.679 E86.40097
G0 F2400 X-30.585 Y27.679
G1 F1800 X-36.445 Y21.819 E86.81443
G0 F2400 X-36.428 Y21.271
G1 F1800 X-30.02 Y27.679 E87.26654
G0 F2400 X-29.454 Y27.679
G1 F1800 X-36.428 Y20.705 E87.7586
G0 F2400 X-36.428 Y20.139
G1 F1800 X-28.888 Y27.679 E88.29059
G0 F2400 X-28.323 Y27.679
G1 F1800 X-36.428 Y19.574 E88.86244
G0 F2400 X-36.428 Y19.008
G1 F1800 X-27.757 Y27.679 E89.47422
G0 F2400 X-27.191 Y27.679
G1 F1800 X-36.428 Y18.442 E90.12594
G0 F2400 X-36.428 Y17.877
G1 F1800 X-26.626 Y27.679 E90.81753
G0 F2400 X-26.06 Y27.679
G1 F1800 X-36.428 Y17.311 E91.54905
G0 F2400 X-36.428 Y16.745
G1 F1800 X-25.494 Y27.679 E92.3205
G0 F2400 X-24.929 Y27.679
G1 F1800 X-36.428 Y16.18 E93.13182
G0 F2400 X-36.428 Y15.614
G1 F1800 X-24.363 Y27.679 E93.98307
G0 F2400 X-23.797 Y27.679
G1 F1800 X-36.428 Y15.048 E94.87425
G0 F2400 X-36.428 Y14.482
G1 F1800 X-23.231 Y27.679 E95.80537
G0 F2400 X-22.666 Y27.679
G1 F1800 X-36.428 Y13.917 E96.77635
G0 F2400 X-36.428 Y13.351
G1 F1800 X-22.1 Y27.679 E97.78727
G0 F2400 X-21.534 Y27.679
G1 F1800 X-36.428 Y12.785 E98.83812
G0 F2400 X-36.428 Y12.22
G1 F1800 X-20.969 Y27.679 E99.92884
G0 F2400 X-20.403 Y27.679
G1 F1800 X-36.428 Y11.654 E101.05949
G0 F2400 X-36.428 Y11.088
G1 F1800 X-19.837 Y27.679 E102.23008
G0 F2400 X-19.272 Y27.679
G1 F1800 X-36.428 Y10.523 E103.44052
G0 F2400 X-36.428 Y9.957
G1 F1800 X-18.706 Y27.679 E104.69091
G0 F2400 X-18.14 Y27.679
G1 F1800 X-36.428 Y9.391 E105.98122
G0 F2400 X-36.428 Y8.826
G1 F1800 X-17.575 Y27.679 E107.3114
G0 F2400 X-17.009 Y27.679
G1 F1800 X-36.428 Y8.26 E108.68152
G0 F2400 X-36.428 Y7.694
G1 F1800 X-16.443 Y27.679 E110.09157
G0 F2400 X-15.878 Y27.679
G1 F1800 X-36.428 Y7.129 E111.54148
G0 F2400 X-36.428 Y6.563
G1 F1800 X-15.312 Y27.679 E113.03133
G0 F2400 X-14.746 Y27.679
G1 F1800 X-36.428 Y5.997 E114.56111
G0 F2400 X-36.428 Y5.431
G1 F1800 X-14.181 Y27.679 E116.13079
G0 F2400 X-13.615 Y27.679
G1 F1800 X-36.428 Y4.866 E117.74038
G0 F2400 X-36.428 Y4.3
G1 F1800 X-13.049 Y27.679 E119.38989
G0 F2400 X-12.483 Y27.679
G1 F1800 X-23.064 Y17.099 E120.1364
G1 X-23.134 Y17.029
G0 F2400 X-20.532 Y19.065
G1 F1800 X-11.918 Y27.679 E120.74417
G0 F2400 X-11.352 Y27.679
G1 F1800 X-19.317 Y19.714 E121.30614
G1 X-19.387 Y19.644
G0 F2400 X-18.101 Y20.364
G1 F1800 X-10.786 Y27.679 E121.82225
G0 F2400 X-10.221 Y27.679
G1 F1800 X-16.926 Y20.974 E122.29533
G1 X-16.996 Y20.904
G0 F2400 X-16.114 Y21.22
G1 F1800 X-9.655 Y27.679 E122.75104
G0 F2400 X-9.089 Y27.679
G1 F1800 X-15.302 Y21.467 E123.18937
G1 X-15.372 Y21.397
G0 F2400 X-14.49 Y21.713
G1 F1800 X-8.524 Y27.679 E123.6103
G0 F2400 X-7.958 Y27.679
G1 F1800 X-13.678 Y21.959 E124.01388
G1 X-13.748 Y21.889
G0 F2400 X-12.867 Y22.205
G1 F1800 X-7.392 Y27.679 E124.40013
G0 F2400 X-6.827 Y27.679
G1 F1800 X-12.213 Y22.293 E124.78015
G0 F2400 X-11.585 Y22.355
G1 F1800 X-6.261 Y27.679 E125.15578
G0 F2400 X-5.695 Y27.679
G1 F1800 X-10.958 Y22.417 E125.52708
G0 F2400 X-10.33 Y22.479
G1 F1800 X-5.13 Y27.679 E125.89397
G0 F2400 X-4.564 Y27.679
G1 F1800 X-9.702 Y22.541 E126.25648
G0 F2400 X-9.075 Y22.603
G1 F1800 X-3.998 Y27.679 E126.61466
G0 F2400 X-3.433 Y27.679
G1 F1800 X-8.447 Y22.665 E126.96842
G0 F2400 X-7.911 Y22.635
G1 F1800 X-2.867 Y27.679 E127.3243
G0 F2400 X-2.301 Y27.679
G1 F1800 X-7.395 Y22.585 E127.68371
G0 F2400 X-6.88 Y22.534
G1 F1800 X-1.735 Y27.679 E128.04672
G0 F2400 X-1.17 Y27.679
G1 F1800 X-6.366 Y22.483 E128.41333
G0 F2400 X-5.851 Y22.432
G1 F1800 X-.604 Y27.679 E128.78353
G0 F2400 X-0.038 Y27.679
G1 F1800 X-5.336 Y22.382 E129.1573
G0 F2400 X-4.821 Y22.331
G1 F1800 X0.526 Y27.679 E129.53459
G0 F2400 X1.092 Y27.679
G1 F1800 X-4.306 Y22.28 E129.91549
G0 F2400 X-3.809 Y22.212
G1 F1800 X1.658 Y27.679 E130.30121
G0 F2400 X2.223 Y27.679
G1 F1800 X-3.375 Y22.08 E130.69622
G0 F2400 X-2.94 Y21.949
G1 F1800 X2.789 Y27.679 E131.10046
G0 F2400 X3.355 Y27.679
G1 F1800 X-2.506 Y21.817 E131.51402
G0 F2400 X-2.072 Y21.686
G1 F1800 X3.92 Y27.679 E131.93683
G0 F2400 X4.486 Y27.679
G1 F1800 X-1.638 Y21.554 E132.36894
G0 F2400 X-1.204 Y21.423
G1 F1800 X5.052 Y27.679 E132.81034
G0 F2400 X5.617 Y27.679
G1 F1800 X-.77 Y21.291 E133.26101
G0 F2400 X-.335 Y21.16
G1 F1800 X6.183 Y27.679 E133.72093
G0 F2400 X6.749 Y27.679
G1 F1800 X0.098 Y21.028 E134.19019
G0 F2400 X0.504 Y20.869
G1 F1800 X7.315 Y27.679 E134.67071
G0 F2400 X7.88 Y27.679
G1 F1800 X0.873 Y20.672 E135.16509
G0 F2400 X1.241 Y20.474
G1 F1800 X8.446 Y27.679 E135.67344
G0 F2400 X9.012 Y27.679
G1 F1800 X1.61 Y20.278 E136.19566
G0 F2400 X1.979 Y20.081
G1 F1800 X9.577 Y27.679 E136.73174
G0 F2400 X10.143 Y27.679
G1 F1800 X2.347 Y19.883 E137.28179
G0 F2400 X2.715 Y19.686
G1 F1800 X10.709 Y27.679 E137.84577
G0 F2400 X11.274 Y27.679
G1 F1800 X3.084 Y19.489 E138.42362
G0 F2400 X3.453 Y19.292
G1 F1800 X11.84 Y27.679 E139.01537
G0 F2400 X12.406 Y27.679
G1 F1800 X3.821 Y19.095 E139.62105
G0 F2400 X4.19 Y18.898
G1 F1800 X12.971 Y27.679 E140.2406
G0 F2400 X13.537 Y27.679
G1 F1800 X4.514 Y18.656 E140.87722
G0 F2400 X4.824 Y18.401
G1 F1800 X14.103 Y27.679 E141.53187
G0 F2400 X14.668 Y27.679
G1 F1800 X5.135 Y18.146 E142.20447
G0 F2400 X5.446 Y17.891
G1 F1800 X15.234 Y27.679 E142.89507
G0 F2400 X15.8 Y27.679
G1 F1800 X5.756 Y17.635 E143.60373
G0 F2400 X6.067 Y17.381
G1 F1800 X16.365 Y27.679 E144.33031
G0 F2400 X16.931 Y27.679
G1 F1800 X6.378 Y17.126 E145.07488
G0 F2400 X6.688 Y16.87
G1 F1800 X17.497 Y27.679 E145.83751
G0 F2400 X18.063 Y27.679
G1 F1800 X6.999 Y16.616 E146.6181
G0 F2400 X7.31 Y16.361
G1 F1800 X18.628 Y27.679 E147.41665
G0 F2400 X19.194 Y27.679
G1 F1800 X7.62 Y16.105 E148.23326
G0 F2400 X7.89 Y15.81
G1 F1800 X19.76 Y27.679 E149.07071
G0 F2400 X20.325 Y27.679
G1 F1800 X8.145 Y15.499 E149.93008
G0 F2400 X8.401 Y15.189
G1 F1800 X20.891 Y27.679 E150.81131
G0 F2400 X21.457 Y27.679
G1 F1800 X8.656 Y14.878 E151.71449
G0 F2400 X8.91 Y14.567
G1 F1800 X22.022 Y27.679 E152.63962
G0 F2400 X22.588 Y27.679
G1 F1800 X9.166 Y14.257 E153.58661
G0 F2400 X9.421 Y13.946
G1 F1800 X23.154 Y27.679 E154.55555
G0 F2400 X23.719 Y27.679
G1 F1800 X9.676 Y13.636 E155.54636
G0 F2400 X9.931 Y13.325
G1 F1800 X24.285 Y27.679 E156.55911
G0 F2400 X24.851 Y27.679
G1 F1800 X10.186 Y13.015 E157.59377
G0 F2400 X10.441 Y12.704
G1 F1800 X25.416 Y27.679 E158.65034
G0 F2400 X25.982 Y27.679
G1 F1800 X10.658 Y12.355 E159.73153
G0 F2400 X10.855 Y11.986
G1 F1800 X26.548 Y27.679 E160.83875
G0 F2400 X27.114 Y27.679
G1 F1800 X11.052 Y11.617 E161.97201
G0 F2400 X11.249 Y11.249
G1 F1800 X27.679 Y27.679 E163.13124
G0 F2400 X28.245 Y27.679
G1 F1800 X11.446 Y10.88 E164.3165
G0 F2400 X11.643 Y10.511
G1 F1800 X28.811 Y27.679 E165.5278
G0 F2400 X29.376 Y27.679
G1 F1800 X11.84 Y10.143 E166.76505
G0 F2400 X12.037 Y9.775
G1 F1800 X29.942 Y27.679 E168.02831
G0 F2400 X30.508 Y27.679
G1 F1800 X12.234 Y9.405 E169.31764
G0 F2400 X12.431 Y9.037
G1 F1800 X31.073 Y27.679 E170.63294
G0 F2400 X31.639 Y27.679
G1 F1800 X12.626 Y8.667 E171.97437
G0 F2400 X12.758 Y8.232
G1 F1800 X32.205 Y27.679 E173.34646
G0 F2400 X32.77 Y27.679
G1 F1800 X12.889 Y7.798 E174.74917
G0 F2400 X13.021 Y7.364
G1 F1800 X33.336 Y27.679 E176.18251
G0 F2400 X33.902 Y27.679
G1 F1800 X13.152 Y6.93 E177.6465
G0 F2400 X13.284 Y6.496
G1 F1800 X34.467 Y27.679 E179.14107
G0 F2400 X35.033 Y27.679
G1 F1800 X13.415 Y6.062 E180.6663
G0 F2400 X13.547 Y5.627
G1 F1800 X35.599 Y27.679 E182.22219
G0 F2400 X36.164 Y27.679
G1 F1800 X13.678 Y5.192 E183.80873
G0 F2400 X13.809 Y4.758
G1 F1800 X36.73 Y27.679 E185.42594
G0 F2400 X37.296 Y27.679
G1 F1800 X13.923 Y4.306 E187.07503
G0 F2400 X13.974 Y3.792
G1 F1800 X37.862 Y27.679 E188.76042
G0 F2400 X38.427 Y27.679
G1 F1800 X14.025 Y3.277 E190.48211
G0 F2400 X14.076 Y2.762
G1 F1800 X38.429 Y27.116 E192.20038
G0 F2400 X38.429 Y26.55
G1 F1800 X14.127 Y2.247 E193.91506
G0 F2400 X14.178 Y1.733
G1 F1800 X38.429 Y25.984 E195.62609
G0 F2400 X38.429 Y25.419
G1 F1800 X14.229 Y1.218 E197.33357
G0 F2400 X14.28 Y0.704
G1 F1800 X38.429 Y24.853 E199.03741
G0 F2400 X38.429 Y24.287
G1 F1800 X14.331 Y0.189 E200.73766
G0 F2400 X14.311 Y-.396
G1 F1800 X36.428 Y21.72 E202.2981
G0 F2400 X36.527 Y21.819
G1 F1800 X38.429 Y23.722 E202.43233
G0 F2400 X38.429 Y23.156
G1 F1800 X37.093 Y21.819 E202.52662
G0 F2400 X37.659 Y21.819
G1 F1800 X38.429 Y22.59 E202.58099
G0 F2400 X38.429 Y22.024
G1 F1800 X38.224 Y21.819 E202.59545
G0 F2400 X36.428 Y21.155
G1 F1800 X14.248 Y-1.024 E204.16033
G0 F2400 X14.186 Y-1.652
G1 F1800 X36.428 Y20.589 E205.72959
G0 F2400 X36.428 Y20.023
G1 F1800 X14.124 Y-2.28 E207.30322
G0 F2400 X14.062 Y-2.908
G1 F1800 X36.428 Y19.458 E208.88127
G0 F2400 X36.428 Y18.892
G1 F1800 X14 Y-3.536 E210.46368
G0 F2400 X13.937 Y-4.164
G1 F1800 X36.428 Y18.326 E212.05051
G0 F2400 X36.428 Y17.761
G1 F1800 X13.768 Y-4.899 E213.6493
G1 X13.698 Y-4.969
G0 F2400 X13.522 Y-5.71
G1 F1800 X36.428 Y17.195 E215.2654
G0 F2400 X36.428 Y16.629
G1 F1800 X13.276 Y-6.522 E216.89887
G1 X13.206 Y-6.592
G0 F2400 X13.031 Y-7.333
G1 F1800 X36.428 Y16.064 E218.54965
G0 F2400 X36.428 Y15.498
