;FLAVOR:Marlin
;TIME:13261
;Filament used: 17.4383m
;Layer height: 0.2
;MINX:-31.05
;MINY:-39.8
;MINZ:0.3
;MAXX:31.05
;MAXY:40.653
;MAXZ:35.9
;Generated with Cura_SteamEngine 4.6.2
M104 S200
M105
M109 S200
M82 ;absolute extrusion mode
G90
G1 F300 Z1
G1 F5000 X77 Y26
G1 F300 Z0.315
G92 E0
G1 F2520 X77 Y-45 E4
G1 F2520 X77.5 Y-45 E4.05
G1 F2520 X77.5 Y26 E8
G1 F5000 X77.25 Y26
G92 E0
G1 F2520 X77.25 Y-45 E4
G1 F2520 X77.75 Y-45 E4.05
G1 F2520 X77.75 Y26 E8
G1 F5000 X77 Y0
G1 F300 Z1
G1 X0 Y0 F5000
G92 E0
G92 E0
G92 E0
G1 F900 E-6.5
;LAYER_COUNT:179
;LAYER:0
M106 S255
;MESH:character-tray-base.stl
G0 F2400 X-30.25 Y39 Z0.3
;TYPE:WALL-INNER
G1 F900 E0
G1 F1800 X-30.25 Y-39 E3.89144
G1 X30.25 Y-39 E6.90979
G1 X30.25 Y39 E10.80123
G1 X-30.25 Y39 E13.81959
G0 F2400 X-30.65 Y39.4
G1 F1800 X-30.65 Y-39.4 E17.75093
G1 X30.65 Y-39.4 E20.8092
G1 X30.65 Y39.4 E24.74055
G1 X-30.65 Y39.4 E27.79882
G0 F2400 X-31.05 Y39.8
;TYPE:WALL-OUTER
G1 F1800 X-31.05 Y-39.8 E31.77008
G1 X31.05 Y-39.8 E34.86826
G1 X31.05 Y39.8 E38.83952
G1 X-31.05 Y39.8 E41.9377
G0 F2400 X-31.05 Y39.6
G0 X-30.58 Y39.33
G0 X-29.86 Y38.61
;TYPE:SKIN
G1 F1800 X-29.86 Y-38.61 E45.79023
G1 X29.86 Y-38.61 E48.76967
G1 X29.86 Y38.61 E52.62219
G1 X-29.86 Y38.61 E55.60163
G0 F2400 X-29.452 Y38.429
G1 F1800 X-29.68 Y38.202 E55.61768
G0 F2400 X-29.68 Y37.636
G1 F1800 X-28.886 Y38.429 E55.67367
G0 F2400 X-28.321 Y38.429
G1 F1800 X-29.68 Y37.07 E55.76955
G0 F2400 X-29.68 Y36.505
G1 F1800 X-27.755 Y38.429 E55.90534
G0 F2400 X-27.189 Y38.429
G1 F1800 X-29.68 Y35.939 E56.08106
G0 F2400 X-29.68 Y35.373
G1 F1800 X-26.623 Y38.429 E56.29671
G0 F2400 X-26.058 Y38.429
G1 F1800 X-29.68 Y34.808 E56.55223
G0 F2400 X-29.68 Y34.242
G1 F1800 X-25.492 Y38.429 E56.84768
G0 F2400 X-24.926 Y38.429
G1 F1800 X-29.68 Y33.676 E57.18306
G0 F2400 X-29.68 Y33.11
G1 F1800 X-24.361 Y38.429 E57.55835
G0 F2400 X-23.795 Y38.429
G1 F1800 X-29.68 Y32.545 E57.97353
G0 F2400 X-29.68 Y31.979
G1 F1800 X-23.229 Y38.429 E58.42865
G0 F2400 X-22.664 Y38.429
G1 F1800 X-29.68 Y31.413 E58.92366
G0 F2400 X-29.68 Y30.848
G1 F1800 X-22.098 Y38.429 E59.45858
G0 F2400 X-21.532 Y38.429
G1 F1800 X-29.68 Y30.282 E60.03343
G0 F2400 X-29.68 Y29.716
G1 F1800 X-20.967 Y38.429 E60.64818
G0 F2400 X-20.401 Y38.429
G1 F1800 X-29.68 Y29.151 E61.30283
G0 F2400 X-29.68 Y28.585
G1 F1800 X-19.835 Y38.429 E61.99741
G0 F2400 X-19.27 Y38.429
G1 F1800 X-29.68 Y28.019 E62.73189
G0 F2400 X-29.68 Y27.454
G1 F1800 X-18.704 Y38.429 E63.50627
G0 F2400 X-18.138 Y38.429
G1 F1800 X-29.68 Y26.888 E64.32059
G0 F2400 X-29.68 Y26.322
G1 F1800 X-17.573 Y38.429 E65.1748
G0 F2400 X-17.007 Y38.429
G1 F1800 X-29.68 Y25.757 E66.06891
G0 F2400 X-29.68 Y25.191
G1 F1800 X-16.441 Y38.429 E67.00296
G0 F2400 X-15.875 Y38.429
G1 F1800 X-29.68 Y24.625 E67.97694
G0 F2400 X-29.68 Y24.06
G1 F1800 X-15.31 Y38.429 E68.99079
G0 F2400 X-14.744 Y38.429
G1 F1800 X-29.68 Y23.494 E70.04457
G0 F2400 X-29.68 Y22.928
G1 F1800 X-14.178 Y38.429 E71.13829
G0 F2400 X-13.613 Y38.429
G1 F1800 X-29.68 Y22.362 E72.2719
G0 F2400 X-29.68 Y21.797
G1 F1800 X-13.047 Y38.429 E73.44541
G0 F2400 X-12.481 Y38.429
G1 F1800 X-29.68 Y21.231 E74.65886
G0 F2400 X-29.68 Y20.665
G1 F1800 X-11.916 Y38.429 E75.9122
G0 F2400 X-11.35 Y38.429
G1 F1800 X-29.68 Y20.1 E77.20545
G0 F2400 X-29.68 Y19.534
G1 F1800 X-10.784 Y38.429 E78.53863
G0 F2400 X-10.219 Y38.429
G1 F1800 X-29.68 Y18.968 E79.91171
G0 F2400 X-29.68 Y18.403
G1 F1800 X-9.653 Y38.429 E81.32469
G0 F2400 X-9.087 Y38.429
G1 F1800 X-29.68 Y17.837 E82.7776
G0 F2400 X-29.68 Y17.271
G1 F1800 X-8.522 Y38.429 E84.27041
G0 F2400 X-7.956 Y38.429
G1 F1800 X-29.68 Y16.706 E85.80312
G0 F2400 X-29.68 Y16.14
G1 F1800 X-7.39 Y38.429 E87.37576
G0 F2400 X-6.824 Y38.429
G1 F1800 X-29.68 Y15.574 E88.98834
G0 F2400 X-29.68 Y15.009
G1 F1800 X-6.259 Y38.429 E90.64079
G0 F2400 X-5.693 Y38.429
G1 F1800 X-29.68 Y14.443 E92.33316
G0 F2400 X-29.68 Y13.877
G1 F1800 X-5.127 Y38.429 E94.06547
G0 F2400 X-4.562 Y38.429
G1 F1800 X-29.68 Y13.311 E95.83768
G0 F2400 X-29.68 Y12.746
G1 F1800 X-3.996 Y38.429 E97.64979
G0 F2400 X-3.43 Y38.429
G1 F1800 X-29.68 Y12.18 E99.50184
G0 F2400 X-29.68 Y11.614
G1 F1800 X-2.865 Y38.429 E101.39378
G0 F2400 X-2.299 Y38.429
G1 F1800 X-29.68 Y11.049 E103.32562
G0 F2400 X-29.68 Y10.483
G1 F1800 X-1.733 Y38.429 E105.2974
G0 F2400 X-1.168 Y38.429
G1 F1800 X-29.68 Y9.917 E107.30908
G0 F2400 X-29.68 Y9.352
G1 F1800 X-.602 Y38.429 E109.36065
G0 F2400 X-0.036 Y38.429
G1 F1800 X-29.68 Y8.786 E111.45216
G0 F2400 X-29.68 Y8.22
G1 F1800 X0.528 Y38.429 E113.58353
G0 F2400 X1.094 Y38.429
G1 F1800 X-29.68 Y7.655 E115.7548
G0 F2400 X-29.68 Y7.089
G1 F1800 X1.66 Y38.429 E117.96601
G0 F2400 X2.225 Y38.429
G1 F1800 X-29.68 Y6.523 E120.21712
G0 F2400 X-29.68 Y5.958
G1 F1800 X2.791 Y38.429 E122.50812
G0 F2400 X3.357 Y38.429
G1 F1800 X-29.68 Y5.392 E124.83906
G0 F2400 X-29.68 Y4.826
G1 F1800 X3.923 Y38.429 E127.20993
G0 F2400 X4.488 Y38.429
G1 F1800 X-29.68 Y4.261 E129.62067
G0 F2400 X-29.68 Y3.695
G1 F1800 X5.054 Y38.429 E132.07134
G0 F2400 X5.62 Y38.429
G1 F1800 X-29.68 Y3.129 E134.56195
G0 F2400 X-29.68 Y2.563
G1 F1800 X6.185 Y38.429 E137.09245
G0 F2400 X6.751 Y38.429
G1 F1800 X-29.68 Y1.998 E139.66285
G0 F2400 X-29.68 Y1.432
G1 F1800 X7.317 Y38.429 E142.27319
G0 F2400 X7.882 Y38.429
G1 F1800 X-29.68 Y0.866 E144.92343
G0 F2400 X-29.68 Y0.301
G1 F1800 X8.448 Y38.429 E147.61357
G0 F2400 X9.014 Y38.429
G1 F1800 X-29.68 Y-.264 E150.3436
G0 F2400 X-29.68 Y-.83
G1 F1800 X9.579 Y38.429 E153.11354
G0 F2400 X10.145 Y38.429
G1 F1800 X-29.68 Y-1.395 E155.92337
G0 F2400 X-29.68 Y-1.961
G1 F1800 X10.711 Y38.429 E158.77314
G0 F2400 X11.276 Y38.429
G1 F1800 X-29.68 Y-2.527 E161.66281
G0 F2400 X-29.68 Y-3.092
G1 F1800 X11.842 Y38.429 E164.59237
G0 F2400 X12.408 Y38.429
G1 F1800 X-29.68 Y-3.658 E167.56187
G0 F2400 X-29.68 Y-4.224
G1 F1800 X12.973 Y38.429 E170.57127
G0 F2400 X13.539 Y38.429
G1 F1800 X-29.68 Y-4.789 E173.62057
G0 F2400 X-29.68 Y-5.355
G1 F1800 X14.105 Y38.429 E176.7098
G0 F2400 X14.671 Y38.429
G1 F1800 X-29.68 Y-5.921 E179.83897
G0 F2400 X-29.68 Y-6.486
G1 F1800 X15.236 Y38.429 E183.008
G0 F2400 X15.802 Y38.429
G1 F1800 X-29.68 Y-7.052 E186.21697
G0 F2400 X-29.68 Y-7.618
G1 F1800 X16.368 Y38.429 E189.46587
G0 F2400 X16.933 Y38.429
G1 F1800 X-29.68 Y-8.184 E192.75467
G0 F2400 X-29.68 Y-8.749
G1 F1800 X17.499 Y38.429 E196.08336
G0 F2400 X18.065 Y38.429
G1 F1800 X-29.68 Y-9.315 E199.452
G0 F2400 X-29.68 Y-9.881
G1 F1800 X18.63 Y38.429 E202.86053
G0 F2400 X19.196 Y38.429
G1 F1800 X-29.68 Y-10.446 E206.30896
G0 F2400 X-29.68 Y-11.012
G1 F1800 X19.762 Y38.429 E209.79732
G0 F2400 X20.327 Y38.429
G1 F1800 X-29.68 Y-11.578 E213.32559
G0 F2400 X-29.68 Y-12.143
G1 F1800 X20.893 Y38.429 E216.89375
G0 F2400 X21.459 Y38.429
G1 F1800 X-29.68 Y-12.709 E220.50185
G0 F2400 X-29.68 Y-13.275
G1 F1800 X22.024 Y38.429 E224.14984
G0 F2400 X22.59 Y38.429
G1 F1800 X-29.68 Y-13.84 E227.83774
G0 F2400 X-29.68 Y-14.406
G1 F1800 X23.156 Y38.429 E231.56557
G0 F2400 X23.722 Y38.429
G1 F1800 X-29.68 Y-14.972 E235.33333
G0 F2400 X-29.68 Y-15.537
G1 F1800 X24.287 Y38.429 E239.14096
G0 F2400 X24.853 Y38.429
G1 F1800 X-29.68 Y-16.103 E242.98852
G0 F2400 X-29.68 Y-16.669
G1 F1800 X25.419 Y38.429 E246.87602
G0 F2400 X25.984 Y38.429
G1 F1800 X-29.68 Y-17.235 E250.80342
G0 F2400 X-29.68 Y-17.8
G1 F1800 X26.55 Y38.429 E254.77071
G0 F2400 X27.116 Y38.429
G1 F1800 X-29.68 Y-18.366 E258.77794
G0 F2400 X-29.68 Y-18.932
G1 F1800 X27.681 Y38.429 E262.82507
G0 F2400 X28.247 Y38.429
G1 F1800 X-29.68 Y-19.497 E266.9121
G0 F2400 X-29.68 Y-20.063
G1 F1800 X28.813 Y38.429 E271.03906
G0 F2400 X29.378 Y38.429
G1 F1800 X-29.68 Y-20.629 E275.20592
G0 F2400 X-29.68 Y-21.194
G1 F1800 X29.68 Y38.165 E279.39405
G0 F2400 X29.68 Y37.599
G1 F1800 X-29.68 Y-21.76 E283.58219
G0 F2400 X-29.68 Y-22.326
G1 F1800 X29.68 Y37.034 E287.77035
G0 F2400 X29.68 Y36.468
G1 F1800 X-29.68 Y-22.891 E291.95849
G0 F2400 X-29.68 Y-23.457
G1 F1800 X29.68 Y35.902 E296.14662
G0 F2400 X29.68 Y35.336
G1 F1800 X-29.68 Y-24.023 E300.33475
G0 F2400 X-29.68 Y-24.588
G1 F1800 X29.68 Y34.771 E304.52289
G0 F2400 X29.68 Y34.205
G1 F1800 X-29.68 Y-25.154 E308.71102
G0 F2400 X-29.68 Y-25.72
G1 F1800 X29.68 Y33.639 E312.89915
G0 F2400 X29.68 Y33.074
G1 F1800 X-29.68 Y-26.285 E317.08729
G0 F2400 X-29.68 Y-26.851
G1 F1800 X29.68 Y32.508 E321.27542
G0 F2400 X29.68 Y31.942
G1 F1800 X-29.68 Y-27.417 E325.46355
G0 F2400 X-29.68 Y-27.983
G1 F1800 X29.68 Y31.377 E329.65172
G0 F2400 X29.68 Y30.811
G1 F1800 X-29.68 Y-28.548 E333.83986
G0 F2400 X-29.68 Y-29.114
G1 F1800 X29.68 Y30.245 E338.02799
G0 F2400 X29.68 Y29.68
G1 F1800 X-29.68 Y-29.68 E342.21616
G0 F2400 X-29.68 Y-30.245
G1 F1800 X29.68 Y29.114 E346.40429
G0 F2400 X29.68 Y28.548
G1 F1800 X-29.68 Y-30.811 E350.59242
G0 F2400 X-29.68 Y-31.377
G1 F1800 X29.68 Y27.983 E354.78059
G0 F2400 X29.68 Y27.417
G1 F1800 X-29.68 Y-31.942 E358.96873
G0 F2400 X-29.68 Y-32.508
G1 F1800 X29.68 Y26.851 E363.15686
G0 F2400 X29.68 Y26.285
G1 F1800 X-29.68 Y-33.074 E367.34499
G0 F2400 X-29.68 Y-33.639
G1 F1800 X29.68 Y25.72 E371.53313
G0 F2400 X29.68 Y25.154
G1 F1800 X-29.68 Y-34.205 E375.72126
G0 F2400 X-29.68 Y-34.771
G1 F1800 X29.68 Y24.588 E379.90939
G0 F2400 X29.68 Y24.023
G1 F1800 X-29.68 Y-35.336 E384.09753
G0 F2400 X-29.68 Y-35.902
G1 F1800 X29.68 Y23.457 E388.28566
G0 F2400 X29.68 Y22.891
G1 F1800 X-29.68 Y-36.468 E392.47379
G0 F2400 X-29.68 Y-37.034
G1 F1800 X29.68 Y22.326 E396.66196
G0 F2400 X29.68 Y21.76
G1 F1800 X-29.68 Y-37.599 E400.8501
G0 F2400 X-29.68 Y-38.165
G1 F1800 X29.68 Y21.194 E405.03823
G0 F2400 X29.68 Y20.629
G1 F1800 X-29.378 Y-38.429 E409.20509
G0 F2400 X-28.813 Y-38.429
G1 F1800 X29.68 Y20.063 E413.33205
G0 F2400 X29.68 Y19.497
G1 F1800 X-28.247 Y-38.429 E417.41908
G0 F2400 X-27.681 Y-38.429
G1 F1800 X29.68 Y18.932 E421.46621
G0 F2400 X29.68 Y18.366
G1 F1800 X-27.116 Y-38.429 E425.47344
G0 F2400 X-26.55 Y-38.429
G1 F1800 X29.68 Y17.8 E429.44073
G0 F2400 X29.68 Y17.235
G1 F1800 X-25.984 Y-38.429 E433.36813
G0 F2400 X-25.419 Y-38.429
G1 F1800 X29.68 Y16.669 E437.25562
G0 F2400 X29.68 Y16.103
G1 F1800 X-24.853 Y-38.429 E441.10319
G0 F2400 X-24.287 Y-38.429
G1 F1800 X29.68 Y15.537 E444.91081
G0 F2400 X29.68 Y14.972
G1 F1800 X-23.722 Y-38.429 E448.67858
G0 F2400 X-23.156 Y-38.429
G1 F1800 X29.68 Y14.406 E452.40641
G0 F2400 X29.68 Y13.84
G1 F1800 X-22.59 Y-38.429 E456.0943
G0 F2400 X-22.024 Y-38.429
G1 F1800 X29.68 Y13.275 E459.7423
G0 F2400 X29.68 Y12.709
G1 F1800 X-21.459 Y-38.429 E463.3504
G0 F2400 X-20.893 Y-38.429
G1 F1800 X29.68 Y12.143 E466.91856
G0 F2400 X29.68 Y11.578
G1 F1800 X-20.327 Y-38.429 E470.44682
G0 F2400 X-19.762 Y-38.429
G1 F1800 X29.68 Y11.012 E473.93519
G0 F2400 X29.68 Y10.446
G1 F1800 X-19.196 Y-38.429 E477.38362
G0 F2400 X-18.63 Y-38.429
G1 F1800 X29.68 Y9.881 E480.79215
G0 F2400 X29.68 Y9.315
G1 F1800 X-18.065 Y-38.429 E484.16078
G0 F2400 X-17.499 Y-38.429
G1 F1800 X29.68 Y8.749 E487.48948
G0 F2400 X29.68 Y8.184
G1 F1800 X-16.933 Y-38.429 E490.77828
G0 F2400 X-16.368 Y-38.429
G1 F1800 X29.68 Y7.618 E494.02718
G0 F2400 X29.68 Y7.052
G1 F1800 X-15.802 Y-38.429 E497.23615
G0 F2400 X-15.236 Y-38.429
G1 F1800 X29.68 Y6.486 E500.40518
G0 F2400 X29.68 Y5.921
G1 F1800 X-14.671 Y-38.429 E503.53434
G0 F2400 X-14.105 Y-38.429
G1 F1800 X29.68 Y5.355 E506.62358
G0 F2400 X29.68 Y4.789
G1 F1800 X-13.539 Y-38.429 E509.67288
G0 F2400 X-12.973 Y-38.429
G1 F1800 X29.68 Y4.224 E512.68228
G0 F2400 X29.68 Y3.658
G1 F1800 X-12.408 Y-38.429 E515.65178
G0 F2400 X-11.842 Y-38.429
G1 F1800 X29.68 Y3.092 E518.58134
G0 F2400 X29.68 Y2.527
G1 F1800 X-11.276 Y-38.429 E521.47101
G0 F2400 X-10.711 Y-38.429
G1 F1800 X29.68 Y1.961 E524.32078
G0 F2400 X29.68 Y1.395
G1 F1800 X-10.145 Y-38.429 E527.13061
G0 F2400 X-9.579 Y-38.429
G1 F1800 X29.68 Y0.83 E529.90055
G0 F2400 X29.68 Y0.264
G1 F1800 X-9.014 Y-38.429 E532.63058
G0 F2400 X-8.448 Y-38.429
G1 F1800 X29.68 Y-.301 E535.32072
G0 F2400 X29.68 Y-.866
G1 F1800 X-7.882 Y-38.429 E537.97095
G0 F2400 X-7.317 Y-38.429
G1 F1800 X29.68 Y-1.432 E540.58129
G0 F2400 X29.68 Y-1.998
G1 F1800 X-6.751 Y-38.429 E543.1517
G0 F2400 X-6.185 Y-38.429
G1 F1800 X29.68 Y-2.563 E545.6822
G0 F2400 X29.68 Y-3.129
G1 F1800 X-5.62 Y-38.429 E548.17281
G0 F2400 X-5.054 Y-38.429
G1 F1800 X29.68 Y-3.695 E550.62348
G0 F2400 X29.68 Y-4.261
G1 F1800 X-4.488 Y-38.429 E553.03421
G0 F2400 X-3.923 Y-38.429
G1 F1800 X29.68 Y-4.826 E555.40509
G0 F2400 X29.68 Y-5.392
G1 F1800 X-3.357 Y-38.429 E557.73603
G0 F2400 X-2.791 Y-38.429
G1 F1800 X29.68 Y-5.958 E560.02703
G0 F2400 X29.68 Y-6.523
G1 F1800 X-2.225 Y-38.429 E562.27814
G0 F2400 X-1.66 Y-38.429
G1 F1800 X29.68 Y-7.089 E564.48934
G0 F2400 X29.68 Y-7.655
G1 F1800 X-1.094 Y-38.429 E566.66061
G0 F2400 X-.528 Y-38.429
G1 F1800 X29.68 Y-8.22 E568.79199
G0 F2400 X29.68 Y-8.786
G1 F1800 X0.036 Y-38.429 E570.8835
G0 F2400 X0.602 Y-38.429
G1 F1800 X29.68 Y-9.352 E572.93507
G0 F2400 X29.68 Y-9.917
G1 F1800 X1.168 Y-38.429 E574.94675
G0 F2400 X1.733 Y-38.429
G1 F1800 X29.68 Y-10.483 E576.91852
G0 F2400 X29.68 Y-11.049
G1 F1800 X2.299 Y-38.429 E578.85037
G0 F2400 X2.865 Y-38.429
G1 F1800 X29.68 Y-11.614 E580.74231
G0 F2400 X29.68 Y-12.18
G1 F1800 X3.43 Y-38.429 E582.59435
G0 F2400 X3.996 Y-38.429
G1 F1800 X29.68 Y-12.746 E584.40646
G0 F2400 X29.68 Y-13.311
G1 F1800 X4.562 Y-38.429 E586.17867
G0 F2400 X5.127 Y-38.429
G1 F1800 X29.68 Y-13.877 E587.91098
G0 F2400 X29.68 Y-14.443
G1 F1800 X5.693 Y-38.429 E589.60336
G0 F2400 X6.259 Y-38.429
G1 F1800 X29.68 Y-15.009 E591.2558
G0 F2400 X29.68 Y-15.574
G1 F1800 X6.824 Y-38.429 E592.86838
G0 F2400 X7.39 Y-38.429
G1 F1800 X29.68 Y-16.14 E594.44103
G0 F2400 X29.68 Y-16.706
G1 F1800 X7.956 Y-38.429 E595.97374
G0 F2400 X8.522 Y-38.429
G1 F1800 X29.68 Y-17.271 E597.46655
G0 F2400 X29.68 Y-17.837
G1 F1800 X9.087 Y-38.429 E598.91946
G0 F2400 X9.653 Y-38.429
G1 F1800 X29.68 Y-18.403 E600.33244
G0 F2400 X29.68 Y-18.968
G1 F1800 X10.219 Y-38.429 E601.70552
G0 F2400 X10.784 Y-38.429
G1 F1800 X29.68 Y-19.534 E603.0387
G0 F2400 X29.68 Y-20.1
G1 F1800 X11.35 Y-38.429 E604.33194
G0 F2400 X11.916 Y-38.429
G1 F1800 X29.68 Y-20.665 E605.58529
G0 F2400 X29.68 Y-21.231
G1 F1800 X12.481 Y-38.429 E606.79874
G0 F2400 X13.047 Y-38.429
G1 F1800 X29.68 Y-21.797 E607.97225
G0 F2400 X29.68 Y-22.362
G1 F1800 X13.613 Y-38.429 E609.10586
G0 F2400 X14.178 Y-38.429
G1 F1800 X29.68 Y-22.928 E610.19958
G0 F2400 X29.68 Y-23.494
G1 F1800 X14.744 Y-38.429 E611.25336
G0 F2400 X15.31 Y-38.429
G1 F1800 X29.68 Y-24.06 E612.2672
G0 F2400 X29.68 Y-24.625
G1 F1800 X15.875 Y-38.429 E613.24118
G0 F2400 X16.441 Y-38.429
G1 F1800 X29.68 Y-25.191 E614.17523
G0 F2400 X29.68 Y-25.757
G1 F1800 X17.007 Y-38.429 E615.06935
G0 F2400 X17.573 Y-38.429
G1 F1800 X29.68 Y-26.322 E615.92356
G0 F2400 X29.68 Y-26.888
G1 F1800 X18.138 Y-38.429 E616.73787
G0 F2400 X18.704 Y-38.429
G1 F1800 X29.68 Y-27.454 E617.51226
G0 F2400 X29.68 Y-28.019
G1 F1800 X19.27 Y-38.429 E618.24674
G0 F2400 X19.835 Y-38.429
G1 F1800 X29.68 Y-28.585 E618.94132
G0 F2400 X29.68 Y-29.151
G1 F1800 X20.401 Y-38.429 E619.59597
G0 F2400 X20.967 Y-38.429
G1 F1800 X29.68 Y-29.716 E620.21072
G0 F2400 X29.68 Y-30.282
G1 F1800 X21.532 Y-38.429 E620.78557
G0 F2400 X22.098 Y-38.429
G1 F1800 X29.68 Y-30.848 E621.32048
G0 F2400 X29.68 Y-31.413
G1 F1800 X22.664 Y-38.429 E621.8155
G0 F2400 X23.229 Y-38.429
G1 F1800 X29.68 Y-31.979 E622.27062
G0 F2400 X29.68 Y-32.545
G1 F1800 X23.795 Y-38.429 E622.6858
G0 F2400 X24.361 Y-38.429
G1 F1800 X29.68 Y-33.11 E623.06109
G0 F2400 X29.68 Y-33.676
G1 F1800 X24.926 Y-38.429 E623.39647
G0 F2400 X25.492 Y-38.429
G1 F1800 X29.68 Y-34.242 E623.69192
G0 F2400 X29.68 Y-34.808
G1 F1800 X26.058 Y-38.429 E623.94744
G0 F2400 X26.623 Y-38.429
G1 F1800 X29.68 Y-35.373 E624.16309
G0 F2400 X29.68 Y-35.939
G1 F1800 X27.189 Y-38.429 E624.33881
G0 F2400 X27.755 Y-38.429
G1 F1800 X29.68 Y-36.505 E624.47459
G0 F2400 X29.68 Y-37.07
G1 F1800 X28.321 Y-38.429 E624.57048
G0 F2400 X28.886 Y-38.429
G1 F1800 X29.68 Y-37.636 E624.62646
G0 F2400 X29.68 Y-38.202
G1 F1800 X29.452 Y-38.429 E624.64251
;MESH:NONMESH
G0 F600 X29.452 Y-38.429 Z0.5
G0 F2400 X-30.25 Y39
;TIME_ELAPSED:427.693116
;LAYER:1
;TYPE:WALL-INNER
