;FLAVOR:Marlin
;TIME:6097
;Filament used: 8.1049m
;Layer height: 0.2
;MINX:-39.8
;MINY:-31.05
;MINZ:0.3
;MAXX:39.8
;MAXY:31.05
;MAXZ:19.9
;Generated with Cura_SteamEngine 4.6.2
M104 S200
M105
M109 S200
M82 ;absolute extrusion mode
G90
G1 F300 Z1
G1 F5000 X77 Y26
G1 F300 Z0.315
G92 E0
G1 F2520 X77 Y-45 E4
G1 F2520 X77.5 Y-45 E4.05
G1 F2520 X77.5 Y26 E8
G1 F5000 X77.25 Y26
G92 E0
G1 F2520 X77.25 Y-45 E4
G1 F2520 X77.75 Y-45 E4.05
G1 F2520 X77.75 Y26 E8
G1 F5000 X77 Y0
G1 F300 Z1
G1 X0 Y0 F5000
G92 E0
G92 E0
G92 E0
G1 F900 E-6.5
;LAYER_COUNT:99
;LAYER:0
M106 S255
;MESH:resource-tray.stl
G0 F2400 X-39 Y30.25 Z0.3
;TYPE:WALL-INNER
G1 F900 E0
G1 F1800 X-39 Y-30.25 E3.01836
G1 X39 Y-30.25 E6.90979
G1 X39 Y30.25 E9.92815
G1 X-39 Y30.25 E13.81959
G0 F2400 X-39.4 Y30.65
G1 F1800 X-39.4 Y-30.65 E16.87786
G1 X39.4 Y-30.65 E20.8092
G1 X39.4 Y30.65 E23.86747
G1 X-39.4 Y30.65 E27.79882
G0 F2400 X-39.8 Y31.05
;TYPE:WALL-OUTER
G1 F1800 X-39.8 Y-31.05 E30.897
G1 X39.8 Y-31.05 E34.86826
G1 X39.8 Y31.05 E37.96644
G1 X-39.8 Y31.05 E41.9377
G0 F2400 X-39.8 Y30.85
G0 X-39.33 Y30.58
G0 X-38.61 Y29.86
;TYPE:SKIN
G1 F1800 X-38.61 Y-29.86 E44.91715
G1 X38.61 Y-29.86 E48.76967
G1 X38.61 Y29.86 E51.74911
G1 X-38.61 Y29.86 E55.60163
G0 F2400 X-38.429 Y29.452
G1 F1800 X-38.202 Y29.68 E55.61768
G0 F2400 X-37.636 Y29.68
G1 F1800 X-38.429 Y28.886 E55.67367
G0 F2400 X-38.429 Y28.321
G1 F1800 X-37.07 Y29.68 E55.76955
G0 F2400 X-36.505 Y29.68
G1 F1800 X-38.429 Y27.755 E55.90534
G0 F2400 X-38.429 Y27.189
G1 F1800 X-35.939 Y29.68 E56.08106
G0 F2400 X-35.373 Y29.68
G1 F1800 X-38.429 Y26.623 E56.29671
G0 F2400 X-38.429 Y26.058
G1 F1800 X-34.808 Y29.68 E56.55223
G0 F2400 X-34.242 Y29.68
G1 F1800 X-38.429 Y25.492 E56.84768
G0 F2400 X-38.429 Y24.926
G1 F1800 X-33.676 Y29.68 E57.18306
G0 F2400 X-33.11 Y29.68
G1 F1800 X-38.429 Y24.361 E57.55835
G0 F2400 X-38.429 Y23.795
G1 F1800 X-32.545 Y29.68 E57.97353
G0 F2400 X-31.979 Y29.68
G1 F1800 X-38.429 Y23.229 E58.42865
G0 F2400 X-38.429 Y22.664
G1 F1800 X-31.413 Y29.68 E58.92366
G0 F2400 X-30.848 Y29.68
G1 F1800 X-38.429 Y22.098 E59.45858
G0 F2400 X-38.429 Y21.532
G1 F1800 X-30.282 Y29.68 E60.03343
G0 F2400 X-29.716 Y29.68
G1 F1800 X-38.429 Y20.967 E60.64818
G0 F2400 X-38.429 Y20.401
G1 F1800 X-29.151 Y29.68 E61.30283
G0 F2400 X-28.585 Y29.68
G1 F1800 X-38.429 Y19.835 E61.99741
G0 F2400 X-38.429 Y19.27
G1 F1800 X-28.019 Y29.68 E62.73189
G0 F2400 X-27.454 Y29.68
G1 F1800 X-38.429 Y18.704 E63.50627
G0 F2400 X-38.429 Y18.138
G1 F1800 X-26.888 Y29.68 E64.32059
G0 F2400 X-26.322 Y29.68
G1 F1800 X-38.429 Y17.573 E65.1748
G0 F2400 X-38.429 Y17.007
G1 F1800 X-25.757 Y29.68 E66.06891
G0 F2400 X-25.191 Y29.68
G1 F1800 X-38.429 Y16.441 E67.00296
G0 F2400 X-38.429 Y15.875
G1 F1800 X-24.625 Y29.68 E67.97694
G0 F2400 X-24.06 Y29.68
G1 F1800 X-38.429 Y15.31 E68.99079
G0 F2400 X-38.429 Y14.744
G1 F1800 X-23.494 Y29.68 E70.04457
G0 F2400 X-22.928 Y29.68
G1 F1800 X-38.429 Y14.178 E71.13829
G0 F2400 X-38.429 Y13.613
G1 F1800 X-22.362 Y29.68 E72.2719
G0 F2400 X-21.797 Y29.68
G1 F1800 X-38.429 Y13.047 E73.44541
G0 F2400 X-38.429 Y12.481
G1 F1800 X-21.231 Y29.68 E74.65886
G0 F2400 X-20.665 Y29.68
G1 F1800 X-38.429 Y11.916 E75.9122
G0 F2400 X-38.429 Y11.35
G1 F1800 X-20.1 Y29.68 E77.20545
G0 F2400 X-19.534 Y29.68
G1 F1800 X-38.429 Y10.784 E78.53863
G0 F2400 X-38.429 Y10.219
G1 F1800 X-18.968 Y29.68 E79.91171
G0 F2400 X-18.403 Y29.68
G1 F1800 X-38.429 Y9.653 E81.32469
G0 F2400 X-38.429 Y9.087
G1 F1800 X-17.837 Y29.68 E82.7776
G0 F2400 X-17.271 Y29.68
G1 F1800 X-38.429 Y8.522 E84.27041
G0 F2400 X-38.429 Y7.956
G1 F1800 X-16.706 Y29.68 E85.80312
G0 F2400 X-16.14 Y29.68
G1 F1800 X-38.429 Y7.39 E87.37576
G0 F2400 X-38.429 Y6.824
G1 F1800 X-15.574 Y29.68 E88.98834
G0 F2400 X-15.009 Y29.68
G1 F1800 X-38.429 Y6.259 E90.64079
G0 F2400 X-38.429 Y5.693
G1 F1800 X-14.443 Y29.68 E92.33316
G0 F2400 X-13.877 Y29.68
G1 F1800 X-38.429 Y5.127 E94.06547
G0 F2400 X-38.429 Y4.562
G1 F1800 X-13.311 Y29.68 E95.83768
G0 F2400 X-12.746 Y29.68
G1 F1800 X-38.429 Y3.996 E97.64979
G0 F2400 X-38.429 Y3.43
G1 F1800 X-12.18 Y29.68 E99.50184
G0 F2400 X-11.614 Y29.68
G1 F1800 X-38.429 Y2.865 E101.39378
G0 F2400 X-38.429 Y2.299
G1 F1800 X-11.049 Y29.68 E103.32562
G0 F2400 X-10.483 Y29.68
G1 F1800 X-38.429 Y1.733 E105.2974
G0 F2400 X-38.429 Y1.168
G1 F1800 X-9.917 Y29.68 E107.30908
G0 F2400 X-9.352 Y29.68
G1 F1800 X-38.429 Y0.602 E109.36065
G0 F2400 X-38.429 Y0.036
G1 F1800 X-8.786 Y29.68 E111.45216
G0 F2400 X-8.22 Y29.68
G1 F1800 X-38.429 Y-.528 E113.58353
G0 F2400 X-38.429 Y-1.094
G1 F1800 X-7.655 Y29.68 E115.7548
G0 F2400 X-7.089 Y29.68
G1 F1800 X-38.429 Y-1.66 E117.96601
G0 F2400 X-38.429 Y-2.225
G1 F1800 X-6.523 Y29.68 E120.21712
G0 F2400 X-5.958 Y29.68
G1 F1800 X-38.429 Y-2.791 E122.50812
G0 F2400 X-38.429 Y-3.357
G1 F1800 X-5.392 Y29.68 E124.83906
G0 F2400 X-4.826 Y29.68
G1 F1800 X-38.429 Y-3.923 E127.20993
G0 F2400 X-38.429 Y-4.488
G1 F1800 X-4.261 Y29.68 E129.62067
G0 F2400 X-3.695 Y29.68
G1 F1800 X-38.429 Y-5.054 E132.07134
G0 F2400 X-38.429 Y-5.62
G1 F1800 X-3.129 Y29.68 E134.56195
G0 F2400 X-2.563 Y29.68
G1 F1800 X-38.429 Y-6.185 E137.09245
G0 F2400 X-38.429 Y-6.751
G1 F1800 X-1.998 Y29.68 E139.66285
G0 F2400 X-1.432 Y29.68
G1 F1800 X-38.429 Y-7.317 E142.27319
G0 F2400 X-38.429 Y-7.882
G1 F1800 X-.866 Y29.68 E144.92343
G0 F2400 X-.301 Y29.68
G1 F1800 X-38.429 Y-8.448 E147.61357
G0 F2400 X-38.429 Y-9.014
G1 F1800 X0.264 Y29.68 E150.3436
G0 F2400 X0.83 Y29.68
G1 F1800 X-38.429 Y-9.579 E153.11354
G0 F2400 X-38.429 Y-10.145
G1 F1800 X1.395 Y29.68 E155.92337
G0 F2400 X1.961 Y29.68
G1 F1800 X-38.429 Y-10.711 E158.77314
G0 F2400 X-38.429 Y-11.276
G1 F1800 X2.527 Y29.68 E161.66281
G0 F2400 X3.092 Y29.68
G1 F1800 X-38.429 Y-11.842 E164.59237
G0 F2400 X-38.429 Y-12.408
G1 F1800 X3.658 Y29.68 E167.56187
G0 F2400 X4.224 Y29.68
G1 F1800 X-38.429 Y-12.973 E170.57127
G0 F2400 X-38.429 Y-13.539
G1 F1800 X4.789 Y29.68 E173.62057
G0 F2400 X5.355 Y29.68
G1 F1800 X-38.429 Y-14.105 E176.7098
G0 F2400 X-38.429 Y-14.671
G1 F1800 X5.921 Y29.68 E179.83897
G0 F2400 X6.486 Y29.68
G1 F1800 X-38.429 Y-15.236 E183.008
G0 F2400 X-38.429 Y-15.802
G1 F1800 X7.052 Y29.68 E186.21697
G0 F2400 X7.618 Y29.68
G1 F1800 X-38.429 Y-16.368 E189.46587
G0 F2400 X-38.429 Y-16.933
G1 F1800 X8.184 Y29.68 E192.75467
G0 F2400 X8.749 Y29.68
G1 F1800 X-38.429 Y-17.499 E196.08336
G0 F2400 X-38.429 Y-18.065
G1 F1800 X9.315 Y29.68 E199.452
G0 F2400 X9.881 Y29.68
G1 F1800 X-38.429 Y-18.63 E202.86053
G0 F2400 X-38.429 Y-19.196
G1 F1800 X10.446 Y29.68 E206.30896
G0 F2400 X11.012 Y29.68
G1 F1800 X-38.429 Y-19.762 E209.79732
G0 F2400 X-38.429 Y-20.327
G1 F1800 X11.578 Y29.68 E213.32559
G0 F2400 X12.143 Y29.68
G1 F1800 X-38.429 Y-20.893 E216.89375
G0 F2400 X-38.429 Y-21.459
G1 F1800 X12.709 Y29.68 E220.50185
G0 F2400 X13.275 Y29.68
G1 F1800 X-38.429 Y-22.024 E224.14984
G0 F2400 X-38.429 Y-22.59
G1 F1800 X13.84 Y29.68 E227.83774
G0 F2400 X14.406 Y29.68
G1 F1800 X-38.429 Y-23.156 E231.56557
G0 F2400 X-38.429 Y-23.722
G1 F1800 X14.972 Y29.68 E235.33333
G0 F2400 X15.537 Y29.68
G1 F1800 X-38.429 Y-24.287 E239.14096
G0 F2400 X-38.429 Y-24.853
G1 F1800 X16.103 Y29.68 E242.98852
G0 F2400 X16.669 Y29.68
G1 F1800 X-38.429 Y-25.419 E246.87602
G0 F2400 X-38.429 Y-25.984
G1 F1800 X17.235 Y29.68 E250.80342
G0 F2400 X17.8 Y29.68
G1 F1800 X-38.429 Y-26.55 E254.77071
G0 F2400 X-38.429 Y-27.116
G1 F1800 X18.366 Y29.68 E258.77794
G0 F2400 X18.932 Y29.68
G1 F1800 X-38.429 Y-27.681 E262.82507
G0 F2400 X-38.429 Y-28.247
G1 F1800 X19.497 Y29.68 E266.9121
G0 F2400 X20.063 Y29.68
G1 F1800 X-38.429 Y-28.813 E271.03906
G0 F2400 X-38.429 Y-29.378
G1 F1800 X20.629 Y29.68 E275.20592
G0 F2400 X21.194 Y29.68
G1 F1800 X-38.165 Y-29.68 E279.39405
G0 F2400 X-37.599 Y-29.68
G1 F1800 X21.76 Y29.68 E283.58219
G0 F2400 X22.326 Y29.68
G1 F1800 X-37.034 Y-29.68 E287.77035
G0 F2400 X-36.468 Y-29.68
G1 F1800 X22.891 Y29.68 E291.95849
G0 F2400 X23.457 Y29.68
G1 F1800 X-35.902 Y-29.68 E296.14662
G0 F2400 X-35.336 Y-29.68
G1 F1800 X24.023 Y29.68 E300.33475
G0 F2400 X24.588 Y29.68
G1 F1800 X-34.771 Y-29.68 E304.52289
G0 F2400 X-34.205 Y-29.68
G1 F1800 X25.154 Y29.68 E308.71102
G0 F2400 X25.72 Y29.68
G1 F1800 X-33.639 Y-29.68 E312.89915
G0 F2400 X-33.074 Y-29.68
G1 F1800 X26.285 Y29.68 E317.08729
G0 F2400 X26.851 Y29.68
G1 F1800 X-32.508 Y-29.68 E321.27542
G0 F2400 X-31.942 Y-29.68
G1 F1800 X27.417 Y29.68 E325.46355
G0 F2400 X27.983 Y29.68
G1 F1800 X-31.377 Y-29.68 E329.65172
G0 F2400 X-30.811 Y-29.68
G1 F1800 X28.548 Y29.68 E333.83986
G0 F2400 X29.114 Y29.68
G1 F1800 X-30.245 Y-29.68 E338.02799
G0 F2400 X-29.68 Y-29.68
G1 F1800 X29.68 Y29.68 E342.21616
G0 F2400 X30.245 Y29.68
G1 F1800 X-29.114 Y-29.68 E346.40429
G0 F2400 X-28.548 Y-29.68
G1 F1800 X30.811 Y29.68 E350.59242
G0 F2400 X31.377 Y29.68
G1 F1800 X-27.983 Y-29.68 E354.78059
G0 F2400 X-27.417 Y-29.68
G1 F1800 X31.942 Y29.68 E358.96873
G0 F2400 X32.508 Y29.68
G1 F1800 X-26.851 Y-29.68 E363.15686
G0 F2400 X-26.285 Y-29.68
G1 F1800 X33.074 Y29.68 E367.34499
G0 F2400 X33.639 Y29.68
G1 F1800 X-25.72 Y-29.68 E371.53313
G0 F2400 X-25.154 Y-29.68
G1 F1800 X34.205 Y29.68 E375.72126
G0 F2400 X34.771 Y29.68
G1 F1800 X-24.588 Y-29.68 E379.90939
G0 F2400 X-24.023 Y-29.68
G1 F1800 X35.336 Y29.68 E384.09753
G0 F2400 X35.902 Y29.68
G1 F1800 X-23.457 Y-29.68 E388.28566
G0 F2400 X-22.891 Y-29.68
G1 F1800 X36.468 Y29.68 E392.47379
G0 F2400 X37.034 Y29.68
G1 F1800 X-22.326 Y-29.68 E396.66196
G0 F2400 X-21.76 Y-29.68
G1 F1800 X37.599 Y29.68 E400.8501
G0 F2400 X38.165 Y29.68
G1 F1800 X-21.194 Y-29.68 E405.03823
G0 F2400 X-20.629 Y-29.68
G1 F1800 X38.429 Y29.378 E409.20509
G0 F2400 X38.429 Y28.813
G1 F1800 X-20.063 Y-29.68 E413.33205
G0 F2400 X-19.497 Y-29.68
G1 F1800 X38.429 Y28.247 E417.41908
G0 F2400 X38.429 Y27.681
G1 F1800 X-18.932 Y-29.68 E421.46621
G0 F2400 X-18.366 Y-29.68
G1 F1800 X38.429 Y27.116 E425.47344
G0 F2400 X38.429 Y26.55
G1 F1800 X-17.8 Y-29.68 E429.44073
G0 F2400 X-17.235 Y-29.68
G1 F1800 X38.429 Y25.984 E433.36813
G0 F2400 X38.429 Y25.419
G1 F1800 X-16.669 Y-29.68 E437.25562
G0 F2400 X-16.103 Y-29.68
G1 F1800 X38.429 Y24.853 E441.10319
G0 F2400 X38.429 Y24.287
G1 F1800 X-15.537 Y-29.68 E444.91081
G0 F2400 X-14.972 Y-29.68
G1 F1800 X38.429 Y23.722 E448.67858
G0 F2400 X38.429 Y23.156
G1 F1800 X-14.406 Y-29.68 E452.40641
G0 F2400 X-13.84 Y-29.68
G1 F1800 X38.429 Y22.59 E456.0943
G0 F2400 X38.429 Y22.024
G1 F1800 X-13.275 Y-29.68 E459.7423
G0 F2400 X-12.709 Y-29.68
G1 F1800 X38.429 Y21.459 E463.3504
G0 F2400 X38.429 Y20.893
G1 F1800 X-12.143 Y-29.68 E466.91856
G0 F2400 X-11.578 Y-29.68
G1 F1800 X38.429 Y20.327 E470.44682
G0 F2400 X38.429 Y19.762
G1 F1800 X-11.012 Y-29.68 E473.93519
G0 F2400 X-10.446 Y-29.68
G1 F1800 X38.429 Y19.196 E477.38362
G0 F2400 X38.429 Y18.63
G1 F1800 X-9.881 Y-29.68 E480.79215
G0 F2400 X-9.315 Y-29.68
G1 F1800 X38.429 Y18.065 E484.16078
G0 F2400 X38.429 Y17.499
G1 F1800 X-8.749 Y-29.68 E487.48948
G0 F2400 X-8.184 Y-29.68
G1 F1800 X38.429 Y16.933 E490.77828
G0 F2400 X38.429 Y16.368
G1 F1800 X-7.618 Y-29.68 E494.02718
G0 F2400 X-7.052 Y-29.68
G1 F1800 X38.429 Y15.802 E497.23615
G0 F2400 X38.429 Y15.236
G1 F1800 X-6.486 Y-29.68 E500.40518
G0 F2400 X-5.921 Y-29.68
G1 F1800 X38.429 Y14.671 E503.53434
G0 F2400 X38.429 Y14.105
G1 F1800 X-5.355 Y-29.68 E506.62358
G0 F2400 X-4.789 Y-29.68
G1 F1800 X38.429 Y13.539 E509.67288
G0 F2400 X38.429 Y12.973
G1 F1800 X-4.224 Y-29.68 E512.68228
G0 F2400 X-3.658 Y-29.68
G1 F1800 X38.429 Y12.408 E515.65178
G0 F2400 X38.429 Y11.842
G1 F1800 X-3.092 Y-29.68 E518.58134
G0 F2400 X-2.527 Y-29.68
G1 F1800 X38.429 Y11.276 E521.47101
G0 F2400 X38.429 Y10.711
G1 F1800 X-1.961 Y-29.68 E524.32078
G0 F2400 X-1.395 Y-29.68
G1 F1800 X38.429 Y10.145 E527.13061
G0 F2400 X38.429 Y9.579
G1 F1800 X-.83 Y-29.68 E529.90055
G0 F2400 X-.264 Y-29.68
G1 F1800 X38.429 Y9.014 E532.63058
G0 F2400 X38.429 Y8.448
G1 F1800 X0.301 Y-29.68 E535.32072
G0 F2400 X0.866 Y-29.68
G1 F1800 X38.429 Y7.882 E537.97095
G0 F2400 X38.429 Y7.317
G1 F1800 X1.432 Y-29.68 E540.58129
G0 F2400 X1.998 Y-29.68
G1 F1800 X38.429 Y6.751 E543.1517
G0 F2400 X38.429 Y6.185
G1 F1800 X2.563 Y-29.68 E545.6822
G0 F2400 X3.129 Y-29.68
G1 F1800 X38.429 Y5.62 E548.17281
G0 F2400 X38.429 Y5.054
G1 F1800 X3.695 Y-29.68 E550.62348
G0 F2400 X4.261 Y-29.68
G1 F1800 X38.429 Y4.488 E553.03421
G0 F2400 X38.429 Y3.923
G1 F1800 X4.826 Y-29.68 E555.40509
G0 F2400 X5.392 Y-29.68
G1 F1800 X38.429 Y3.357 E557.73603
G0 F2400 X38.429 Y2.791
G1 F1800 X5.958 Y-29.68 E560.02703
G0 F2400 X6.523 Y-29.68
G1 F1800 X38.429 Y2.225 E562.27814
G0 F2400 X38.429 Y1.66
G1 F1800 X7.089 Y-29.68 E564.48934
G0 F2400 X7.655 Y-29.68
G1 F1800 X38.429 Y1.094 E566.66061
G0 F2400 X38.429 Y0.528
G1 F1800 X8.22 Y-29.68 E568.79199
G0 F2400 X8.786 Y-29.68
G1 F1800 X38.429 Y-0.036 E570.8835
G0 F2400 X38.429 Y-.602
G1 F1800 X9.352 Y-29.68 E572.93507
G0 F2400 X9.917 Y-29.68
G1 F1800 X38.429 Y-1.168 E574.94675
G0 F2400 X38.429 Y-1.733
G1 F1800 X10.483 Y-29.68 E576.91852
G0 F2400 X11.049 Y-29.68
G1 F1800 X38.429 Y-2.299 E578.85037
G0 F2400 X38.429 Y-2.865
G1 F1800 X11.614 Y-29.68 E580.74231
G0 F2400 X12.18 Y-29.68
G1 F1800 X38.429 Y-3.43 E582.59435
G0 F2400 X38.429 Y-3.996
G1 F1800 X12.746 Y-29.68 E584.40646
G0 F2400 X13.311 Y-29.68
G1 F1800 X38.429 Y-4.562 E586.17867
G0 F2400 X38.429 Y-5.127
G1 F1800 X13.877 Y-29.68 E587.91098
G0 F2400 X14.443 Y-29.68
G1 F1800 X38.429 Y-5.693 E589.60336
G0 F2400 X38.429 Y-6.259
G1 F1800 X15.009 Y-29.68 E591.2558
G0 F2400 X15.574 Y-29.68
G1 F1800 X38.429 Y-6.824 E592.86838
G0 F2400 X38.429 Y-7.39
G1 F1800 X16.14 Y-29.68 E594.44103
G0 F2400 X16.706 Y-29.68
G1 F1800 X38.429 Y-7.956 E595.97374
G0 F2400 X38.429 Y-8.522
G1 F1800 X17.271 Y-29.68 E597.46655
G0 F2400 X17.837 Y-29.68
G1 F1800 X38.429 Y-9.087 E598.91946
G0 F2400 X38.429 Y-9.653
G1 F1800 X18.403 Y-29.68 E600.33244
G0 F2400 X18.968 Y-29.68
G1 F1800 X38.429 Y-10.219 E601.70552
G0 F2400 X38.429 Y-10.784
G1 F1800 X19.534 Y-29.68 E603.0387
G0 F2400 X20.1 Y-29.68
G1 F1800 X38.429 Y-11.35 E604.33194
G0 F2400 X38.429 Y-11.916
G1 F1800 X20.665 Y-29.68 E605.58529
G0 F2400 X21.231 Y-29.68
G1 F1800 X38.429 Y-12.481 E606.79874
G0 F2400 X38.429 Y-13.047
G1 F1800 X21.797 Y-29.68 E607.97225
G0 F2400 X22.362 Y-29.68
G1 F1800 X38.429 Y-13.613 E609.10586
G0 F2400 X38.429 Y-14.178
G1 F1800 X22.928 Y-29.68 E610.19958
G0 F2400 X23.494 Y-29.68
G1 F1800 X38.429 Y-14.744 E611.25336
G0 F2400 X38.429 Y-15.31
G1 F1800 X24.06 Y-29.68 E612.2672
G0 F2400 X24.625 Y-29.68
G1 F1800 X38.429 Y-15.875 E613.24118
G0 F2400 X38.429 Y-16.441
G1 F1800 X25.191 Y-29.68 E614.17523
G0 F2400 X25.757 Y-29.68
G1 F1800 X38.429 Y-17.007 E615.06935
G0 F2400 X38.429 Y-17.573
G1 F1800 X26.322 Y-29.68 E615.92356
G0 F2400 X26.888 Y-29.68
G1 F1800 X38.429 Y-18.138 E616.73787
G0 F2400 X38.429 Y-18.704
G1 F1800 X27.454 Y-29.68 E617.51226
G0 F2400 X28.019 Y-29.68
G1 F1800 X38.429 Y-19.27 E618.24674
G0 F2400 X38.429 Y-19.835
G1 F1800 X28.585 Y-29.68 E618.94132
G0 F2400 X29.151 Y-29.68
G1 F1800 X38.429 Y-20.401 E619.59597
G0 F2400 X38.429 Y-20.967
G1 F1800 X29.716 Y-29.68 E620.21072
G0 F2400 X30.282 Y-29.68
G1 F1800 X38.429 Y-21.532 E620.78557
G0 F2400 X38.429 Y-22.098
G1 F1800 X30.848 Y-29.68 E621.32048
G0 F2400 X31.413 Y-29.68
G1 F1800 X38.429 Y-22.664 E621.8155
G0 F2400 X38.429 Y-23.229
G1 F1800 X31.979 Y-29.68 E622.27062
G0 F2400 X32.545 Y-29.68
G1 F1800 X38.429 Y-23.795 E622.6858
G0 F2400 X38.429 Y-24.361
G1 F1800 X33.11 Y-29.68 E623.06109
G0 F2400 X33.676 Y-29.68
G1 F1800 X38.429 Y-24.926 E623.39647
G0 F2400 X38.429 Y-25.492
G1 F1800 X34.242 Y-29.68 E623.69192
G0 F2400 X34.808 Y-29.68
G1 F1800 X38.429 Y-26.058 E623.94744
G0 F2400 X38.429 Y-26.623
G1 F1800 X35.373 Y-29.68 E624.16309
G0 F2400 X35.939 Y-29.68
G1 F1800 X38.429 Y-27.189 E624.33881
G0 F2400 X38.429 Y-27.755
G1 F1800 X36.505 Y-29.68 E624.47459
G0 F2400 X37.07 Y-29.68
G1 F1800 X38.429 Y-28.321 E624.57048
G0 F2400 X38.429 Y-28.886
G1 F1800 X37.636 Y-29.68 E624.62646
G0 F2400 X38.202 Y-29.68
G1 F1800 X38.429 Y-29.452 E624.64251
;MESH:NONMESH
G0 F600 X38.429 Y-29.452 Z0.5
G0 F2400 X-39 Y30.25
;TIME_ELAPSED:427.692516
;LAYER:1
;TYPE:WALL-INNER
