;FLAVOR:Marlin
;TIME:17836
;Filament used: 23.5762m
;Layer height: 0.2
;MINX:-67.3
;MINY:-44.8
;MINZ:0.3
;MAXX:67.3
;MAXY:44.8
;MAXZ:44.9
;Generated with Cura_SteamEngine 4.6.2
M104 S200
M105
M109 S200
M82 ;absolute extrusion mode
G90
G1 F300 Z1
G1 F5000 X77 Y26
G1 F300 Z0.315
G92 E0
G1 F2520 X77 Y-45 E4
G1 F2520 X77.5 Y-45 E4.05
G1 F2520 X77.5 Y26 E8
G1 F5000 X77.25 Y26
G92 E0
G1 F2520 X77.25 Y-45 E4
G1 F2520 X77.75 Y-45 E4.05
G1 F2520 X77.75 Y26 E8
G1 F5000 X77 Y0
G1 F300 Z1
G1 X0 Y0 F5000
G92 E0
G92 E0
G92 E0
G1 F900 E-6.5
;LAYER_COUNT:224
;LAYER:0
M106 S255
;MESH:tray-branded.stl
G0 F2400 X-66.5 Y44 Z0.3
;TYPE:WALL-INNER
G1 F900 E0
G1 F1800 X-66.5 Y-44 E4.39034
G1 X66.5 Y-44 E11.02573
G1 X66.5 Y44 E15.41607
G1 X-66.5 Y44 E22.05147
G0 F2400 X-66.9 Y44.4
G1 F1800 X-66.9 Y-44.4 E26.48172
G1 X66.9 Y-44.4 E33.15703
G1 X66.9 Y44.4 E37.58728
G1 X-66.9 Y44.4 E44.26259
G0 F2400 X-67.3 Y44.8
;TYPE:WALL-OUTER
G1 F1800 X-67.3 Y-44.8 E48.73275
G1 X67.3 Y-44.8 E55.44797
G1 X67.3 Y44.8 E59.91813
G1 X-67.3 Y44.8 E66.63335
G0 F2400 X-67.3 Y44.6
G0 X-66.83 Y44.33
G0 X-66.11 Y43.61
;TYPE:SKIN
G1 F1800 X-66.11 Y-43.61 E70.98478
G1 X66.11 Y-43.61 E77.58126
G1 X66.11 Y43.61 E81.93268
G1 X-66.11 Y43.61 E88.52917
G0 F2400 X-65.929 Y43.248
G1 F1800 X-65.746 Y43.43 E88.54204
G0 F2400 X-65.181 Y43.43
G1 F1800 X-65.929 Y42.682 E88.59482
G0 F2400 X-65.929 Y42.116
G1 F1800 X-64.615 Y43.43 E88.68753
G0 F2400 X-64.049 Y43.43
G1 F1800 X-65.929 Y41.551 E88.82014
G0 F2400 X-65.929 Y40.985
G1 F1800 X-63.484 Y43.43 E88.99265
G0 F2400 X-62.918 Y43.43
G1 F1800 X-65.929 Y40.419 E89.20509
G0 F2400 X-65.929 Y39.853
G1 F1800 X-62.352 Y43.43 E89.45746
G0 F2400 X-61.786 Y43.43
G1 F1800 X-65.929 Y39.288 E89.74974
G0 F2400 X-65.929 Y38.722
G1 F1800 X-61.221 Y43.43 E90.08191
G0 F2400 X-60.655 Y43.43
G1 F1800 X-65.929 Y38.156 E90.45402
G0 F2400 X-65.929 Y37.591
G1 F1800 X-60.089 Y43.43 E90.86603
G0 F2400 X-59.524 Y43.43
G1 F1800 X-65.929 Y37.025 E91.31794
G0 F2400 X-65.929 Y36.459
G1 F1800 X-58.958 Y43.43 E91.80978
G0 F2400 X-58.392 Y43.43
G1 F1800 X-65.929 Y35.894 E92.34152
G0 F2400 X-65.929 Y35.328
G1 F1800 X-57.827 Y43.43 E92.91316
G0 F2400 X-57.261 Y43.43
G1 F1800 X-65.929 Y34.762 E93.52474
G0 F2400 X-65.929 Y34.197
G1 F1800 X-56.695 Y43.43 E94.17621
G0 F2400 X-56.13 Y43.43
G1 F1800 X-65.929 Y33.631 E94.86758
G0 F2400 X-65.929 Y33.065
G1 F1800 X-55.564 Y43.43 E95.59889
G0 F2400 X-54.998 Y43.43
G1 F1800 X-65.929 Y32.5 E96.37009
G0 F2400 X-65.929 Y31.934
G1 F1800 X-54.433 Y43.43 E97.1812
G0 F2400 X-53.867 Y43.43
G1 F1800 X-65.929 Y31.368 E98.03224
G0 F2400 X-65.929 Y30.802
G1 F1800 X-53.301 Y43.43 E98.92321
G0 F2400 X-52.736 Y43.43
G1 F1800 X-65.929 Y30.237 E99.85405
G0 F2400 X-65.929 Y29.671
G1 F1800 X-52.17 Y43.43 E100.82482
G0 F2400 X-51.604 Y43.43
G1 F1800 X-65.929 Y29.105 E101.83553
G0 F2400 X-65.929 Y28.54
G1 F1800 X-51.038 Y43.43 E102.88613
G0 F2400 X-50.473 Y43.43
G1 F1800 X-65.929 Y27.974 E103.97664
G0 F2400 X-65.929 Y27.408
G1 F1800 X-49.907 Y43.43 E105.10708
G0 F2400 X-49.341 Y43.43
G1 F1800 X-65.929 Y26.843 E106.27741
G0 F2400 X-65.929 Y26.277
G1 F1800 X-48.776 Y43.43 E107.48765
G0 F2400 X-48.21 Y43.43
G1 F1800 X-65.929 Y25.711 E108.73782
G0 F2400 X-65.929 Y25.146
G1 F1800 X-47.644 Y43.43 E110.02789
G0 F2400 X-47.079 Y43.43
G1 F1800 X-65.929 Y24.58 E111.35786
G0 F2400 X-65.929 Y24.014
G1 F1800 X-46.513 Y43.43 E112.72776
G0 F2400 X-45.947 Y43.43
G1 F1800 X-65.929 Y23.449 E114.13757
G0 F2400 X-65.929 Y22.883
G1 F1800 X-45.382 Y43.43 E115.58727
G0 F2400 X-44.816 Y43.43
G1 F1800 X-65.929 Y22.317 E117.07691
G0 F2400 X-65.929 Y21.752
G1 F1800 X-44.25 Y43.43 E118.60644
G0 F2400 X-43.685 Y43.43
G1 F1800 X-65.929 Y21.186 E120.17587
G0 F2400 X-65.929 Y20.62
G1 F1800 X-43.119 Y43.43 E121.78524
G0 F2400 X-42.553 Y43.43
G1 F1800 X-65.929 Y20.054 E123.43455
G0 F2400 X-65.929 Y19.489
G1 F1800 X-41.988 Y43.43 E125.12371
G0 F2400 X-41.422 Y43.43
G1 F1800 X-65.929 Y18.923 E126.85281
G0 F2400 X-65.929 Y18.357
G1 F1800 X-40.856 Y43.43 E128.62185
G0 F2400 X-40.29 Y43.43
G1 F1800 X-65.929 Y17.792 E130.43078
G0 F2400 X-65.929 Y17.226
G1 F1800 X-39.725 Y43.43 E132.27962
G0 F2400 X-39.159 Y43.43
G1 F1800 X-65.929 Y16.66 E134.16839
G0 F2400 X-65.929 Y16.095
G1 F1800 X-38.593 Y43.43 E136.09705
G0 F2400 X-38.028 Y43.43
G1 F1800 X-65.929 Y15.529 E138.06562
G0 F2400 X-65.929 Y14.963
G1 F1800 X-37.462 Y43.43 E140.07412
G0 F2400 X-36.896 Y43.43
G1 F1800 X-65.929 Y14.398 E142.12252
G0 F2400 X-65.929 Y13.832
G1 F1800 X-36.331 Y43.43 E144.21082
G0 F2400 X-35.765 Y43.43
G1 F1800 X-65.929 Y13.266 E146.33905
G0 F2400 X-65.929 Y12.701
G1 F1800 X-35.199 Y43.43 E148.50718
G0 F2400 X-34.634 Y43.43
G1 F1800 X-65.929 Y12.135 E150.71522
G0 F2400 X-65.929 Y11.569
G1 F1800 X-34.068 Y43.43 E152.96318
G0 F2400 X-33.502 Y43.43
G1 F1800 X-65.929 Y11.003 E155.25108
G0 F2400 X-65.929 Y10.438
G1 F1800 X-32.937 Y43.43 E157.57885
G0 F2400 X-32.371 Y43.43
G1 F1800 X-65.929 Y9.872 E159.94654
G0 F2400 X-65.929 Y9.306
G1 F1800 X-31.805 Y43.43 E162.35418
G0 F2400 X-31.239 Y43.43
G1 F1800 X-65.929 Y8.741 E164.80171
G0 F2400 X-65.929 Y8.175
G1 F1800 X-30.674 Y43.43 E167.28914
G0 F2400 X-30.108 Y43.43
G1 F1800 X-65.929 Y7.609 E169.8165
G0 F2400 X-65.929 Y7.044
G1 F1800 X-29.542 Y43.43 E172.38377
G0 F2400 X-28.977 Y43.43
G1 F1800 X-65.929 Y6.478 E174.99093
G0 F2400 X-65.929 Y5.912
G1 F1800 X-28.411 Y43.43 E177.63803
G0 F2400 X-27.845 Y43.43
G1 F1800 X-65.929 Y5.347 E180.32502
G0 F2400 X-65.929 Y4.781
G1 F1800 X-27.28 Y43.43 E183.05192
G0 F2400 X-26.714 Y43.43
G1 F1800 X-65.929 Y4.215 E185.81875
G0 F2400 X-65.929 Y3.65
G1 F1800 X-26.148 Y43.43 E188.62548
G0 F2400 X-25.583 Y43.43
G1 F1800 X-65.929 Y3.084 E191.47211
G0 F2400 X-65.929 Y2.518
G1 F1800 X-25.017 Y43.43 E194.35867
G0 F2400 X-24.451 Y43.43
G1 F1800 X-65.929 Y1.953 E197.28513
G0 F2400 X-65.929 Y1.387
G1 F1800 X-23.886 Y43.43 E200.25149
G0 F2400 X-23.32 Y43.43
G1 F1800 X-65.929 Y0.821 E203.25779
G0 F2400 X-65.929 Y0.255
G1 F1800 X-22.754 Y43.43 E206.30402
G0 F2400 X-22.189 Y43.43
G1 F1800 X-65.929 Y-.309 E209.39007
G0 F2400 X-65.929 Y-.875
G1 F1800 X-21.623 Y43.43 E212.51607
G0 F2400 X-21.057 Y43.43
G1 F1800 X-65.929 Y-1.441 E215.68199
G0 F2400 X-65.929 Y-2.006
G1 F1800 X-20.491 Y43.43 E218.88782
G0 F2400 X-19.926 Y43.43
G1 F1800 X-65.929 Y-2.572 E222.13354
G0 F2400 X-65.929 Y-3.138
G1 F1800 X-19.36 Y43.43 E225.4192
G0 F2400 X-18.794 Y43.43
G1 F1800 X-65.929 Y-3.703 E228.74476
G0 F2400 X-65.929 Y-4.269
G1 F1800 X-18.229 Y43.43 E232.11022
G0 F2400 X-17.663 Y43.43
G1 F1800 X-65.929 Y-4.835 E235.51561
G0 F2400 X-65.929 Y-5.4
G1 F1800 X-17.097 Y43.43 E238.9609
G0 F2400 X-16.532 Y43.43
G1 F1800 X-65.929 Y-5.966 E242.44609
G0 F2400 X-65.929 Y-6.532
G1 F1800 X-15.966 Y43.43 E245.97122
G0 F2400 X-15.4 Y43.43
G1 F1800 X-65.929 Y-7.097 E249.53624
G0 F2400 X-65.929 Y-7.663
G1 F1800 X-14.835 Y43.43 E253.14116
G0 F2400 X-14.269 Y43.43
G1 F1800 X-65.929 Y-8.229 E256.78602
G0 F2400 X-65.929 Y-8.794
G1 F1800 X-13.703 Y43.43 E260.47077
G0 F2400 X-13.138 Y43.43
G1 F1800 X-65.929 Y-9.36 E264.19543
G0 F2400 X-65.929 Y-9.926
G1 F1800 X-12.572 Y43.43 E267.96002
G0 F2400 X-12.006 Y43.43
G1 F1800 X-65.929 Y-10.492 E271.76454
G0 F2400 X-65.929 Y-11.057
G1 F1800 X-11.44 Y43.43 E275.60896
G0 F2400 X-10.875 Y43.43
G1 F1800 X-65.929 Y-11.623 E279.49329
G0 F2400 X-65.929 Y-12.189
G1 F1800 X-10.309 Y43.43 E283.41754
G0 F2400 X-9.743 Y43.43
G1 F1800 X-65.929 Y-12.754 E287.3817
G0 F2400 X-65.929 Y-13.32
G1 F1800 X-9.178 Y43.43 E291.38575
G0 F2400 X-8.612 Y43.43
G1 F1800 X-65.929 Y-13.886 E295.42974
G0 F2400 X-65.929 Y-14.451
G1 F1800 X-8.046 Y43.43 E299.51363
G0 F2400 X-7.481 Y43.43
G1 F1800 X-65.929 Y-15.017 E303.63742
G0 F2400 X-65.929 Y-15.583
G1 F1800 X-6.915 Y43.43 E307.80114
G0 F2400 X-6.349 Y43.43
G1 F1800 X-65.929 Y-16.148 E312.00476
G0 F2400 X-65.929 Y-16.714
G1 F1800 X-5.784 Y43.43 E316.24828
G0 F2400 X-5.218 Y43.43
G1 F1800 X-65.929 Y-17.28 E320.53173
G0 F2400 X-65.929 Y-17.845
G1 F1800 X-4.652 Y43.43 E324.85508
G0 F2400 X-4.087 Y43.43
G1 F1800 X-65.929 Y-18.411 E329.21833
G0 F2400 X-65.929 Y-18.977
G1 F1800 X-3.521 Y43.43 E333.62152
G0 F2400 X-2.955 Y43.43
G1 F1800 X-65.929 Y-19.543 E338.06464
G0 F2400 X-65.929 Y-20.108
G1 F1800 X-2.39 Y43.43 E342.54763
G0 F2400 X-1.824 Y43.43
G1 F1800 X-65.929 Y-20.674 E347.07054
G0 F2400 X-65.929 Y-21.24
G1 F1800 X-1.258 Y43.43 E351.6334
G0 F2400 X-.692 Y43.43
G1 F1800 X-65.929 Y-21.805 E356.23615
G0 F2400 X-65.929 Y-22.371
G1 F1800 X-.127 Y43.43 E360.8788
G0 F2400 X0.438 Y43.43
G1 F1800 X-65.929 Y-22.937 E365.56135
G0 F2400 X-65.929 Y-23.502
G1 F1800 X1.004 Y43.43 E370.2838
G0 F2400 X1.569 Y43.43
G1 F1800 X-65.929 Y-24.068 E375.04615
G0 F2400 X-65.929 Y-24.634
G1 F1800 X2.135 Y43.43 E379.84843
G0 F2400 X2.701 Y43.43
G1 F1800 X-65.929 Y-25.199 E384.69061
G0 F2400 X-65.929 Y-25.765
G1 F1800 X3.266 Y43.43 E389.57269
G0 F2400 X3.832 Y43.43
G1 F1800 X-65.929 Y-26.331 E394.49471
G0 F2400 X-65.929 Y-26.896
G1 F1800 X4.398 Y43.43 E399.45662
G0 F2400 X4.963 Y43.43
G1 F1800 X-65.929 Y-27.462 E404.45844
G0 F2400 X-65.929 Y-28.028
G1 F1800 X5.529 Y43.43 E409.50019
G0 F2400 X6.095 Y43.43
G1 F1800 X-65.929 Y-28.593 E414.58183
G0 F2400 X-65.929 Y-29.159
G1 F1800 X6.66 Y43.43 E419.70338
G0 F2400 X7.226 Y43.43
G1 F1800 X-65.929 Y-29.725 E424.86486
G0 F2400 X-65.929 Y-30.291
G1 F1800 X7.792 Y43.43 E430.06627
G0 F2400 X8.358 Y43.43
G1 F1800 X-65.929 Y-30.856 E435.30759
G0 F2400 X-65.929 Y-31.422
G1 F1800 X8.923 Y43.43 E440.5888
G0 F2400 X9.489 Y43.43
G1 F1800 X-65.929 Y-31.988 E445.90995
G0 F2400 X-65.929 Y-32.553
G1 F1800 X10.055 Y43.43 E451.27099
G0 F2400 X10.62 Y43.43
G1 F1800 X-65.929 Y-33.119 E456.67194
G0 F2400 X-65.929 Y-33.685
G1 F1800 X11.186 Y43.43 E462.11282
G0 F2400 X11.752 Y43.43
G1 F1800 X-65.929 Y-34.25 E467.5936
G0 F2400 X-65.929 Y-34.816
G1 F1800 X12.317 Y43.43 E473.11428
G0 F2400 X12.883 Y43.43
G1 F1800 X-65.929 Y-35.382 E478.67489
G0 F2400 X-65.929 Y-35.947
G1 F1800 X13.449 Y43.43 E484.2754
G0 F2400 X14.014 Y43.43
G1 F1800 X-65.929 Y-36.513 E489.91581
G0 F2400 X-65.929 Y-37.079
G1 F1800 X14.58 Y43.43 E495.59615
G0 F2400 X15.146 Y43.43
G1 F1800 X-65.929 Y-37.644 E501.3164
G0 F2400 X-65.929 Y-38.21
G1 F1800 X15.711 Y43.43 E507.07654
G0 F2400 X16.277 Y43.43
G1 F1800 X-65.929 Y-38.776 E512.87662
G0 F2400 X-65.929 Y-39.342
G1 F1800 X16.843 Y43.43 E518.71663
G0 F2400 X17.408 Y43.43
G1 F1800 X-65.929 Y-39.907 E524.59651
G0 F2400 X-65.929 Y-40.473
G1 F1800 X17.974 Y43.43 E530.51632
G0 F2400 X18.54 Y43.43
G1 F1800 X-65.929 Y-41.039 E536.47606
G0 F2400 X-65.929 Y-41.604
G1 F1800 X19.106 Y43.43 E542.4757
G0 F2400 X19.671 Y43.43
G1 F1800 X-65.929 Y-42.17 E548.51525
G0 F2400 X-65.929 Y-42.736
G1 F1800 X20.237 Y43.43 E554.59472
G0 F2400 X20.803 Y43.43
G1 F1800 X-65.929 Y-43.301 E560.7141
G0 F2400 X-65.492 Y-43.43
G1 F1800 X21.368 Y43.43 E566.84254
G0 F2400 X21.934 Y43.43
G1 F1800 X-64.926 Y-43.43 E572.97098
G0 F2400 X-64.36 Y-43.43
G1 F1800 X22.5 Y43.43 E579.09942
G0 F2400 X23.065 Y43.43
G1 F1800 X-63.795 Y-43.43 E585.22787
G0 F2400 X-63.229 Y-43.43
G1 F1800 X23.631 Y43.43 E591.35631
G0 F2400 X24.197 Y43.43
G1 F1800 X-62.663 Y-43.43 E597.48475
G0 F2400 X-62.098 Y-43.43
G1 F1800 X24.762 Y43.43 E603.61319
G0 F2400 X25.328 Y43.43
G1 F1800 X-61.532 Y-43.43 E609.74163
G0 F2400 X-60.966 Y-43.43
G1 F1800 X25.894 Y43.43 E615.87008
G0 F2400 X26.459 Y43.43
G1 F1800 X-60.401 Y-43.43 E621.99852
G0 F2400 X-59.835 Y-43.43
G1 F1800 X27.025 Y43.43 E628.12696
G0 F2400 X27.591 Y43.43
G1 F1800 X-59.269 Y-43.43 E634.2554
G0 F2400 X-58.704 Y-43.43
G1 F1800 X28.156 Y43.43 E640.38385
G0 F2400 X28.722 Y43.43
G1 F1800 X-58.138 Y-43.43 E646.51229
G0 F2400 X-57.572 Y-43.43
G1 F1800 X29.288 Y43.43 E652.64073
G0 F2400 X29.854 Y43.43
G1 F1800 X-57.006 Y-43.43 E658.76917
G0 F2400 X-56.441 Y-43.43
G1 F1800 X30.419 Y43.43 E664.89761
G0 F2400 X30.985 Y43.43
G1 F1800 X-55.875 Y-43.43 E671.02606
G0 F2400 X-55.309 Y-43.43
G1 F1800 X31.551 Y43.43 E677.1545
G0 F2400 X32.116 Y43.43
G1 F1800 X-54.744 Y-43.43 E683.28294
G0 F2400 X-54.178 Y-43.43
G1 F1800 X32.682 Y43.43 E689.41138
G0 F2400 X33.248 Y43.43
G1 F1800 X-53.612 Y-43.43 E695.53982
G0 F2400 X-53.047 Y-43.43
G1 F1800 X33.813 Y43.43 E701.66827
G0 F2400 X34.379 Y43.43
G1 F1800 X-52.481 Y-43.43 E707.79671
G0 F2400 X-51.915 Y-43.43
G1 F1800 X34.945 Y43.43 E713.92515
G0 F2400 X35.51 Y43.43
G1 F1800 X-51.35 Y-43.43 E720.05359
G0 F2400 X-50.784 Y-43.43
G1 F1800 X36.076 Y43.43 E726.18204
G0 F2400 X36.642 Y43.43
G1 F1800 X-50.218 Y-43.43 E732.31048
G0 F2400 X-49.653 Y-43.43
G1 F1800 X37.207 Y43.43 E738.43892
G0 F2400 X37.773 Y43.43
G1 F1800 X-49.087 Y-43.43 E744.56736
G0 F2400 X-48.521 Y-43.43
G1 F1800 X38.339 Y43.43 E750.6958
G0 F2400 X38.905 Y43.43
G1 F1800 X-47.955 Y-43.43 E756.82425
G0 F2400 X-47.39 Y-43.43
G1 F1800 X39.47 Y43.43 E762.95269
G0 F2400 X40.036 Y43.43
G1 F1800 X-46.824 Y-43.43 E769.08113
G0 F2400 X-46.258 Y-43.43
G1 F1800 X40.602 Y43.43 E775.20957
G0 F2400 X41.167 Y43.43
G1 F1800 X-45.693 Y-43.43 E781.33801
G0 F2400 X-45.127 Y-43.43
G1 F1800 X41.733 Y43.43 E787.46646
G0 F2400 X42.299 Y43.43
G1 F1800 X-44.561 Y-43.43 E793.5949
G0 F2400 X-43.996 Y-43.43
G1 F1800 X42.864 Y43.43 E799.72334
G0 F2400 X43.43 Y43.43
G1 F1800 X-43.43 Y-43.43 E805.85178
G0 F2400 X-42.864 Y-43.43
G1 F1800 X43.996 Y43.43 E811.98023
G0 F2400 X44.561 Y43.43
G1 F1800 X-42.299 Y-43.43 E818.10867
G0 F2400 X-41.733 Y-43.43
G1 F1800 X45.127 Y43.43 E824.23711
G0 F2400 X45.693 Y43.43
G1 F1800 X-41.167 Y-43.43 E830.36555
G0 F2400 X-40.602 Y-43.43
G1 F1800 X46.258 Y43.43 E836.49399
G0 F2400 X46.824 Y43.43
G1 F1800 X-40.036 Y-43.43 E842.62244
G0 F2400 X-39.47 Y-43.43
G1 F1800 X47.39 Y43.43 E848.75088
G0 F2400 X47.955 Y43.43
G1 F1800 X-38.905 Y-43.43 E854.87932
G0 F2400 X-38.339 Y-43.43
G1 F1800 X48.521 Y43.43 E861.00776
G0 F2400 X49.087 Y43.43
G1 F1800 X-37.773 Y-43.43 E867.1362
G0 F2400 X-37.207 Y-43.43
G1 F1800 X49.653 Y43.43 E873.26465
G0 F2400 X50.218 Y43.43
G1 F1800 X-36.642 Y-43.43 E879.39309
G0 F2400 X-36.076 Y-43.43
G1 F1800 X50.784 Y43.43 E885.52153
G0 F2400 X51.35 Y43.43
G1 F1800 X-35.51 Y-43.43 E891.64997
G0 F2400 X-34.945 Y-43.43
G1 F1800 X51.915 Y43.43 E897.77842
G0 F2400 X52.481 Y43.43
G1 F1800 X-34.379 Y-43.43 E903.90686
G0 F2400 X-33.813 Y-43.43
G1 F1800 X53.047 Y43.43 E910.0353
G0 F2400 X53.612 Y43.43
G1 F1800 X-33.248 Y-43.43 E916.16374
G0 F2400 X-32.682 Y-43.43
G1 F1800 X54.178 Y43.43 E922.29218
G0 F2400 X54.744 Y43.43
G1 F1800 X-32.116 Y-43.43 E928.42063
G0 F2400 X-31.551 Y-43.43
G1 F1800 X55.309 Y43.43 E934.54907
G0 F2400 X55.875 Y43.43
G1 F1800 X-30.985 Y-43.43 E940.67751
G0 F2400 X-30.419 Y-43.43
G1 F1800 X56.441 Y43.43 E946.80595
G0 F2400 X57.006 Y43.43
G1 F1800 X-29.854 Y-43.43 E952.93439
G0 F2400 X-29.288 Y-43.43
G1 F1800 X57.572 Y43.43 E959.06284
G0 F2400 X58.138 Y43.43
G1 F1800 X-28.722 Y-43.43 E965.19128
G0 F2400 X-28.156 Y-43.43
G1 F1800 X58.704 Y43.43 E971.31972
G0 F2400 X59.269 Y43.43
G1 F1800 X-27.591 Y-43.43 E977.44816
G0 F2400 X-27.025 Y-43.43
G1 F1800 X59.835 Y43.43 E983.57661
G0 F2400 X60.401 Y43.43
G1 F1800 X-26.459 Y-43.43 E989.70505
G0 F2400 X-25.894 Y-43.43
G1 F1800 X60.966 Y43.43 E995.83349
G0 F2400 X61.532 Y43.43
G1 F1800 X-25.328 Y-43.43 E1001.96193
G0 F2400 X-24.762 Y-43.43
G1 F1800 X62.098 Y43.43 E1008.09037
G0 F2400 X62.663 Y43.43
G1 F1800 X-24.197 Y-43.43 E1014.21882
G0 F2400 X-23.631 Y-43.43
G1 F1800 X63.229 Y43.43 E1020.34726
G0 F2400 X63.795 Y43.43
G1 F1800 X-23.065 Y-43.43 E1026.4757
G0 F2400 X-22.5 Y-43.43
G1 F1800 X64.36 Y43.43 E1032.60414
G0 F2400 X64.926 Y43.43
G1 F1800 X-21.934 Y-43.43 E1038.73258
G0 F2400 X-21.368 Y-43.43
G1 F1800 X65.492 Y43.43 E1044.86103
G0 F2400 X65.929 Y43.301
G1 F1800 X-20.803 Y-43.43 E1050.9804
G0 F2400 X-20.237 Y-43.43
G1 F1800 X65.929 Y42.736 E1057.05988
G0 F2400 X65.929 Y42.17
G1 F1800 X-19.671 Y-43.43 E1063.09942
G0 F2400 X-19.106 Y-43.43
G1 F1800 X65.929 Y41.604 E1069.09906
G0 F2400 X65.929 Y41.039
G1 F1800 X-18.54 Y-43.43 E1075.05881
G0 F2400 X-17.974 Y-43.43
G1 F1800 X65.929 Y40.473 E1080.97862
G0 F2400 X65.929 Y39.907
G1 F1800 X-17.408 Y-43.43 E1086.85849
G0 F2400 X-16.843 Y-43.43
G1 F1800 X65.929 Y39.342 E1092.69851
G0 F2400 X65.929 Y38.776
