; generated by PrusaSlicer 2.2.0+ on 2020-11-06 at 07:27:08 UTC

; 

; external perimeters extrusion width = 0.45mm
; perimeters extrusion width = 0.45mm
; infill extrusion width = 0.45mm
; solid infill extrusion width = 0.45mm
; top infill extrusion width = 0.40mm
; first layer extrusion width = 0.42mm

M73 P0 R275
M73 Q0 S280
M201 X1000 Y1000 Z200 E5000 ; sets maximum accelerations, mm/sec^2
M203 X200 Y200 Z12 E120 ; sets maximum feedrates, mm/sec
M204 P1250 R1250 T1250 ; sets acceleration (P, T) and retract acceleration (R), mm/sec^2
M205 X8.00 Y8.00 Z0.40 E4.50 ; sets the jerk limits, mm/sec
M205 S0 T0 ; sets the minimum extruding and travel feed rate, mm/sec
M107
M862.3 P "MK3S" ; printer model check
M862.1 P0.4 ; nozzle diameter check
M115 U3.9.1 ; tell printer latest fw version
G90 ; use absolute coordinates
M83 ; extruder relative mode
M104 S215 ; set extruder temp
M140 S70 ; set bed temp
M190 S70 ; wait for bed temp
M109 S215 ; wait for extruder temp
G28 W ; home all without mesh bed level
G80 ; mesh bed leveling
G1 Y-3.0 F1000.0 ; go outside print area
G92 E0.0
G1 X60.0 E9.0 F1000.0 ; intro line
M73 Q0 S280
M73 P0 R275
G1 X100.0 E12.5 F1000.0 ; intro line
G92 E0.0
M221 S95

; Don't change E values below. Excessive value can damage the printer.
M907 E430 ; set extruder motor current
G21 ; set units to millimeters
G90 ; use absolute coordinates
M83 ; use relative distances for extrusion
M900 K0.05 ; Filament gcode LA 1.5
M900 K30 ; Filament gcode LA 1.0
;BEFORE_LAYER_CHANGE
G92 E0.0
;0.2
G1 E-0.80000 F2100.00000
G1 Z0.600 F10800.000
;AFTER_LAYER_CHANGE
;0.2
G1 X85.322 Y49.142
G1 Z0.200
G1 E0.80000 F2100.00000
M204 S1000
G1 F1200.000
G1 X86.042 Y48.422 E0.03191
G1 X86.376 Y48.237 E0.01200
G1 X87.040 Y48.049 E0.02163
G1 X162.968 Y48.053 E2.38067
G1 X163.411 Y48.150 E0.01424
G1 X163.859 Y48.358 E0.01548
G1 X164.550 Y48.983 E0.02920
G1 X164.862 Y49.471 E0.01818
G1 X165.051 Y50.140 E0.02179
G1 X165.051 Y159.860 E3.44019
G1 X164.863 Y160.524 E0.02162
G1 X164.678 Y160.858 E0.01200
G1 X163.958 Y161.578 E0.03191
G1 X163.624 Y161.763 E0.01200
G1 X162.960 Y161.951 E0.02162
G1 X87.040 Y161.951 E2.38042
G1 X86.376 Y161.763 E0.02162
G1 X86.042 Y161.578 E0.01200
G1 X85.322 Y160.858 E0.03191
G1 X85.137 Y160.524 E0.01200
G1 X84.949 Y159.860 E0.02162
G1 X84.949 Y50.140 E3.44019
G1 X85.137 Y49.476 E0.02162
G1 X85.293 Y49.194 E0.01011
G1 X85.326 Y50.168 F10800.000
G1 F1200.000
G1 X85.491 Y49.606 E0.01838
G1 X85.637 Y49.351 E0.00919
G1 X86.251 Y48.737 E0.02726
G1 X86.506 Y48.591 E0.00919
G1 X87.068 Y48.426 E0.01838
G1 X162.946 Y48.430 E2.37909
G1 X163.305 Y48.513 E0.01157
G1 X163.671 Y48.685 E0.01268
G1 X164.276 Y49.243 E0.02580
G1 X164.508 Y49.605 E0.01347
G1 X164.674 Y50.168 E0.01841
G1 X164.674 Y159.832 E3.43843
G1 X164.509 Y160.394 E0.01838
G1 X164.363 Y160.649 E0.00919
G1 X163.749 Y161.263 E0.02726
G1 X163.494 Y161.409 E0.00919
G1 X162.932 Y161.574 E0.01838
G1 X87.068 Y161.574 E2.37866
G1 X86.506 Y161.409 E0.01838
G1 X86.251 Y161.263 E0.00919
G1 X85.637 Y160.649 E0.02726
G1 X85.491 Y160.394 E0.00919
G1 X85.326 Y159.832 E0.01838
G1 X85.326 Y50.228 E3.43655
G1 X85.703 Y50.198 F10800.000
G1 F1200.000
G1 X85.844 Y49.741 E0.01500
G1 X85.948 Y49.564 E0.00641
G1 X86.464 Y49.048 E0.02289
G1 X86.641 Y48.944 E0.00641
G1 X87.098 Y48.803 E0.01500
G1 X162.924 Y48.807 E2.37748
G1 X163.162 Y48.862 E0.00767
G1 X163.482 Y49.013 E0.01109
G1 X164.001 Y49.501 E0.02233
G1 X164.156 Y49.742 E0.00898
G1 X164.297 Y50.198 E0.01495
G1 X164.297 Y159.802 E3.43658
G1 X164.156 Y160.259 E0.01500
G1 X164.052 Y160.436 E0.00641
G1 X163.536 Y160.952 E0.02289
G1 X163.359 Y161.056 E0.00641
G1 X162.902 Y161.197 E0.01500
G1 X87.098 Y161.197 E2.37681
G1 X86.641 Y161.056 E0.01500
G1 X86.464 Y160.952 E0.00641
G1 X85.948 Y160.436 E0.02289
G1 X85.844 Y160.259 E0.00641
G1 X85.703 Y159.802 E0.01500
G1 X85.703 Y50.258 E3.43470
M73 Q0 S279
M73 P0 R274
G1 X86.194 Y49.883 F10800.000
G1 F1200.000
G1 X86.256 Y49.783 E0.00369
G1 X86.683 Y49.356 E0.01893
G1 X86.783 Y49.294 E0.00369
G1 X87.129 Y49.180 E0.01144
G1 X162.902 Y49.184 E2.37579
G1 X163.019 Y49.211 E0.00377
G1 X163.292 Y49.340 E0.00947
G1 X163.723 Y49.757 E0.01880
G1 X163.807 Y49.885 E0.00479
G1 X163.920 Y50.229 E0.01136
G1 X163.920 Y159.771 E3.43459
G1 X163.806 Y160.117 E0.01144
G1 X163.744 Y160.217 E0.00369
G1 X163.317 Y160.644 E0.01893
G1 X163.217 Y160.706 E0.00369
G1 X162.871 Y160.820 E0.01144
G1 X87.129 Y160.820 E2.37482
G1 X86.783 Y160.706 E0.01144
G1 X86.683 Y160.644 E0.00369
G1 X86.256 Y160.217 E0.01893
G1 X86.194 Y160.117 E0.00369
G1 X86.080 Y159.771 E0.01144
G1 X86.080 Y50.229 E3.43459
G1 X86.175 Y49.940 E0.00955
G1 X86.539 Y50.037 F10800.000
G1 F1200.000
G1 X86.910 Y49.657 E0.01666
G1 X87.164 Y49.557 E0.00856
G1 X162.850 Y49.557 E2.37306
G1 X163.100 Y49.667 E0.00856
G1 X163.443 Y50.010 E0.01522
G1 X163.543 Y50.264 E0.00856
G1 X163.543 Y159.736 E3.43239
G1 X163.443 Y159.990 E0.00856
G1 X163.090 Y160.343 E0.01566
G1 X162.836 Y160.443 E0.00856
G1 X87.164 Y160.443 E2.37262
G1 X86.910 Y160.343 E0.00856
G1 X86.557 Y159.990 E0.01566
G1 X86.457 Y159.736 E0.00856
G1 X86.457 Y50.264 E3.43239
G1 X86.519 Y50.094 E0.00569
G1 X86.863 Y50.237 F10800.000
G1 F1200.000
G1 X87.137 Y49.963 E0.01215
G1 X87.206 Y49.934 E0.00235
G1 X162.794 Y49.934 E2.36999
G1 X162.863 Y49.963 E0.00235
G1 X163.137 Y50.237 E0.01215
G1 X163.166 Y50.306 E0.00235
G1 X163.166 Y159.694 E3.42976
G1 X163.137 Y159.763 E0.00235
G1 X162.863 Y160.037 E0.01215
G1 X162.794 Y160.066 E0.00235
G1 X87.206 Y160.066 E2.36999
G1 X87.137 Y160.037 E0.00235
G1 X86.863 Y159.763 E0.01215
G1 X86.834 Y159.694 E0.00235
G1 X86.840 Y50.292 E3.43020
G1 X87.211 Y50.422 F10800.000
G1 F1200.000
G1 X87.322 Y50.311 E0.00490
G1 X162.678 Y50.311 E2.36274
M73 Q0 S278
M73 P0 R273
G1 X162.789 Y50.422 E0.00490
G1 X162.789 Y159.578 E3.42252
G1 X162.678 Y159.689 E0.00490
G1 X87.322 Y159.689 E2.36274
G1 X87.211 Y159.578 E0.00490
G1 X87.211 Y50.482 E3.42063
G1 X87.610 Y50.710 F10800.000
G1 F1200.000
G1 X162.390 Y50.710 E2.34467
G1 X162.390 Y159.290 E3.40445
G1 X87.610 Y159.290 E2.34467
G1 X87.610 Y50.770 E3.40257
G1 X87.989 Y50.837 F10800.000
G1 X87.987 Y51.087
G1 F1200.000
G1 X162.013 Y51.087 E2.32103
G1 X162.013 Y158.913 E3.38080
G1 X87.987 Y158.913 E2.32103
G1 X87.987 Y51.147 E3.37892
G1 F8640.000
G1 X91.279 Y51.144 E-0.76000
G1 E-0.04000 F2100.00000
G1 Z0.800 F10800.000
G1 X88.863 Y158.800
G1 Z0.200
G1 E0.80000 F2100.00000
G1 F1200.000
G1 X88.270 Y158.206 E0.02634
G1 X88.270 Y157.673 E0.01675
G1 X89.227 Y158.630 E0.04249
G1 X89.761 Y158.630 E0.01675
G1 X88.270 Y157.139 E0.06618
G1 X88.270 Y156.605 E0.01675
G1 X90.295 Y158.630 E0.08987
G1 X90.829 Y158.630 E0.01675
G1 X88.270 Y156.071 E0.11356
G1 X88.270 Y155.538 E0.01675
G1 X91.362 Y158.630 E0.13725
G1 X91.896 Y158.630 E0.01675
G1 X88.270 Y155.004 E0.16094
G1 X88.270 Y154.470 E0.01675
G1 X92.430 Y158.630 E0.18462
G1 X92.964 Y158.630 E0.01675
G1 X88.270 Y153.936 E0.20831
G1 X88.270 Y153.403 E0.01675
G1 X93.497 Y158.630 E0.23200
G1 X94.031 Y158.630 E0.01675
G1 X88.270 Y152.869 E0.25569
G1 X88.270 Y152.335 E0.01675
G1 X94.565 Y158.630 E0.27938
G1 X95.099 Y158.630 E0.01675
G1 X88.270 Y151.801 E0.30307
G1 X88.270 Y151.268 E0.01675
G1 X95.632 Y158.630 E0.32676
G1 X96.166 Y158.630 E0.01675
G1 X88.270 Y150.734 E0.35044
G1 X88.270 Y150.200 E0.01675
G1 X96.700 Y158.630 E0.37413
G1 X97.234 Y158.630 E0.01675
G1 X88.270 Y149.666 E0.39782
G1 X88.270 Y149.133 E0.01675
G1 X97.767 Y158.630 E0.42151
G1 X98.301 Y158.630 E0.01675
G1 X88.270 Y148.599 E0.44520
M73 Q1 S277
M73 P1 R272
G1 X88.270 Y148.065 E0.01675
G1 X98.835 Y158.630 E0.46889
G1 X99.369 Y158.630 E0.01675
G1 X88.270 Y147.531 E0.49257
G1 X88.270 Y146.998 E0.01675
G1 X99.902 Y158.630 E0.51626
G1 X100.436 Y158.630 E0.01675
G1 X88.270 Y146.464 E0.53995
G1 X88.270 Y145.930 E0.01675
G1 X100.970 Y158.630 E0.56364
G1 X101.504 Y158.630 E0.01675
G1 X88.270 Y145.396 E0.58733
G1 X88.270 Y144.863 E0.01675
G1 X102.037 Y158.630 E0.61102
G1 X102.571 Y158.630 E0.01675
G1 X88.270 Y144.329 E0.63471
G1 X88.270 Y143.795 E0.01675
G1 X103.105 Y158.630 E0.65839
G1 X103.639 Y158.630 E0.01675
G1 X88.270 Y143.261 E0.68208
G1 X88.270 Y142.728 E0.01675
G1 X104.172 Y158.630 E0.70577
G1 X104.706 Y158.630 E0.01675
G1 X88.270 Y142.194 E0.72946
G1 X88.270 Y141.660 E0.01675
G1 X105.240 Y158.630 E0.75315
G1 X105.774 Y158.630 E0.01675
G1 X88.270 Y141.126 E0.77684
G1 X88.270 Y140.593 E0.01675
G1 X106.307 Y158.630 E0.80052
G1 X106.841 Y158.630 E0.01675
G1 X88.270 Y140.059 E0.82421
G1 X88.270 Y139.525 E0.01675
G1 X107.375 Y158.630 E0.84790
G1 X107.909 Y158.630 E0.01675
G1 X88.270 Y138.991 E0.87159
G1 X88.270 Y138.458 E0.01675
G1 X108.442 Y158.630 E0.89528
G1 X108.976 Y158.630 E0.01675
G1 X88.270 Y137.924 E0.91897
G1 X88.270 Y137.390 E0.01675
G1 X109.510 Y158.630 E0.94266
G1 X110.044 Y158.630 E0.01675
G1 X88.270 Y136.856 E0.96634
G1 X88.270 Y136.323 E0.01675
G1 X110.577 Y158.630 E0.99003
G1 X111.111 Y158.630 E0.01675
G1 X88.270 Y135.789 E1.01372
G1 X88.270 Y135.255 E0.01675
G1 X111.645 Y158.630 E1.03741
G1 X112.179 Y158.630 E0.01675
G1 X88.270 Y134.721 E1.06110
G1 X88.270 Y134.188 E0.01675
G1 X112.712 Y158.630 E1.08479
G1 X113.246 Y158.630 E0.01675
G1 X88.270 Y133.654 E1.10847
G1 X88.270 Y133.120 E0.01675
G1 X113.780 Y158.630 E1.13216
G1 X114.314 Y158.630 E0.01675
G1 X88.270 Y132.586 E1.15585
G1 X88.270 Y132.053 E0.01675
G1 X114.847 Y158.630 E1.17954
G1 X115.381 Y158.630 E0.01675
G1 X88.270 Y131.519 E1.20323
G1 X88.270 Y130.985 E0.01675
G1 X115.915 Y158.630 E1.22692
G1 X116.449 Y158.630 E0.01675
G1 X88.270 Y130.451 E1.25061
G1 X88.270 Y129.918 E0.01675
G1 X116.982 Y158.630 E1.27429
G1 X117.516 Y158.630 E0.01675
G1 X88.270 Y129.384 E1.29798
G1 X88.270 Y128.850 E0.01675
G1 X118.050 Y158.630 E1.32167
G1 X118.583 Y158.630 E0.01675
G1 X88.270 Y128.317 E1.34536
G1 X88.270 Y127.783 E0.01675
G1 X119.117 Y158.630 E1.36905
G1 X119.651 Y158.630 E0.01675
G1 X88.270 Y127.249 E1.39274
M73 Q1 S276
M73 P1 R271
G1 X88.270 Y126.715 E0.01675
G1 X120.185 Y158.630 E1.41642
G1 X120.718 Y158.630 E0.01675
G1 X88.270 Y126.182 E1.44011
G1 X88.270 Y125.648 E0.01675
G1 X121.252 Y158.630 E1.46380
G1 X121.786 Y158.630 E0.01675
G1 X88.270 Y125.114 E1.48749
G1 X88.270 Y124.580 E0.01675
G1 X122.320 Y158.630 E1.51118
G1 X122.853 Y158.630 E0.01675
G1 X88.270 Y124.047 E1.53487
G1 X88.270 Y123.513 E0.01675
G1 X123.387 Y158.630 E1.55856
G1 X123.921 Y158.630 E0.01675
G1 X88.270 Y122.979 E1.58224
G1 X88.270 Y122.445 E0.01675
G1 X124.455 Y158.630 E1.60593
G1 X124.988 Y158.630 E0.01675
G1 X88.270 Y121.912 E1.62962
G1 X88.270 Y121.378 E0.01675
G1 X125.522 Y158.630 E1.65331
G1 X126.056 Y158.630 E0.01675
G1 X88.270 Y120.844 E1.67700
G1 X88.270 Y120.310 E0.01675
G1 X126.590 Y158.630 E1.70069
G1 X127.123 Y158.630 E0.01675
G1 X88.270 Y119.777 E1.72437
G1 X88.270 Y119.243 E0.01675
G1 X127.657 Y158.630 E1.74806
G1 X128.191 Y158.630 E0.01675
G1 X88.270 Y118.709 E1.77175
G1 X88.270 Y118.175 E0.01675
G1 X128.725 Y158.630 E1.79544
G1 X129.258 Y158.630 E0.01675
G1 X88.270 Y117.642 E1.81913
G1 X88.270 Y117.108 E0.01675
G1 X129.792 Y158.630 E1.84282
G1 X130.326 Y158.630 E0.01675
G1 X88.270 Y116.574 E1.86651
G1 X88.270 Y116.040 E0.01675
G1 X130.860 Y158.630 E1.89019
G1 X131.393 Y158.630 E0.01675
G1 X88.270 Y115.507 E1.91388
G1 X88.270 Y114.973 E0.01675
G1 X131.927 Y158.630 E1.93757
M73 Q1 S275
M73 P1 R270
G1 X132.461 Y158.630 E0.01675
G1 X88.270 Y114.439 E1.96126
G1 X88.270 Y113.905 E0.01675
G1 X132.995 Y158.630 E1.98495
G1 X133.528 Y158.630 E0.01675
G1 X88.270 Y113.372 E2.00864
G1 X88.270 Y112.838 E0.01675
G1 X134.062 Y158.630 E2.03232
G1 X134.596 Y158.630 E0.01675
G1 X88.270 Y112.304 E2.05601
G1 X88.270 Y111.770 E0.01675
G1 X135.130 Y158.630 E2.07970
G1 X135.663 Y158.630 E0.01675
G1 X88.270 Y111.237 E2.10339
G1 X88.270 Y110.703 E0.01675
G1 X136.197 Y158.630 E2.12708
G1 X136.731 Y158.630 E0.01675
G1 X88.270 Y110.169 E2.15077
G1 X88.270 Y109.635 E0.01675
G1 X137.265 Y158.630 E2.17446
G1 X137.798 Y158.630 E0.01675
G1 X88.270 Y109.102 E2.19814
G1 X88.270 Y108.568 E0.01675
G1 X138.332 Y158.630 E2.22183
G1 X138.866 Y158.630 E0.01675
G1 X88.270 Y108.034 E2.24552
G1 X88.270 Y107.500 E0.01675
G1 X139.400 Y158.630 E2.26921
G1 X139.933 Y158.630 E0.01675
G1 X88.270 Y106.967 E2.29290
G1 X88.270 Y106.433 E0.01675
G1 X140.467 Y158.630 E2.31659
G1 X141.001 Y158.630 E0.01675
G1 X88.270 Y105.899 E2.34027
G1 X88.270 Y105.365 E0.01675
G1 X141.535 Y158.630 E2.36396
M73 Q2 S273
M73 P2 R269
G1 X142.068 Y158.630 E0.01675
G1 X88.270 Y104.832 E2.38765
G1 X88.270 Y104.298 E0.01675
G1 X142.602 Y158.630 E2.41134
G1 X143.136 Y158.630 E0.01675
G1 X88.270 Y103.764 E2.43503
G1 X88.270 Y103.230 E0.01675
G1 X143.670 Y158.630 E2.45872
G1 X144.203 Y158.630 E0.01675
G1 X88.270 Y102.697 E2.48241
G1 X88.270 Y102.163 E0.01675
G1 X144.737 Y158.630 E2.50609
G1 X145.271 Y158.630 E0.01675
G1 X88.270 Y101.629 E2.52978
G1 X88.270 Y101.095 E0.01675
G1 X145.805 Y158.630 E2.55347
G1 X146.338 Y158.630 E0.01675
G1 X88.270 Y100.562 E2.57716
G1 X88.270 Y100.028 E0.01675
G1 X146.872 Y158.630 E2.60085
G1 X147.406 Y158.630 E0.01675
G1 X88.270 Y99.494 E2.62454
G1 X88.270 Y98.960 E0.01675
G1 X147.940 Y158.630 E2.64822
G1 X148.473 Y158.630 E0.01675
G1 X88.270 Y98.427 E2.67191
G1 X88.270 Y97.893 E0.01675
G1 X149.007 Y158.630 E2.69560
G1 X149.541 Y158.630 E0.01675
G1 X88.270 Y97.359 E2.71929
M73 Q2 S272
M73 P2 R268
G1 X88.270 Y96.825 E0.01675
G1 X150.075 Y158.630 E2.74298
G1 X150.608 Y158.630 E0.01675
G1 X88.270 Y96.292 E2.76667
G1 X88.270 Y95.758 E0.01675
G1 X151.142 Y158.630 E2.79036
G1 X151.676 Y158.630 E0.01675
G1 X88.270 Y95.224 E2.81404
G1 X88.270 Y94.690 E0.01675
G1 X152.210 Y158.630 E2.83773
G1 X152.743 Y158.630 E0.01675
G1 X88.270 Y94.157 E2.86142
G1 X88.270 Y93.623 E0.01675
G1 X153.277 Y158.630 E2.88511
G1 X153.811 Y158.630 E0.01675
G1 X88.270 Y93.089 E2.90880
G1 X88.270 Y92.555 E0.01675
G1 X154.345 Y158.630 E2.93249
G1 X154.878 Y158.630 E0.01675
G1 X88.270 Y92.022 E2.95618
G1 X88.270 Y91.488 E0.01675
G1 X155.412 Y158.630 E2.97986
G1 X155.946 Y158.630 E0.01675
G1 X88.270 Y90.954 E3.00355
G1 X88.270 Y90.420 E0.01675
G1 X156.480 Y158.630 E3.02724
M73 Q2 S271
M73 P2 R267
G1 X157.013 Y158.630 E0.01675
G1 X88.270 Y89.887 E3.05093
G1 X88.270 Y89.353 E0.01675
G1 X157.547 Y158.630 E3.07462
G1 X158.081 Y158.630 E0.01675
G1 X88.270 Y88.819 E3.09831
G1 X88.270 Y88.285 E0.01675
G1 X158.615 Y158.630 E3.12199
G1 X159.148 Y158.630 E0.01675
G1 X88.270 Y87.752 E3.14568
G1 X88.270 Y87.218 E0.01675
G1 X159.682 Y158.630 E3.16937
G1 X160.216 Y158.630 E0.01675
G1 X88.270 Y86.684 E3.19306
G1 X88.270 Y86.150 E0.01675
G1 X160.750 Y158.630 E3.21675
G1 X161.283 Y158.630 E0.01675
G1 X88.270 Y85.617 E3.24044
G1 X88.270 Y85.083 E0.01675
G1 X161.730 Y158.543 E3.26026
G1 X161.730 Y158.009 E0.01675
G1 X88.270 Y84.549 E3.26026
G1 X88.270 Y84.015 E0.01675
G1 X161.730 Y157.476 E3.26026
M73 Q3 S270
M73 P3 R266
G1 X161.730 Y156.942 E0.01675
G1 X88.270 Y83.482 E3.26026
G1 X88.270 Y82.948 E0.01675
G1 X161.730 Y156.408 E3.26026
G1 X161.730 Y155.874 E0.01675
G1 X88.270 Y82.414 E3.26026
G1 X88.270 Y81.880 E0.01675
G1 X161.730 Y155.341 E3.26026
G1 X161.730 Y154.807 E0.01675
G1 X88.270 Y81.347 E3.26026
G1 X88.270 Y80.813 E0.01675
G1 X161.730 Y154.273 E3.26026
G1 X161.730 Y153.739 E0.01675
G1 X88.270 Y80.279 E3.26026
G1 X88.270 Y79.745 E0.01675
G1 X161.730 Y153.206 E3.26026
G1 X161.730 Y152.672 E0.01675
G1 X88.270 Y79.212 E3.26026
G1 X88.270 Y78.678 E0.01675
G1 X161.730 Y152.138 E3.26026
G1 X161.730 Y151.604 E0.01675
G1 X88.270 Y78.144 E3.26026
G1 X88.270 Y77.610 E0.01675
G1 X161.730 Y151.071 E3.26026
M73 Q3 S269
M73 P3 R265
G1 X161.730 Y150.537 E0.01675
G1 X88.270 Y77.077 E3.26026
G1 X88.270 Y76.543 E0.01675
G1 X161.730 Y150.003 E3.26026
G1 X161.730 Y149.469 E0.01675
G1 X88.270 Y76.009 E3.26026
G1 X88.270 Y75.475 E0.01675
G1 X161.730 Y148.936 E3.26026
G1 X161.730 Y148.402 E0.01675
G1 X88.270 Y74.942 E3.26026
G1 X88.270 Y74.408 E0.01675
G1 X161.730 Y147.868 E3.26026
G1 X161.730 Y147.334 E0.01675
G1 X88.270 Y73.874 E3.26026
G1 X88.270 Y73.340 E0.01675
G1 X161.730 Y146.801 E3.26026
G1 X161.730 Y146.267 E0.01675
G1 X88.270 Y72.807 E3.26026
G1 X88.270 Y72.273 E0.01675
