; generated by PrusaSlicer 2.2.0+ on 2020-11-06 at 07:26:41 UTC

; 

; external perimeters extrusion width = 0.45mm
; perimeters extrusion width = 0.45mm
; infill extrusion width = 0.45mm
; solid infill extrusion width = 0.45mm
; top infill extrusion width = 0.40mm
; first layer extrusion width = 0.42mm

M73 P0 R552
M73 Q0 S563
M201 X1000 Y1000 Z200 E5000 ; sets maximum accelerations, mm/sec^2
M203 X200 Y200 Z12 E120 ; sets maximum feedrates, mm/sec
M204 P1250 R1250 T1250 ; sets acceleration (P, T) and retract acceleration (R), mm/sec^2
M205 X8.00 Y8.00 Z0.40 E4.50 ; sets the jerk limits, mm/sec
M205 S0 T0 ; sets the minimum extruding and travel feed rate, mm/sec
M107
M862.3 P "MK3S" ; printer model check
M862.1 P0.4 ; nozzle diameter check
M115 U3.9.1 ; tell printer latest fw version
G90 ; use absolute coordinates
M83 ; extruder relative mode
M104 S215 ; set extruder temp
M140 S70 ; set bed temp
M190 S70 ; wait for bed temp
M109 S215 ; wait for extruder temp
G28 W ; home all without mesh bed level
G80 ; mesh bed leveling
G1 Y-3.0 F1000.0 ; go outside print area
G92 E0.0
G1 X60.0 E9.0 F1000.0 ; intro line
M73 Q0 S562
M73 P0 R552
G1 X100.0 E12.5 F1000.0 ; intro line
G92 E0.0
M221 S95

; Don't change E values below. Excessive value can damage the printer.
M907 E430 ; set extruder motor current
G21 ; set units to millimeters
G90 ; use absolute coordinates
M83 ; use relative distances for extrusion
M900 K0.05 ; Filament gcode LA 1.5
M900 K30 ; Filament gcode LA 1.0
;BEFORE_LAYER_CHANGE
G92 E0.0
;0.2
G1 E-0.80000 F2100.00000
G1 Z0.600 F10800.000
;AFTER_LAYER_CHANGE
;0.2
G1 X31.042 Y48.422
G1 Z0.200
G1 E0.80000 F2100.00000
M204 S1000
G1 F1200.000
G1 X31.376 Y48.237 E0.01200
G1 X32.040 Y48.049 E0.02163
G1 X107.968 Y48.053 E2.38067
G1 X108.411 Y48.150 E0.01424
G1 X108.859 Y48.358 E0.01548
G1 X109.550 Y48.983 E0.02920
G1 X109.862 Y49.471 E0.01818
G1 X110.051 Y50.140 E0.02179
G1 X110.051 Y159.860 E3.44019
G1 X109.863 Y160.524 E0.02162
G1 X109.678 Y160.858 E0.01200
G1 X108.958 Y161.578 E0.03191
G1 X108.624 Y161.763 E0.01200
G1 X107.960 Y161.951 E0.02162
G1 X32.040 Y161.951 E2.38042
G1 X31.376 Y161.763 E0.02162
G1 X31.042 Y161.578 E0.01200
G1 X30.322 Y160.858 E0.03191
G1 X30.137 Y160.524 E0.01200
G1 X29.949 Y159.860 E0.02162
G1 X29.949 Y50.140 E3.44019
G1 X30.137 Y49.476 E0.02162
G1 X30.322 Y49.142 E0.01200
G1 X30.999 Y48.465 E0.03003
G1 F8640.000
G1 X31.376 Y48.237 E-0.10173
G1 X32.040 Y48.049 E-0.15926
G1 X34.201 Y48.049 E-0.49901
G1 E-0.04000 F2100.00000
G1 Z0.800 F10800.000
G1 X32.068 Y48.426
G1 Z0.200
G1 E0.80000 F2100.00000
G1 F1200.000
G1 X107.946 Y48.430 E2.37909
G1 X108.305 Y48.513 E0.01157
G1 X108.671 Y48.685 E0.01268
G1 X109.276 Y49.243 E0.02580
G1 X109.508 Y49.605 E0.01347
G1 X109.674 Y50.168 E0.01841
G1 X109.674 Y159.832 E3.43843
G1 X109.509 Y160.394 E0.01838
G1 X109.363 Y160.649 E0.00919
G1 X108.749 Y161.263 E0.02726
G1 X108.494 Y161.409 E0.00919
G1 X107.932 Y161.574 E0.01838
G1 X32.068 Y161.574 E2.37866
G1 X31.506 Y161.409 E0.01838
G1 X31.251 Y161.263 E0.00919
G1 X30.637 Y160.649 E0.02726
G1 X30.491 Y160.394 E0.00919
G1 X30.326 Y159.832 E0.01838
G1 X30.326 Y50.168 E3.43843
G1 X30.491 Y49.606 E0.01838
G1 X30.637 Y49.351 E0.00919
G1 X31.251 Y48.737 E0.02726
G1 X31.506 Y48.591 E0.00919
G1 X32.011 Y48.443 E0.01650
G1 X32.098 Y48.803 F10800.000
G1 F1200.000
G1 X107.924 Y48.807 E2.37748
G1 X108.162 Y48.862 E0.00767
G1 X108.482 Y49.013 E0.01109
G1 X109.001 Y49.501 E0.02233
G1 X109.156 Y49.742 E0.00898
G1 X109.297 Y50.198 E0.01495
G1 X109.297 Y159.802 E3.43658
G1 X109.156 Y160.259 E0.01500
G1 X109.052 Y160.436 E0.00641
G1 X108.536 Y160.952 E0.02289
G1 X108.359 Y161.056 E0.00641
G1 X107.902 Y161.197 E0.01500
G1 X32.098 Y161.197 E2.37681
G1 X31.641 Y161.056 E0.01500
G1 X31.464 Y160.952 E0.00641
G1 X30.948 Y160.436 E0.02289
G1 X30.844 Y160.259 E0.00641
G1 X30.703 Y159.802 E0.01500
G1 X30.703 Y50.198 E3.43658
M73 Q0 S561
M73 P0 R551
G1 X30.844 Y49.741 E0.01500
G1 X30.948 Y49.564 E0.00641
G1 X31.464 Y49.048 E0.02289
G1 X31.641 Y48.944 E0.00641
G1 X32.040 Y48.821 E0.01312
G1 X31.783 Y49.294 F10800.000
G1 F1200.000
G1 X32.129 Y49.180 E0.01144
G1 X107.902 Y49.184 E2.37579
G1 X108.019 Y49.211 E0.00377
G1 X108.292 Y49.340 E0.00947
G1 X108.723 Y49.757 E0.01880
G1 X108.807 Y49.885 E0.00479
G1 X108.920 Y50.229 E0.01136
G1 X108.920 Y159.771 E3.43459
G1 X108.806 Y160.117 E0.01144
G1 X108.744 Y160.217 E0.00369
G1 X108.317 Y160.644 E0.01893
G1 X108.217 Y160.706 E0.00369
G1 X107.871 Y160.820 E0.01144
G1 X32.129 Y160.820 E2.37482
G1 X31.783 Y160.706 E0.01144
G1 X31.683 Y160.644 E0.00369
G1 X31.256 Y160.217 E0.01893
G1 X31.194 Y160.117 E0.00369
G1 X31.080 Y159.771 E0.01144
G1 X31.080 Y50.229 E3.43459
G1 X31.194 Y49.883 E0.01144
G1 X31.256 Y49.783 E0.00369
G1 X31.732 Y49.326 E0.02069
G1 X31.937 Y49.639 F10800.000
G1 F1200.000
G1 X32.164 Y49.557 E0.00757
G1 X107.850 Y49.557 E2.37306
G1 X108.100 Y49.667 E0.00856
G1 X108.443 Y50.010 E0.01522
G1 X108.543 Y50.264 E0.00856
G1 X108.543 Y159.736 E3.43239
G1 X108.443 Y159.990 E0.00856
G1 X108.090 Y160.343 E0.01566
G1 X107.836 Y160.443 E0.00856
G1 X32.164 Y160.443 E2.37262
G1 X31.910 Y160.343 E0.00856
G1 X31.557 Y159.990 E0.01566
G1 X31.457 Y159.736 E0.00856
G1 X31.457 Y50.264 E3.43239
G1 X31.557 Y50.010 E0.00856
G1 X31.891 Y49.676 E0.01480
G1 X32.137 Y49.963 F10800.000
G1 F1200.000
G1 X32.206 Y49.934 E0.00235
G1 X107.794 Y49.934 E2.36999
G1 X107.863 Y49.963 E0.00235
G1 X108.137 Y50.237 E0.01215
G1 X108.166 Y50.306 E0.00235
G1 X108.166 Y159.694 E3.42976
G1 X108.137 Y159.763 E0.00235
G1 X107.863 Y160.037 E0.01215
G1 X107.794 Y160.066 E0.00235
G1 X32.206 Y160.066 E2.36999
G1 X32.137 Y160.037 E0.00235
G1 X31.863 Y159.763 E0.01215
G1 X31.834 Y159.694 E0.00235
G1 X31.834 Y50.306 E3.42976
G1 X31.863 Y50.237 E0.00235
G1 X32.095 Y50.006 E0.01027
G1 X32.322 Y50.311 F10800.000
G1 F1200.000
G1 X107.678 Y50.311 E2.36274
M73 Q0 S560
M73 P0 R550
G1 X107.789 Y50.422 E0.00490
G1 X107.789 Y159.578 E3.42252
G1 X107.678 Y159.689 E0.00490
G1 X32.322 Y159.689 E2.36274
G1 X32.211 Y159.578 E0.00490
G1 X32.211 Y50.422 E3.42252
G1 X32.279 Y50.354 E0.00302
G1 F8640.000
G1 X35.571 Y50.352 E-0.76000
G1 E-0.04000 F2100.00000
G1 Z0.800 F10800.000
G1 X140.322 Y49.142
G1 Z0.200
G1 E0.80000 F2100.00000
G1 F1200.000
G1 X141.042 Y48.422 E0.03191
G1 X141.376 Y48.237 E0.01200
G1 X142.040 Y48.049 E0.02163
G1 X217.968 Y48.053 E2.38067
G1 X218.411 Y48.150 E0.01424
G1 X218.859 Y48.358 E0.01548
G1 X219.550 Y48.983 E0.02920
G1 X219.862 Y49.471 E0.01818
G1 X220.051 Y50.140 E0.02179
G1 X220.051 Y159.860 E3.44019
G1 X219.863 Y160.524 E0.02162
G1 X219.678 Y160.858 E0.01200
G1 X218.958 Y161.578 E0.03191
G1 X218.624 Y161.763 E0.01200
G1 X217.960 Y161.951 E0.02162
G1 X142.040 Y161.951 E2.38042
G1 X141.376 Y161.763 E0.02162
G1 X141.042 Y161.578 E0.01200
G1 X140.322 Y160.858 E0.03191
G1 X140.137 Y160.524 E0.01200
G1 X139.949 Y159.860 E0.02162
G1 X139.949 Y50.140 E3.44019
G1 X140.137 Y49.476 E0.02162
G1 X140.293 Y49.194 E0.01011
G1 X140.326 Y50.168 F10800.000
G1 F1200.000
G1 X140.491 Y49.606 E0.01838
G1 X140.637 Y49.351 E0.00919
G1 X141.251 Y48.737 E0.02726
G1 X141.506 Y48.591 E0.00919
G1 X142.068 Y48.426 E0.01838
G1 X217.946 Y48.430 E2.37909
G1 X218.305 Y48.513 E0.01157
G1 X218.671 Y48.685 E0.01268
G1 X219.276 Y49.243 E0.02580
G1 X219.508 Y49.605 E0.01347
G1 X219.674 Y50.168 E0.01841
G1 X219.674 Y159.832 E3.43843
G1 X219.509 Y160.394 E0.01838
G1 X219.363 Y160.649 E0.00919
G1 X218.749 Y161.263 E0.02726
G1 X218.494 Y161.409 E0.00919
G1 X217.932 Y161.574 E0.01838
G1 X142.068 Y161.574 E2.37866
G1 X141.506 Y161.409 E0.01838
G1 X141.251 Y161.263 E0.00919
G1 X140.637 Y160.649 E0.02726
G1 X140.491 Y160.394 E0.00919
G1 X140.326 Y159.832 E0.01838
G1 X140.326 Y50.228 E3.43655
G1 X140.703 Y50.198 F10800.000
G1 F1200.000
G1 X140.844 Y49.741 E0.01500
G1 X140.948 Y49.564 E0.00641
G1 X141.464 Y49.048 E0.02289
G1 X141.641 Y48.944 E0.00641
G1 X142.098 Y48.803 E0.01500
G1 X217.924 Y48.807 E2.37748
G1 X218.162 Y48.862 E0.00767
G1 X218.482 Y49.013 E0.01109
G1 X219.001 Y49.501 E0.02233
G1 X219.156 Y49.742 E0.00898
G1 X219.297 Y50.198 E0.01495
G1 X219.297 Y159.802 E3.43658
M73 Q0 S559
M73 P0 R549
G1 X219.156 Y160.259 E0.01500
G1 X219.052 Y160.436 E0.00641
G1 X218.536 Y160.952 E0.02289
G1 X218.359 Y161.056 E0.00641
G1 X217.902 Y161.197 E0.01500
G1 X142.098 Y161.197 E2.37681
G1 X141.641 Y161.056 E0.01500
G1 X141.464 Y160.952 E0.00641
G1 X140.948 Y160.436 E0.02289
G1 X140.844 Y160.259 E0.00641
G1 X140.703 Y159.802 E0.01500
G1 X140.703 Y50.258 E3.43470
G1 X141.194 Y49.883 F10800.000
G1 F1200.000
G1 X141.256 Y49.783 E0.00369
G1 X141.683 Y49.356 E0.01893
G1 X141.783 Y49.294 E0.00369
G1 X142.129 Y49.180 E0.01144
G1 X217.902 Y49.184 E2.37579
G1 X218.019 Y49.211 E0.00377
G1 X218.292 Y49.340 E0.00947
G1 X218.723 Y49.757 E0.01880
G1 X218.807 Y49.885 E0.00479
G1 X218.920 Y50.229 E0.01136
G1 X218.920 Y159.771 E3.43459
G1 X218.806 Y160.117 E0.01144
G1 X218.744 Y160.217 E0.00369
G1 X218.317 Y160.644 E0.01893
G1 X218.217 Y160.706 E0.00369
G1 X217.871 Y160.820 E0.01144
G1 X142.129 Y160.820 E2.37482
G1 X141.783 Y160.706 E0.01144
G1 X141.683 Y160.644 E0.00369
G1 X141.256 Y160.217 E0.01893
G1 X141.194 Y160.117 E0.00369
G1 X141.080 Y159.771 E0.01144
G1 X141.080 Y50.229 E3.43459
G1 X141.175 Y49.940 E0.00955
G1 X141.539 Y50.037 F10800.000
G1 F1200.000
G1 X141.910 Y49.657 E0.01666
G1 X142.164 Y49.557 E0.00856
G1 X217.850 Y49.557 E2.37306
G1 X218.100 Y49.667 E0.00856
G1 X218.443 Y50.010 E0.01522
G1 X218.543 Y50.264 E0.00856
G1 X218.543 Y159.736 E3.43239
G1 X218.443 Y159.990 E0.00856
G1 X218.090 Y160.343 E0.01566
G1 X217.836 Y160.443 E0.00856
G1 X142.164 Y160.443 E2.37262
G1 X141.910 Y160.343 E0.00856
G1 X141.557 Y159.990 E0.01566
G1 X141.457 Y159.736 E0.00856
G1 X141.457 Y50.264 E3.43239
G1 X141.519 Y50.094 E0.00569
G1 X141.863 Y50.237 F10800.000
G1 F1200.000
G1 X142.137 Y49.963 E0.01215
G1 X142.206 Y49.934 E0.00235
G1 X217.794 Y49.934 E2.36999
G1 X217.863 Y49.963 E0.00235
G1 X218.137 Y50.237 E0.01215
G1 X218.166 Y50.306 E0.00235
G1 X218.166 Y159.694 E3.42976
G1 X218.137 Y159.763 E0.00235
G1 X217.863 Y160.037 E0.01215
G1 X217.794 Y160.066 E0.00235
G1 X142.206 Y160.066 E2.36999
M73 Q0 S558
M73 P0 R548
G1 X142.137 Y160.037 E0.00235
G1 X141.863 Y159.763 E0.01215
G1 X141.834 Y159.694 E0.00235
G1 X141.840 Y50.292 E3.43020
G1 X142.211 Y50.422 F10800.000
G1 F1200.000
G1 X142.322 Y50.311 E0.00490
G1 X217.678 Y50.311 E2.36274
G1 X217.789 Y50.422 E0.00490
G1 X217.789 Y159.578 E3.42252
G1 X217.678 Y159.689 E0.00490
G1 X142.322 Y159.689 E2.36274
G1 X142.211 Y159.578 E0.00490
G1 X142.211 Y50.482 E3.42063
G1 X142.610 Y50.710 F10800.000
G1 F1200.000
G1 X217.390 Y50.710 E2.34467
G1 X217.390 Y159.290 E3.40445
G1 X142.610 Y159.290 E2.34467
G1 X142.610 Y50.770 E3.40257
G1 X142.989 Y50.837 F10800.000
G1 X142.987 Y51.087
G1 F1200.000
G1 X217.013 Y51.087 E2.32103
G1 X217.013 Y158.913 E3.38080
G1 X142.987 Y158.913 E2.32103
G1 X142.987 Y51.147 E3.37892
M73 Q0 S557
M73 P0 R547
G1 F8640.000
G1 X146.279 Y51.144 E-0.76000
G1 E-0.04000 F2100.00000
G1 Z0.800 F10800.000
G1 X143.863 Y158.800
G1 Z0.200
G1 E0.80000 F2100.00000
G1 F1200.000
G1 X143.270 Y158.206 E0.02634
G1 X143.270 Y157.673 E0.01675
G1 X144.227 Y158.630 E0.04249
G1 X144.761 Y158.630 E0.01675
G1 X143.270 Y157.139 E0.06618
G1 X143.270 Y156.605 E0.01675
G1 X145.295 Y158.630 E0.08987
G1 X145.829 Y158.630 E0.01675
G1 X143.270 Y156.071 E0.11356
G1 X143.270 Y155.538 E0.01675
G1 X146.362 Y158.630 E0.13725
G1 X146.896 Y158.630 E0.01675
G1 X143.270 Y155.004 E0.16094
G1 X143.270 Y154.470 E0.01675
G1 X147.430 Y158.630 E0.18462
G1 X147.964 Y158.630 E0.01675
G1 X143.270 Y153.936 E0.20831
G1 X143.270 Y153.403 E0.01675
G1 X148.497 Y158.630 E0.23200
G1 X149.031 Y158.630 E0.01675
G1 X143.270 Y152.869 E0.25569
G1 X143.270 Y152.335 E0.01675
G1 X149.565 Y158.630 E0.27938
G1 X150.099 Y158.630 E0.01675
G1 X143.270 Y151.801 E0.30307
G1 X143.270 Y151.268 E0.01675
G1 X150.632 Y158.630 E0.32676
G1 X151.166 Y158.630 E0.01675
G1 X143.270 Y150.734 E0.35044
G1 X143.270 Y150.200 E0.01675
G1 X151.700 Y158.630 E0.37413
G1 X152.234 Y158.630 E0.01675
G1 X143.270 Y149.666 E0.39782
G1 X143.270 Y149.133 E0.01675
G1 X152.767 Y158.630 E0.42151
G1 X153.301 Y158.630 E0.01675
G1 X143.270 Y148.599 E0.44520
G1 X143.270 Y148.065 E0.01675
G1 X153.835 Y158.630 E0.46889
G1 X154.369 Y158.630 E0.01675
G1 X143.270 Y147.531 E0.49257
G1 X143.270 Y146.998 E0.01675
G1 X154.902 Y158.630 E0.51626
G1 X155.436 Y158.630 E0.01675
G1 X143.270 Y146.464 E0.53995
G1 X143.270 Y145.930 E0.01675
G1 X155.970 Y158.630 E0.56364
G1 X156.504 Y158.630 E0.01675
G1 X143.270 Y145.396 E0.58733
G1 X143.270 Y144.863 E0.01675
G1 X157.037 Y158.630 E0.61102
G1 X157.571 Y158.630 E0.01675
G1 X143.270 Y144.329 E0.63471
G1 X143.270 Y143.795 E0.01675
G1 X158.105 Y158.630 E0.65839
G1 X158.639 Y158.630 E0.01675
G1 X143.270 Y143.261 E0.68208
G1 X143.270 Y142.728 E0.01675
G1 X159.172 Y158.630 E0.70577
G1 X159.706 Y158.630 E0.01675
G1 X143.270 Y142.194 E0.72946
G1 X143.270 Y141.660 E0.01675
G1 X160.240 Y158.630 E0.75315
G1 X160.774 Y158.630 E0.01675
G1 X143.270 Y141.126 E0.77684
G1 X143.270 Y140.593 E0.01675
G1 X161.307 Y158.630 E0.80052
G1 X161.841 Y158.630 E0.01675
G1 X143.270 Y140.059 E0.82421
G1 X143.270 Y139.525 E0.01675
G1 X162.375 Y158.630 E0.84790
G1 X162.909 Y158.630 E0.01675
G1 X143.270 Y138.991 E0.87159
G1 X143.270 Y138.458 E0.01675
G1 X163.442 Y158.630 E0.89528
G1 X163.976 Y158.630 E0.01675
G1 X143.270 Y137.924 E0.91897
G1 X143.270 Y137.390 E0.01675
G1 X164.510 Y158.630 E0.94266
G1 X165.044 Y158.630 E0.01675
G1 X143.270 Y136.856 E0.96634
G1 X143.270 Y136.323 E0.01675
G1 X165.577 Y158.630 E0.99003
G1 X166.111 Y158.630 E0.01675
G1 X143.270 Y135.789 E1.01372
G1 X143.270 Y135.255 E0.01675
G1 X166.645 Y158.630 E1.03741
G1 X167.179 Y158.630 E0.01675
G1 X143.270 Y134.721 E1.06110
G1 X143.270 Y134.188 E0.01675
G1 X167.712 Y158.630 E1.08479
G1 X168.246 Y158.630 E0.01675
G1 X143.270 Y133.654 E1.10847
G1 X143.270 Y133.120 E0.01675
G1 X168.780 Y158.630 E1.13216
G1 X169.314 Y158.630 E0.01675
G1 X143.270 Y132.586 E1.15585
G1 X143.270 Y132.053 E0.01675
G1 X169.847 Y158.630 E1.17954
G1 X170.381 Y158.630 E0.01675
G1 X143.270 Y131.519 E1.20323
G1 X143.270 Y130.985 E0.01675
G1 X170.915 Y158.630 E1.22692
G1 X171.449 Y158.630 E0.01675
G1 X143.270 Y130.451 E1.25061
G1 X143.270 Y129.918 E0.01675
G1 X171.982 Y158.630 E1.27429
G1 X172.516 Y158.630 E0.01675
G1 X143.270 Y129.384 E1.29798
M73 Q1 S556
M73 P1 R546
G1 X143.270 Y128.850 E0.01675
G1 X173.050 Y158.630 E1.32167
G1 X173.583 Y158.630 E0.01675
G1 X143.270 Y128.317 E1.34536
G1 X143.270 Y127.783 E0.01675
G1 X174.117 Y158.630 E1.36905
G1 X174.651 Y158.630 E0.01675
G1 X143.270 Y127.249 E1.39274
G1 X143.270 Y126.715 E0.01675
G1 X175.185 Y158.630 E1.41642
G1 X175.718 Y158.630 E0.01675
G1 X143.270 Y126.182 E1.44011
G1 X143.270 Y125.648 E0.01675
G1 X176.252 Y158.630 E1.46380
G1 X176.786 Y158.630 E0.01675
G1 X143.270 Y125.114 E1.48749
G1 X143.270 Y124.580 E0.01675
G1 X177.320 Y158.630 E1.51118
G1 X177.853 Y158.630 E0.01675
G1 X143.270 Y124.047 E1.53487
G1 X143.270 Y123.513 E0.01675
G1 X178.387 Y158.630 E1.55856
G1 X178.921 Y158.630 E0.01675
G1 X143.270 Y122.979 E1.58224
G1 X143.270 Y122.445 E0.01675
G1 X179.455 Y158.630 E1.60593
G1 X179.988 Y158.630 E0.01675
G1 X143.270 Y121.912 E1.62962
G1 X143.270 Y121.378 E0.01675
G1 X180.522 Y158.630 E1.65331
G1 X181.056 Y158.630 E0.01675
G1 X143.270 Y120.844 E1.67700
G1 X143.270 Y120.310 E0.01675
G1 X181.590 Y158.630 E1.70069
G1 X182.123 Y158.630 E0.01675
G1 X143.270 Y119.777 E1.72437
G1 X143.270 Y119.243 E0.01675
G1 X182.657 Y158.630 E1.74806
G1 X183.191 Y158.630 E0.01675
G1 X143.270 Y118.709 E1.77175
G1 X143.270 Y118.175 E0.01675
G1 X183.725 Y158.630 E1.79544
G1 X184.258 Y158.630 E0.01675
G1 X143.270 Y117.642 E1.81913
G1 X143.270 Y117.108 E0.01675
G1 X184.792 Y158.630 E1.84282
G1 X185.326 Y158.630 E0.01675
G1 X143.270 Y116.574 E1.86651
M73 Q1 S555
M73 P1 R545
G1 X143.270 Y116.040 E0.01675
G1 X185.860 Y158.630 E1.89019
G1 X186.393 Y158.630 E0.01675
G1 X143.270 Y115.507 E1.91388
G1 X143.270 Y114.973 E0.01675
G1 X186.927 Y158.630 E1.93757
