;FLAVOR:Marlin
;TIME:2085
;Filament used: 2.68513m
;Layer height: 0.2
;MINX:-31.05
;MINY:-39.8
;MINZ:0.3
;MAXX:31.05
;MAXY:39.8
;MAXZ:1.9
;Generated with Cura_SteamEngine 4.6.2
M104 S210
M105
M109 S210
M82 ;absolute extrusion mode
G90
G1 F300 Z1
G1 F5000 X77 Y26
G1 F300 Z0.315
G92 E0
G1 F2520 X77 Y-45 E4
G1 F2520 X77.5 Y-45 E4.05
G1 F2520 X77.5 Y26 E8
G1 F5000 X77.25 Y26
G92 E0
G1 F2520 X77.25 Y-45 E4
G1 F2520 X77.75 Y-45 E4.05
G1 F2520 X77.75 Y26 E8
G1 F5000 X77 Y0
G1 F300 Z1
G1 X0 Y0 F5000
G92 E0
G92 E0
G92 E0
G1 F900 E-6.5
;LAYER_COUNT:9
;LAYER:0
M106 S255
;MESH:character-tray-lid.stl
G0 F2400 X-12.559 Y-18.796 Z0.3
;TYPE:WALL-INNER
G1 F900 E0
G1 F1800 X-15.984 Y-15.984 E0.22109
G1 X-18.796 Y-12.559 E0.44217
G1 X-20.884 Y-8.651 E0.66323
G1 X-22.171 Y-4.409 E0.88439
G1 X-22.605 Y0.00 E1.10542
G1 X-22.171 Y4.409 E1.32645
G1 X-20.884 Y8.651 E1.54761
G1 X-18.796 Y12.559 E1.76866
G1 X-15.984 Y15.984 E1.98975
G1 X-12.559 Y18.796 E2.21084
G1 X-8.651 Y20.884 E2.43189
G1 X-4.409 Y22.171 E2.65305
G1 X0.00 Y22.605 E2.87408
G1 X4.409 Y22.171 E3.09511
G1 X8.651 Y20.884 E3.31627
G1 X12.559 Y18.796 E3.53732
G1 X15.984 Y15.984 E3.75841
G1 X18.796 Y12.559 E3.9795
G1 X20.884 Y8.651 E4.20055
G1 X22.171 Y4.409 E4.42171
G1 X22.605 Y0.00 E4.64274
G1 X22.171 Y-4.409 E4.86377
G1 X20.884 Y-8.651 E5.08493
G1 X18.796 Y-12.559 E5.30599
G1 X15.984 Y-15.984 E5.52707
G1 X12.559 Y-18.796 E5.74816
G1 X8.651 Y-20.884 E5.96922
G1 X4.409 Y-22.171 E6.19038
G1 X0.00 Y-22.605 E6.4114
G1 X-3.988 Y-22.214 E6.61132
G1 X-4.411 Y-22.171 E6.63253
G1 X-8.243 Y-21.009 E6.83231
G1 X-8.651 Y-20.884 E6.8536
G1 X-12.559 Y-18.796 E7.07465
G0 F2400 X-15.728 Y-15.728
G0 X-18.495 Y-12.358
G0 X-20.549 Y-8.512
G0 X-21.816 Y-4.338
G0 X-22.243 Y0.00
G0 X-21.816 Y4.338
G0 X-20.549 Y8.512
G0 X-18.495 Y12.358
G0 X-15.728 Y15.728
G0 X-12.358 Y18.495
G0 X21.6 Y36.9
G1 F1800 X-21.6 Y36.9 E9.22991
G1 X-21.6 Y38.9 E9.32969
G1 X-30.15 Y38.9 E9.75625
G1 X-30.15 Y-38.9 E13.63771
G1 X-21.6 Y-38.9 E14.06427
G1 X-21.6 Y-36.9 E14.16405
G1 X21.6 Y-36.9 E16.31931
G1 X21.6 Y-38.9 E16.41909
G1 X30.15 Y-38.9 E16.84565
G1 X30.15 Y38.9 E20.72711
G1 X21.6 Y38.9 E21.15367
G1 X21.6 Y36.9 E21.25345
G0 F2400 X21.2 Y37.3
G1 F1800 X-21.2 Y37.3 E23.36879
G1 X-21.2 Y39.3 E23.46857
G1 X-30.55 Y39.3 E23.93505
G1 X-30.55 Y-39.3 E27.85642
G1 X-21.2 Y-39.3 E28.32289
G1 X-21.2 Y-37.3 E28.42267
G1 X21.2 Y-37.3 E30.53801
G1 X21.2 Y-39.3 E30.6378
G1 X30.55 Y-39.3 E31.10427
G1 X30.55 Y39.3 E35.02564
G1 X21.2 Y39.3 E35.49211
G1 X21.2 Y37.3 E35.59189
G0 F2400 X21.27 Y37.23
G0 X-12.358 Y18.495
G0 X-15.728 Y15.728
G0 X-18.495 Y12.358
G0 X-20.549 Y8.512
G0 X-21.816 Y4.338
G0 X-22.243 Y0.00
G0 X-21.816 Y-4.338
G0 X-20.549 Y-8.512
G0 X-18.495 Y-12.358
G0 X-15.728 Y-15.728
G0 X-12.391 Y-18.545
G0 X-12.336 Y-18.462
G1 F1800 X-15.7 Y-15.7 E35.80904
G1 X-18.462 Y-12.336 E36.0262
G1 X-20.513 Y-8.497 E36.24335
G1 X-21.777 Y-4.331 E36.46054
G1 X-22.203 Y0.00 E36.67766
G1 X-21.777 Y4.331 E36.89478
G1 X-20.513 Y8.497 E37.11198
G1 X-18.462 Y12.336 E37.32913
G1 X-15.7 Y15.7 E37.54628
G1 X-12.336 Y18.462 E37.76343
G1 X-8.497 Y20.513 E37.98058
G1 X-4.331 Y21.777 E38.19778
G1 X0.00 Y22.203 E38.41489
G1 X4.331 Y21.777 E38.63201
G1 X8.497 Y20.513 E38.84921
G1 X12.336 Y18.462 E39.06636
G1 X15.7 Y15.7 E39.28351
G1 X18.462 Y12.336 E39.50066
G1 X20.513 Y8.497 E39.71781
G1 X21.777 Y4.331 E39.93501
G1 X22.203 Y0.00 E40.15213
G1 X21.777 Y-4.331 E40.36924
G1 X20.513 Y-8.497 E40.58644
G1 X18.462 Y-12.336 E40.80359
G1 X15.7 Y-15.7 E41.02074
G1 X12.336 Y-18.462 E41.2379
G1 X8.497 Y-20.513 E41.45505
G1 X4.331 Y-21.777 E41.67224
G1 X0.00 Y-22.203 E41.88936
G1 X-3.948 Y-21.816 E42.08727
G1 X-4.332 Y-21.777 E42.10653
G1 X-8.127 Y-20.626 E42.30438
G1 X-8.497 Y-20.513 E42.32368
G1 X-12.336 Y-18.462 E42.54083
G0 F2400 X-12.113 Y-18.128
;TYPE:WALL-OUTER
G1 F1800 X-15.416 Y-15.416 E42.75404
G1 X-18.128 Y-12.113 E42.96726
G1 X-20.142 Y-8.343 E43.1805
G1 X-21.383 Y-4.253 E43.39374
G1 X-21.801 Y0.00 E43.60695
G1 X-21.383 Y4.253 E43.82015
G1 X-20.142 Y8.343 E44.03339
G1 X-18.128 Y12.113 E44.24663
G1 X-15.416 Y15.416 E44.45985
G1 X-12.113 Y18.128 E44.67307
G1 X-8.343 Y20.142 E44.88631
G1 X-4.253 Y21.383 E45.09955
G1 X0.00 Y21.801 E45.31275
G1 X4.253 Y21.383 E45.52596
G1 X8.343 Y20.142 E45.73919
G1 X12.113 Y18.128 E45.95244
G1 X15.416 Y15.416 E46.16565
G1 X18.128 Y12.113 E46.37887
G1 X20.142 Y8.343 E46.59211
G1 X21.383 Y4.253 E46.80535
G1 X21.801 Y0.00 E47.01856
G1 X21.383 Y-4.253 E47.23176
G1 X20.142 Y-8.343 E47.445
G1 X18.128 Y-12.113 E47.65824
G1 X15.416 Y-15.416 E47.87146
G1 X12.113 Y-18.128 E48.08468
G1 X8.343 Y-20.142 E48.29792
G1 X4.253 Y-21.383 E48.51116
G1 X0.00 Y-21.801 E48.72436
G1 X-3.908 Y-21.418 E48.92027
G1 X-4.253 Y-21.383 E48.93757
G1 X-8.011 Y-20.243 E49.13349
G1 X-8.343 Y-20.142 E49.1508
G1 X-12.113 Y-18.128 E49.36405
G0 F2400 X-12.267 Y-18.002
G0 X-12.583 Y-18.388
G0 X-15.728 Y-15.728
G0 X-18.495 Y-12.358
G0 X-20.549 Y-8.512
G0 X-21.816 Y-4.338
G0 X-22.243 Y0.00
G0 X-21.816 Y4.338
G0 X-20.549 Y8.512
G0 X-18.495 Y12.358
G0 X-15.728 Y15.728
G0 X-12.358 Y18.495
G0 X20.8 Y37.2
G0 X20.8 Y37.7
G1 F1800 X-20.8 Y37.7 E51.43948
G1 X-20.8 Y39.7 E51.53926
G1 X-30.95 Y39.7 E52.04564
G1 X-30.95 Y-39.7 E56.00693
G1 X-20.8 Y-39.7 E56.51331
G1 X-20.8 Y-37.7 E56.61309
G1 X20.8 Y-37.7 E58.68852
G1 X20.8 Y-39.7 E58.7883
G1 X30.95 Y-39.7 E59.29469
G1 X30.95 Y39.7 E63.25597
G1 X20.8 Y39.7 E63.76236
G1 X20.8 Y37.7 E63.86214
G0 F2400 X20.6 Y37.7
G0 X20.6 Y37.2
G0 X21.99 Y38.51
;TYPE:SKIN
G1 F1800 X21.99 Y36.51 E63.96192
G1 X-21.99 Y36.51 E66.15609
G1 X-21.99 Y38.51 E66.25587
G1 X-29.76 Y38.51 E66.64352
G1 X-29.76 Y-38.51 E70.48606
G1 X-21.99 Y-38.51 E70.87371
G1 X-21.99 Y-36.51 E70.97349
G1 X21.99 Y-36.51 E73.16766
G1 X21.99 Y-38.51 E73.26744
G1 X29.76 Y-38.51 E73.65509
G1 X29.76 Y38.51 E77.49763
G1 X21.99 Y38.51 E77.88528
G0 F2400 X12.777 Y19.122
G1 F1800 X16.261 Y16.261 E78.11019
G1 X19.122 Y12.777 E78.3351
G1 X21.246 Y8.801 E78.56
G1 X22.555 Y4.485 E78.78501
G1 X22.997 Y0.00 E79.00985
G1 X22.555 Y-4.485 E79.23469
G1 X21.246 Y-8.801 E79.4597
G1 X19.122 Y-12.777 E79.6846
G1 X16.261 Y-16.261 E79.90951
G1 X12.777 Y-19.122 E80.13442
G1 X8.801 Y-21.246 E80.35932
G1 X4.485 Y-22.555 E80.58433
G1 X0.00 Y-22.997 E80.80917
G1 X-4.027 Y-22.602 E81.01104
G1 X-4.487 Y-22.555 E81.03411
G1 X-8.356 Y-21.382 E81.23581
G1 X-8.801 Y-21.246 E81.25903
G1 X-12.777 Y-19.122 E81.48392
G1 X-16.261 Y-16.261 E81.70883
G1 X-19.122 Y-12.777 E81.93375
G1 X-21.246 Y-8.801 E82.15864
G1 X-22.555 Y-4.485 E82.38365
G1 X-22.997 Y0.00 E82.60849
G1 X-22.555 Y4.485 E82.83334
G1 X-21.246 Y8.801 E83.05835
G1 X-19.122 Y12.777 E83.28324
G1 X-16.261 Y16.261 E83.50815
G1 X-12.777 Y19.122 E83.73307
G1 X-8.801 Y21.246 E83.95796
G1 X-4.485 Y22.555 E84.18297
G1 X0.00 Y22.997 E84.40781
G1 X4.485 Y22.555 E84.63266
G1 X8.801 Y21.246 E84.85767
G1 X12.777 Y19.122 E85.08256
G0 F2400 X-28.987 Y38.328
G1 F1800 X-29.579 Y37.736 E85.12433
G0 F2400 X-29.579 Y37.171
G1 F1800 X-28.422 Y38.328 E85.20596
G0 F2400 X-27.856 Y38.328
G1 F1800 X-29.579 Y36.605 E85.32753
G0 F2400 X-29.579 Y36.039
G1 F1800 X-27.29 Y38.328 E85.48903
G0 F2400 X-26.725 Y38.328
G1 F1800 X-29.579 Y35.474 E85.69039
G0 F2400 X-29.579 Y34.908
G1 F1800 X-26.159 Y38.328 E85.93169
G0 F2400 X-25.593 Y38.328
G1 F1800 X-29.579 Y34.342 E86.21293
G0 F2400 X-29.579 Y33.777
G1 F1800 X-25.028 Y38.328 E86.53403
G0 F2400 X-24.462 Y38.328
G1 F1800 X-29.579 Y33.211 E86.89506
G0 F2400 X-29.579 Y32.645
G1 F1800 X-23.896 Y38.328 E87.29602
G0 F2400 X-23.33 Y38.328
G1 F1800 X-29.579 Y32.08 E87.73689
G0 F2400 X-29.579 Y31.514
G1 F1800 X-22.765 Y38.328 E88.21765
G0 F2400 X-22.199 Y38.328
G1 F1800 X-29.579 Y30.948 E88.73835
G0 F2400 X-29.579 Y30.382
G1 F1800 X-22.169 Y37.792 E89.26117
G0 F2400 X-22.169 Y37.227
G1 F1800 X-29.579 Y29.817 E89.78398
G0 F2400 X-29.579 Y29.251
G1 F1800 X-22.169 Y36.661 E90.3068
G0 F2400 X-21.936 Y36.329
G1 F1800 X-29.579 Y28.685 E90.84609
G0 F2400 X-29.579 Y28.12
G1 F1800 X-21.37 Y36.329 E91.42528
G0 F2400 X-20.805 Y36.329
G1 F1800 X-29.579 Y27.554 E92.04437
G0 F2400 X-29.579 Y26.988
G1 F1800 X-20.239 Y36.329 E92.70339
G0 F2400 X-19.673 Y36.329
G1 F1800 X-29.579 Y26.423 E93.40231
G0 F2400 X-29.579 Y25.857
G1 F1800 X-19.108 Y36.329 E94.14113
G0 F2400 X-18.542 Y36.329
G1 F1800 X-29.579 Y25.291 E94.91989
G0 F2400 X-29.579 Y24.726
G1 F1800 X-17.976 Y36.329 E95.73854
G0 F2400 X-17.411 Y36.329
G1 F1800 X-29.579 Y24.16 E96.5971
G0 F2400 X-29.579 Y23.594
G1 F1800 X-16.845 Y36.329 E97.49558
G0 F2400 X-16.279 Y36.329
G1 F1800 X-29.579 Y23.029 E98.43397
G0 F2400 X-29.579 Y22.463
G1 F1800 X-15.714 Y36.329 E99.41226
G0 F2400 X-15.148 Y36.329
G1 F1800 X-29.579 Y21.897 E100.43048
G0 F2400 X-29.579 Y21.331
G1 F1800 X-14.582 Y36.329 E101.48863
G0 F2400 X-14.016 Y36.329
G1 F1800 X-29.579 Y20.766 E102.58668
G0 F2400 X-29.579 Y20.2
G1 F1800 X-13.451 Y36.329 E103.72464
G0 F2400 X-12.885 Y36.329
G1 F1800 X-29.579 Y19.634 E104.90252
G0 F2400 X-29.579 Y19.069
G1 F1800 X-12.319 Y36.329 E106.12031
G0 F2400 X-11.754 Y36.329
G1 F1800 X-29.579 Y18.503 E107.378
G0 F2400 X-29.579 Y17.937
G1 F1800 X-11.188 Y36.329 E108.67562
G0 F2400 X-10.622 Y36.329
G1 F1800 X-29.579 Y17.372 E110.01313
G0 F2400 X-29.579 Y16.806
G1 F1800 X-10.057 Y36.329 E111.39055
G0 F2400 X-9.491 Y36.329
G1 F1800 X-29.579 Y16.24 E112.8079
G0 F2400 X-29.579 Y15.675
G1 F1800 X-8.925 Y36.329 E114.26516
G0 F2400 X-8.36 Y36.329
G1 F1800 X-29.579 Y15.109 E115.76231
G0 F2400 X-29.579 Y14.543
G1 F1800 X-7.794 Y36.329 E117.29939
G0 F2400 X-7.228 Y36.329
G1 F1800 X-29.579 Y13.978 E118.87637
G0 F2400 X-29.579 Y13.412
G1 F1800 X-6.663 Y36.329 E120.49326
G0 F2400 X-6.097 Y36.329
G1 F1800 X-29.579 Y12.846 E122.15007
G0 F2400 X-29.579 Y12.281
G1 F1800 X-5.531 Y36.329 E123.84679
G0 F2400 X-4.966 Y36.329
G1 F1800 X-29.579 Y11.715 E125.58341
G0 F2400 X-29.579 Y11.149
G1 F1800 X-4.4 Y36.329 E127.35996
G0 F2400 X-3.834 Y36.329
G1 F1800 X-29.579 Y10.583 E129.17644
G0 F2400 X-29.579 Y10.018
G1 F1800 X-3.268 Y36.329 E131.03282
G0 F2400 X-2.703 Y36.329
G1 F1800 X-29.579 Y9.452 E132.92911
G0 F2400 X-29.579 Y8.886
G1 F1800 X-2.137 Y36.329 E134.86532
G0 F2400 X-1.571 Y36.329
G1 F1800 X-29.579 Y8.321 E136.84144
G0 F2400 X-29.579 Y7.755
G1 F1800 X-1.006 Y36.329 E138.85745
G0 F2400 X-.44 Y36.329
G1 F1800 X-29.579 Y7.189 E140.9134
G0 F2400 X-29.579 Y6.624
G1 F1800 X0.125 Y36.329 E143.00921
G0 F2400 X0.69 Y36.329
G1 F1800 X-29.579 Y6.058 E145.14493
G0 F2400 X-29.579 Y5.492
G1 F1800 X1.256 Y36.329 E147.32057
G0 F2400 X1.822 Y36.329
G1 F1800 X-29.579 Y4.927 E149.53612
G0 F2400 X-29.579 Y4.361
G1 F1800 X2.387 Y36.329 E151.79156
G0 F2400 X2.953 Y36.329
G1 F1800 X-29.579 Y3.795 E154.08694
G0 F2400 X-29.579 Y3.23
G1 F1800 X3.519 Y36.329 E156.42222
G0 F2400 X4.084 Y36.329
G1 F1800 X-13.402 Y18.841 E157.65602
G1 X-13.472 Y18.771
G0 F2400 X-11.865 Y19.813
G1 F1800 X4.65 Y36.329 E158.82128
G0 F2400 X5.216 Y36.329
G1 F1800 X-10.651 Y20.461 E159.94082
G1 X-10.721 Y20.391
G0 F2400 X-9.436 Y21.11
G1 F1800 X5.782 Y36.329 E161.01457
G0 F2400 X6.347 Y36.329
G1 F1800 X-8.436 Y21.544 E162.05766
G1 X-8.506 Y21.474
G0 F2400 X-7.624 Y21.79
G1 F1800 X6.913 Y36.329 E163.08339
G0 F2400 X7.479 Y36.329
G1 F1800 X-6.812 Y22.036 E164.09177
G1 X-6.882 Y21.966
G0 F2400 X-6.001 Y22.283
G1 F1800 X8.044 Y36.329 E165.08275
G0 F2400 X8.61 Y36.329
G1 F1800 X-5.19 Y22.528 E166.05645
G1 X-5.26 Y22.458
G0 F2400 X-4.41 Y22.742
G1 F1800 X9.176 Y36.329 E167.01505
G0 F2400 X9.741 Y36.329
G1 F1800 X-3.783 Y22.804 E167.96928
G0 F2400 X-3.155 Y22.866
G1 F1800 X10.307 Y36.329 E168.91913
G0 F2400 X10.873 Y36.329
G1 F1800 X-2.527 Y22.928 E169.86461
G0 F2400 X-1.899 Y22.99
G1 F1800 X11.438 Y36.329 E170.80568
G0 F2400 X12.004 Y36.329
G1 F1800 X-1.272 Y23.052 E171.74241
G0 F2400 X-.644 Y23.113
G1 F1800 X12.57 Y36.329 E172.6748
G0 F2400 X13.135 Y36.329
G1 F1800 X-0.016 Y23.176 E173.60274
G0 F2400 X0.501 Y23.128
G1 F1800 X13.701 Y36.329 E174.53411
G0 F2400 X14.267 Y36.329
G1 F1800 X1.016 Y23.077 E175.46907
G0 F2400 X1.53 Y23.026
G1 F1800 X14.832 Y36.329 E176.40764
G0 F2400 X15.398 Y36.329
G1 F1800 X2.045 Y22.976 E177.34976
G0 F2400 X2.56 Y22.925
G1 F1800 X15.964 Y36.329 E178.29549
G0 F2400 X16.53 Y36.329
G1 F1800 X3.075 Y22.874 E179.24481
G0 F2400 X3.589 Y22.823
G1 F1800 X17.095 Y36.329 E180.19773
G0 F2400 X17.661 Y36.329
G1 F1800 X4.105 Y22.773 E181.15418
G0 F2400 X4.604 Y22.706
G1 F1800 X18.227 Y36.329 E182.11536
G0 F2400 X18.792 Y36.329
G1 F1800 X5.038 Y22.575 E183.08578
G0 F2400 X5.473 Y22.443
G1 F1800 X19.358 Y36.329 E184.06547
G0 F2400 X19.924 Y36.329
G1 F1800 X5.906 Y22.311 E185.05452
G0 F2400 X6.34 Y22.179
G1 F1800 X20.489 Y36.329 E186.05284
G0 F2400 X21.055 Y36.329
G1 F1800 X6.774 Y22.048 E187.06044
G0 F2400 X7.208 Y21.916
G1 F1800 X21.621 Y36.329 E188.07736
G0 F2400 X22.169 Y36.877
G1 F1800 X23.62 Y38.328 E188.17974
G0 F2400 X23.055 Y38.328
G1 F1800 X22.169 Y37.443 E188.24221
G0 F2400 X22.169 Y38.009
G1 F1800 X22.489 Y38.328 E188.26475
G0 F2400 X24.186 Y38.328
G1 F1800 X7.643 Y21.785 E189.43195
G0 F2400 X8.077 Y21.653
G1 F1800 X24.752 Y38.328 E190.60846
G0 F2400 X25.317 Y38.328
G1 F1800 X8.511 Y21.522 E191.79422
G0 F2400 X8.934 Y21.379
G1 F1800 X25.883 Y38.328 E192.99006
G0 F2400 X26.449 Y38.328
G1 F1800 X9.302 Y21.182 E194.19984
G0 F2400 X9.671 Y20.985
G1 F1800 X27.015 Y38.328 E195.42352
G0 F2400 X27.58 Y38.328
G1 F1800 X10.04 Y20.788 E196.66106
G0 F2400 X10.409 Y20.591
G1 F1800 X28.146 Y38.328 E197.9125
G0 F2400 X28.712 Y38.328
G1 F1800 X10.777 Y20.394 E199.17788
G0 F2400 X11.146 Y20.197
G1 F1800 X29.277 Y38.328 E200.45712
G0 F2400 X29.579 Y38.064
G1 F1800 X11.515 Y20 E201.73163
G0 F2400 X11.883 Y19.803
G1 F1800 X29.579 Y37.499 E202.98018
G0 F2400 X29.579 Y36.933
G1 F1800 X12.252 Y19.606 E204.20269
G0 F2400 X12.621 Y19.409
G1 F1800 X29.579 Y36.367 E205.39917
G0 F2400 X29.579 Y35.802
G1 F1800 X12.972 Y19.195 E206.57088
G0 F2400 X13.283 Y18.939
G1 F1800 X29.579 Y35.236 E207.72069
G0 F2400 X29.579 Y34.67
G1 F1800 X13.594 Y18.685 E208.84852
G0 F2400 X13.904 Y18.43
G1 F1800 X29.579 Y34.105 E209.95447
G0 F2400 X29.579 Y33.539
G1 F1800 X14.214 Y18.174 E211.03856
G0 F2400 X14.525 Y17.919
G1 F1800 X29.579 Y32.973 E212.1007
G0 F2400 X29.579 Y32.408
G1 F1800 X14.835 Y17.664 E213.14097
G0 F2400 X15.146 Y17.409
G1 F1800 X29.579 Y31.842 E214.15929
G0 F2400 X29.579 Y31.276
G1 F1800 X15.457 Y17.154 E215.15568
G0 F2400 X15.767 Y16.899
G1 F1800 X29.579 Y30.711 E216.13019
G0 F2400 X29.579 Y30.145
G1 F1800 X16.078 Y16.643 E217.08279
G0 F2400 X16.388 Y16.388
G1 F1800 X29.579 Y29.579 E218.01349
G0 F2400 X29.579 Y29.014
G1 F1800 X16.643 Y16.077 E218.92623
G0 F2400 X16.898 Y15.767
G1 F1800 X29.579 Y28.448 E219.82094
G0 F2400 X29.579 Y27.882
G1 F1800 X17.153 Y15.456 E220.69766
G0 F2400 X17.408 Y15.146
G1 F1800 X29.579 Y27.316 E221.55636
G0 F2400 X29.579 Y26.751
G1 F1800 X17.664 Y14.835 E222.39706
G0 F2400 X17.918 Y14.524
G1 F1800 X29.579 Y26.185 E223.21981
G0 F2400 X29.579 Y25.619
G1 F1800 X18.174 Y14.214 E224.02449
G0 F2400 X18.429 Y13.903
G1 F1800 X29.579 Y25.054 E224.81122
G0 F2400 X29.579 Y24.488
G1 F1800 X18.684 Y13.593 E225.57992
G0 F2400 X18.939 Y13.282
G1 F1800 X29.579 Y23.922 E226.33063
G0 F2400 X29.579 Y23.357
G1 F1800 X19.194 Y12.971 E227.06338
G0 F2400 X19.408 Y12.62
G1 F1800 X29.579 Y22.791 E227.781
G0 F2400 X29.579 Y22.225
G1 F1800 X19.605 Y12.252 E228.48468
G0 F2400 X19.803 Y11.883
G1 F1800 X29.579 Y21.66 E229.17447
G0 F2400 X29.579 Y21.094
G1 F1800 X19.999 Y11.514 E229.85039
G0 F2400 X20.197 Y11.146
G1 F1800 X29.579 Y20.528 E230.51234
G0 F2400 X29.579 Y19.963
G1 F1800 X20.393 Y10.777 E231.16046
G0 F2400 X20.59 Y10.408
G1 F1800 X29.579 Y19.397 E231.79469
G0 F2400 X29.579 Y18.831
G1 F1800 X20.787 Y10.039 E232.41501
G0 F2400 X20.984 Y9.671
G1 F1800 X29.579 Y18.265 E233.0214
G0 F2400 X29.579 Y17.7
G1 F1800 X21.181 Y9.301 E233.61396
G0 F2400 X21.378 Y8.933
G1 F1800 X29.579 Y17.134 E234.19258
G0 F2400 X29.579 Y16.568
G1 F1800 X21.521 Y8.51 E234.76112
G0 F2400 X21.653 Y8.076
G1 F1800 X29.579 Y16.003 E235.32037
G0 F2400 X29.579 Y15.437
G1 F1800 X21.784 Y7.642 E235.87035
G0 F2400 X21.916 Y7.208
G1 F1800 X29.579 Y14.871 E236.41102
G0 F2400 X29.579 Y14.306
