; generated by PrusaSlicer 2.2.0+ on 2020-11-03 at 08:42:13 UTC

; 

; external perimeters extrusion width = 0.45mm
; perimeters extrusion width = 0.45mm
; infill extrusion width = 0.45mm
; solid infill extrusion width = 0.45mm
; top infill extrusion width = 0.40mm
; first layer extrusion width = 0.42mm

M73 P0 R141
M73 Q0 S144
M201 X1000 Y1000 Z200 E5000 ; sets maximum accelerations, mm/sec^2
M203 X200 Y200 Z12 E120 ; sets maximum feedrates, mm/sec
M204 P1250 R1250 T1250 ; sets acceleration (P, T) and retract acceleration (R), mm/sec^2
M205 X8.00 Y8.00 Z0.40 E4.50 ; sets the jerk limits, mm/sec
M205 S0 T0 ; sets the minimum extruding and travel feed rate, mm/sec
M107
M862.3 P "MK3S" ; printer model check
M862.1 P0.4 ; nozzle diameter check
M115 U3.9.1 ; tell printer latest fw version
G90 ; use absolute coordinates
M83 ; extruder relative mode
M104 S215 ; set extruder temp
M140 S60 ; set bed temp
M190 S60 ; wait for bed temp
M109 S215 ; wait for extruder temp
G28 W ; home all without mesh bed level
G80 ; mesh bed leveling
G1 Y-3.0 F1000.0 ; go outside print area
G92 E0.0
G1 X60.0 E9.0 F1000.0 ; intro line
M73 Q0 S143
M73 P0 R141
G1 X100.0 E12.5 F1000.0 ; intro line
G92 E0.0
M221 S95

; Don't change E values below. Excessive value can damage the printer.
M907 E430 ; set extruder motor current
G21 ; set units to millimeters
G90 ; use absolute coordinates
M83 ; use relative distances for extrusion
M900 K0.05 ; Filament gcode LA 1.5
M900 K30 ; Filament gcode LA 1.0
;BEFORE_LAYER_CHANGE
G92 E0.0
;0.2
G1 E-0.80000 F2100.00000
G1 Z0.600 F10800.000
;AFTER_LAYER_CHANGE
;0.2
G1 X86.922 Y53.642
G1 Z0.200
G1 E0.80000 F2100.00000
M204 S1000
G1 F1200.000
G1 X87.642 Y52.922 E0.03191
G1 X87.976 Y52.737 E0.01200
G1 X88.640 Y52.549 E0.02163
G1 X161.368 Y52.553 E2.28033
G1 X161.811 Y52.650 E0.01424
G1 X162.259 Y52.858 E0.01548
G1 X162.950 Y53.483 E0.02920
G1 X163.262 Y53.971 E0.01818
G1 X163.451 Y54.640 E0.02179
G1 X163.451 Y155.360 E3.15800
G1 X163.263 Y156.024 E0.02162
G1 X163.078 Y156.358 E0.01200
G1 X162.358 Y157.078 E0.03191
G1 X162.024 Y157.263 E0.01200
G1 X161.360 Y157.451 E0.02162
G1 X88.640 Y157.451 E2.28008
G1 X87.976 Y157.263 E0.02162
G1 X87.642 Y157.078 E0.01200
G1 X86.922 Y156.358 E0.03191
G1 X86.737 Y156.024 E0.01200
G1 X86.549 Y155.360 E0.02162
G1 X86.549 Y54.640 E3.15800
G1 X86.737 Y53.976 E0.02162
G1 X86.893 Y53.694 E0.01011
G1 X86.926 Y54.668 F10800.000
G1 F1200.000
G1 X87.091 Y54.106 E0.01838
G1 X87.237 Y53.851 E0.00919
G1 X87.851 Y53.237 E0.02726
G1 X88.106 Y53.091 E0.00919
G1 X88.668 Y52.926 E0.01838
G1 X161.346 Y52.930 E2.27875
G1 X161.705 Y53.013 E0.01157
G1 X162.071 Y53.185 E0.01268
G1 X162.676 Y53.743 E0.02580
G1 X162.908 Y54.105 E0.01347
G1 X163.074 Y54.668 E0.01841
G1 X163.074 Y155.332 E3.15624
G1 X162.909 Y155.894 E0.01838
G1 X162.763 Y156.149 E0.00919
G1 X162.149 Y156.763 E0.02726
G1 X161.894 Y156.909 E0.00919
G1 X161.332 Y157.074 E0.01838
G1 X88.668 Y157.074 E2.27832
G1 X88.106 Y156.909 E0.01838
G1 X87.851 Y156.763 E0.00919
G1 X87.237 Y156.149 E0.02726
G1 X87.091 Y155.894 E0.00919
G1 X86.926 Y155.332 E0.01838
G1 X86.926 Y54.728 E3.15436
G1 X87.303 Y54.698 F10800.000
G1 F1200.000
G1 X87.444 Y54.241 E0.01500
G1 X87.548 Y54.064 E0.00641
G1 X88.064 Y53.548 E0.02289
G1 X88.241 Y53.444 E0.00641
G1 X88.698 Y53.303 E0.01500
G1 X161.324 Y53.307 E2.27715
G1 X161.562 Y53.362 E0.00767
G1 X161.882 Y53.513 E0.01109
G1 X162.401 Y54.001 E0.02233
G1 X162.556 Y54.242 E0.00898
G1 X162.697 Y54.698 E0.01495
G1 X162.697 Y155.302 E3.15439
G1 X162.556 Y155.759 E0.01500
G1 X162.452 Y155.936 E0.00641
G1 X161.936 Y156.452 E0.02289
G1 X161.759 Y156.556 E0.00641
G1 X161.302 Y156.697 E0.01500
G1 X88.698 Y156.697 E2.27647
G1 X88.241 Y156.556 E0.01500
G1 X88.064 Y156.452 E0.00641
G1 X87.548 Y155.936 E0.02289
G1 X87.444 Y155.759 E0.00641
G1 X87.303 Y155.302 E0.01500
G1 X87.303 Y54.758 E3.15251
G1 X87.794 Y54.383 F10800.000
G1 F1200.000
G1 X87.856 Y54.283 E0.00369
G1 X88.283 Y53.856 E0.01893
G1 X88.383 Y53.794 E0.00369
G1 X88.729 Y53.680 E0.01144
G1 X161.302 Y53.684 E2.27546
M73 Q0 S142
M73 P0 R140
G1 X161.419 Y53.711 E0.00377
G1 X161.692 Y53.840 E0.00947
G1 X162.123 Y54.257 E0.01880
G1 X162.207 Y54.385 E0.00479
G1 X162.320 Y54.729 E0.01136
G1 X162.320 Y155.271 E3.15240
G1 X162.206 Y155.617 E0.01144
G1 X162.144 Y155.717 E0.00369
G1 X161.717 Y156.144 E0.01893
G1 X161.617 Y156.206 E0.00369
G1 X161.271 Y156.320 E0.01144
G1 X88.729 Y156.320 E2.27448
G1 X88.383 Y156.206 E0.01144
G1 X88.283 Y156.144 E0.00369
G1 X87.856 Y155.717 E0.01893
G1 X87.794 Y155.617 E0.00369
G1 X87.680 Y155.271 E0.01144
G1 X87.680 Y54.729 E3.15240
G1 X87.775 Y54.440 E0.00955
G1 X88.139 Y54.537 F10800.000
G1 F1200.000
G1 X88.510 Y54.157 E0.01666
G1 X88.764 Y54.057 E0.00856
G1 X161.250 Y54.057 E2.27273
G1 X161.500 Y54.167 E0.00856
G1 X161.843 Y54.510 E0.01522
G1 X161.943 Y54.764 E0.00856
G1 X161.943 Y155.236 E3.15020
G1 X161.843 Y155.490 E0.00856
G1 X161.490 Y155.843 E0.01566
G1 X161.236 Y155.943 E0.00856
G1 X88.764 Y155.943 E2.27228
G1 X88.510 Y155.843 E0.00856
G1 X88.157 Y155.490 E0.01566
G1 X88.057 Y155.236 E0.00856
G1 X88.057 Y54.764 E3.15020
G1 X88.119 Y54.594 E0.00569
G1 X88.463 Y54.737 F10800.000
G1 F1200.000
G1 X88.737 Y54.463 E0.01215
G1 X88.806 Y54.434 E0.00235
G1 X161.194 Y54.434 E2.26966
G1 X161.263 Y54.463 E0.00235
G1 X161.537 Y54.737 E0.01215
G1 X161.566 Y54.806 E0.00235
G1 X161.566 Y155.194 E3.14758
G1 X161.537 Y155.263 E0.00235
G1 X161.263 Y155.537 E0.01215
G1 X161.194 Y155.566 E0.00235
G1 X88.806 Y155.566 E2.26966
G1 X88.737 Y155.537 E0.00235
G1 X88.463 Y155.263 E0.01215
G1 X88.434 Y155.194 E0.00235
G1 X88.440 Y54.792 E3.14801
G1 X88.811 Y54.922 F10800.000
G1 F1200.000
G1 X88.922 Y54.811 E0.00490
G1 X161.078 Y54.811 E2.26241
G1 X161.189 Y54.922 E0.00490
G1 X161.189 Y155.078 E3.14033
G1 X161.078 Y155.189 E0.00490
G1 X88.922 Y155.189 E2.26241
M73 Q1 S141
M73 P1 R139
G1 X88.811 Y155.078 E0.00490
G1 X88.811 Y54.982 E3.13845
G1 X89.210 Y55.210 F10800.000
G1 F1200.000
G1 X160.790 Y55.210 E2.24434
G1 X160.790 Y154.790 E3.12226
G1 X89.210 Y154.790 E2.24434
G1 X89.210 Y55.270 E3.12038
G1 X89.590 Y55.334 F10800.000
G1 X89.587 Y55.587
G1 F1200.000
G1 X160.413 Y55.587 E2.22069
G1 X160.413 Y154.413 E3.09861
G1 X89.587 Y154.413 E2.22069
G1 X89.587 Y55.647 E3.09673
G1 F8640.000
G1 X92.879 Y55.644 E-0.76000
G1 E-0.04000 F2100.00000
G1 Z0.800 F10800.000
G1 X114.327 Y89.027
G1 Z0.200
G1 E0.80000 F2100.00000
G1 F1200.000
G1 X117.648 Y87.251 E0.11808
G1 X121.252 Y86.158 E0.11808
G1 X125.000 Y85.789 E0.11808
G1 X128.748 Y86.158 E0.11808
G1 X132.352 Y87.251 E0.11808
G1 X135.673 Y89.027 E0.11808
G1 X138.584 Y91.416 E0.11808
G1 X140.973 Y94.327 E0.11808
G1 X142.749 Y97.648 E0.11808
G1 X143.842 Y101.252 E0.11808
G1 X144.211 Y105.000 E0.11808
G1 X143.842 Y108.748 E0.11808
G1 X142.749 Y112.352 E0.11808
G1 X140.973 Y115.673 E0.11808
G1 X138.584 Y118.584 E0.11808
G1 X135.673 Y120.973 E0.11808
G1 X132.352 Y122.749 E0.11808
G1 X128.748 Y123.842 E0.11808
G1 X125.000 Y124.211 E0.11808
G1 X121.252 Y123.842 E0.11808
G1 X117.648 Y122.749 E0.11808
G1 X114.327 Y120.973 E0.11808
G1 X111.416 Y118.584 E0.11808
G1 X109.027 Y115.673 E0.11808
G1 X107.251 Y112.352 E0.11808
G1 X106.158 Y108.748 E0.11808
G1 X105.789 Y105.000 E0.11808
G1 X106.158 Y101.252 E0.11808
G1 X107.251 Y97.648 E0.11808
G1 X109.027 Y94.327 E0.11808
G1 X111.416 Y91.416 E0.11808
G1 X114.281 Y89.065 E0.11620
G1 X114.301 Y88.627 F10800.000
G1 X114.041 Y88.773
G1 F1200.000
G1 X114.116 Y88.712 E0.00305
G1 X117.503 Y86.901 E0.12041
G1 X121.178 Y85.786 E0.12041
G1 X125.000 Y85.410 E0.12041
G1 X128.822 Y85.786 E0.12041
G1 X132.497 Y86.901 E0.12041
G1 X135.884 Y88.712 E0.12041
G1 X138.852 Y91.148 E0.12041
G1 X141.288 Y94.116 E0.12041
G1 X143.099 Y97.503 E0.12041
G1 X144.214 Y101.178 E0.12041
G1 X144.590 Y105.000 E0.12041
G1 X144.214 Y108.822 E0.12041
G1 X143.099 Y112.497 E0.12041
G1 X141.288 Y115.884 E0.12041
G1 X138.852 Y118.852 E0.12041
G1 X135.884 Y121.288 E0.12041
G1 X132.497 Y123.099 E0.12041
G1 X128.822 Y124.214 E0.12041
G1 X125.000 Y124.590 E0.12041
G1 X121.178 Y124.214 E0.12041
G1 X117.503 Y123.099 E0.12041
G1 X114.116 Y121.288 E0.12041
G1 X111.148 Y118.852 E0.12041
G1 X108.712 Y115.884 E0.12041
G1 X106.901 Y112.497 E0.12041
G1 X105.786 Y108.822 E0.12041
G1 X105.410 Y105.000 E0.12041
G1 X105.786 Y101.178 E0.12041
G1 X106.901 Y97.503 E0.12041
G1 X108.712 Y94.116 E0.12041
G1 X111.148 Y91.148 E0.12041
G1 X113.995 Y88.811 E0.11548
G1 F8640.000
G1 X114.116 Y88.712 E-0.03628
G1 X116.881 Y87.234 E-0.72372
G1 E-0.04000 F2100.00000
G1 Z0.800 F10800.000
G1 X160.300 Y112.532
G1 Z0.200
G1 E0.80000 F2100.00000
G1 F1200.000
G1 X140.603 Y92.836 E0.87455
G1 X141.525 Y93.959 E0.04560
G1 X141.907 Y94.673 E0.02544
G1 X160.130 Y112.897 E0.80914
G1 X160.130 Y113.431 E0.01677
G1 X142.520 Y95.820 E0.78192
G1 X143.133 Y96.968 E0.04084
G1 X160.130 Y113.965 E0.75469
G1 X160.130 Y114.499 E0.01677
G1 X143.507 Y97.876 E0.73808
G1 X143.740 Y98.642 E0.02515
G1 X160.130 Y115.033 E0.72775
M73 Q2 S140
M73 P2 R138
G1 X160.130 Y115.567 E0.01677
G1 X143.972 Y99.409 E0.71743
G1 X144.205 Y100.175 E0.02515
G1 X160.130 Y116.101 E0.70711
G1 X160.130 Y116.635 E0.01677
G1 X144.437 Y100.942 E0.69678
G1 X144.492 Y101.123 E0.00594
G1 X144.537 Y101.575 E0.01427
G1 X160.130 Y117.169 E0.69237
G1 X160.130 Y117.703 E0.01677
G1 X144.595 Y102.168 E0.68978
G1 X144.653 Y102.760 E0.01869
G1 X160.130 Y118.237 E0.68718
G1 X160.130 Y118.771 E0.01677
G1 X144.712 Y103.352 E0.68459
G1 X144.770 Y103.945 E0.01869
G1 X160.130 Y119.305 E0.68200
G1 X160.130 Y119.839 E0.01677
G1 X144.828 Y104.537 E0.67941
G1 X144.874 Y105.000 E0.01461
G1 X144.864 Y105.106 E0.00334
G1 X160.130 Y120.372 E0.67785
G1 X160.130 Y120.906 E0.01677
G1 X144.816 Y105.592 E0.67998
G1 X144.768 Y106.078 E0.01534
G1 X160.130 Y121.440 E0.68210
G1 X160.130 Y121.974 E0.01677
G1 X144.720 Y106.564 E0.68423
G1 X144.672 Y107.050 E0.01534
G1 X160.130 Y122.508 E0.68636
G1 X160.130 Y123.042 E0.01677
G1 X144.624 Y107.537 E0.68848
G1 X144.576 Y108.023 E0.01534
G1 X160.130 Y123.576 E0.69061
G1 X160.130 Y124.110 E0.01677
G1 X144.528 Y108.509 E0.69273
G1 X144.492 Y108.877 E0.01162
G1 X144.462 Y108.976 E0.00325
G1 X160.130 Y124.644 E0.69568
G1 X160.130 Y125.178 E0.01677
G1 X144.338 Y109.386 E0.70120
G1 X144.214 Y109.796 E0.01344
G1 X160.130 Y125.712 E0.70672
G1 X160.130 Y126.246 E0.01677
G1 X144.089 Y110.206 E0.71223
G1 X143.965 Y110.615 E0.01344
G1 X160.130 Y126.780 E0.71775
G1 X160.130 Y127.314 E0.01677
G1 X143.841 Y111.025 E0.72327
G1 X143.716 Y111.435 E0.01344
G1 X160.130 Y127.848 E0.72879
G1 X160.130 Y128.382 E0.01677
G1 X143.592 Y111.844 E0.73431
G1 X143.468 Y112.254 E0.01344
G1 X160.130 Y128.916 E0.73983
G1 X160.130 Y129.450 E0.01677
G1 X143.335 Y112.655 E0.74573
G1 X143.149 Y113.003 E0.01239
G1 X160.130 Y129.984 E0.75399
G1 X160.130 Y130.518 E0.01677
G1 X142.963 Y113.351 E0.76225
G1 X142.777 Y113.699 E0.01239
G1 X160.130 Y131.052 E0.77051
G1 X160.130 Y131.586 E0.01677
G1 X142.591 Y114.047 E0.77877
G1 X142.405 Y114.395 E0.01239
G1 X160.130 Y132.120 E0.78703
G1 X160.130 Y132.654 E0.01677
G1 X142.219 Y114.743 E0.79529
G1 X142.033 Y115.091 E0.01239
G1 X160.130 Y133.188 E0.80355
G1 X160.130 Y133.722 E0.01677
G1 X141.847 Y115.439 E0.81180
G1 X141.661 Y115.787 E0.01239
G1 X160.130 Y134.256 E0.82006
G1 X160.130 Y134.790 E0.01677
G1 X141.460 Y116.120 E0.82897
G1 X141.219 Y116.413 E0.01191
G1 X160.130 Y135.324 E0.83966
G1 X160.130 Y135.858 E0.01677
G1 X140.979 Y116.707 E0.85035
G1 X140.738 Y117.000 E0.01191
G1 X160.130 Y136.392 E0.86104
G1 X160.130 Y136.926 E0.01677
G1 X140.497 Y117.293 E0.87172
G1 X140.257 Y117.587 E0.01191
G1 X160.130 Y137.460 E0.88241
G1 X160.130 Y137.994 E0.01677
G1 X140.016 Y117.880 E0.89310
G1 X139.775 Y118.173 E0.01191
G1 X160.130 Y138.528 E0.90379
G1 X160.130 Y139.062 E0.01677
G1 X139.535 Y118.466 E0.91447
G1 X139.294 Y118.760 E0.01191
G1 X160.130 Y139.596 E0.92516
G1 X160.130 Y140.130 E0.01677
G1 X139.053 Y119.053 E0.93585
G1 X138.760 Y119.294 E0.01191
G1 X160.130 Y140.664 E0.94887
M73 Q2 S139
M73 P2 R137
G1 X160.130 Y141.198 E0.01677
G1 X138.467 Y119.534 E0.96189
G1 X138.173 Y119.775 E0.01191
G1 X160.130 Y141.732 E0.97491
G1 X160.130 Y142.266 E0.01677
G1 X137.880 Y120.016 E0.98794
G1 X137.587 Y120.257 E0.01191
G1 X160.130 Y142.800 E1.00096
G1 X160.130 Y143.334 E0.01677
G1 X137.293 Y120.497 E1.01398
G1 X137.000 Y120.738 E0.01191
G1 X160.130 Y143.868 E1.02700
G1 X160.130 Y144.402 E0.01677
G1 X136.707 Y120.979 E1.04003
G1 X136.414 Y121.219 E0.01191
G1 X160.130 Y144.936 E1.05305
G1 X160.130 Y145.470 E0.01677
G1 X136.120 Y121.460 E1.06607
G1 X136.041 Y121.525 E0.00320
G1 X135.787 Y121.661 E0.00906
G1 X160.130 Y146.004 E1.08087
G1 X160.130 Y146.538 E0.01677
G1 X135.439 Y121.847 E1.09632
G1 X135.091 Y122.033 E0.01239
G1 X160.130 Y147.072 E1.11177
G1 X160.130 Y147.606 E0.01677
G1 X134.743 Y122.219 E1.12722
G1 X134.395 Y122.405 E0.01239
G1 X160.130 Y148.140 E1.14267
G1 X160.130 Y148.674 E0.01677
G1 X134.047 Y122.591 E1.15813
G1 X133.699 Y122.777 E0.01239
G1 X160.130 Y149.208 E1.17358
G1 X160.130 Y149.742 E0.01677
G1 X133.351 Y122.963 E1.18903
G1 X133.003 Y123.149 E0.01239
G1 X160.130 Y150.276 E1.20448
G1 X160.130 Y150.810 E0.01677
G1 X132.655 Y123.335 E1.21993
G1 X132.254 Y123.468 E0.01326
G1 X160.130 Y151.344 E1.23773
G1 X160.130 Y151.878 E0.01677
G1 X131.844 Y123.592 E1.25592
G1 X131.435 Y123.716 E0.01344
G1 X160.130 Y152.412 E1.27411
G1 X160.130 Y152.946 E0.01677
G1 X131.025 Y123.841 E1.29231
G1 X130.615 Y123.965 E0.01344
G1 X160.130 Y153.480 E1.31050
G1 X160.130 Y154.014 E0.01677
G1 X130.206 Y124.089 E1.32869
G1 X129.796 Y124.214 E0.01344
G1 X159.712 Y154.130 E1.32834
G1 X159.178 Y154.130 E0.01677
G1 X129.386 Y124.338 E1.32282
G1 X128.976 Y124.462 E0.01344
G1 X158.644 Y154.130 E1.31730
G1 X158.111 Y154.130 E0.01677
G1 X128.509 Y124.528 E1.31435
G1 X128.023 Y124.576 E0.01534
G1 X157.577 Y154.130 E1.31223
G1 X157.043 Y154.130 E0.01677
G1 X127.537 Y124.624 E1.31010
G1 X127.051 Y124.672 E0.01534
G1 X156.509 Y154.130 E1.30797
M73 Q3 S138
M73 P3 R136
G1 X155.975 Y154.130 E0.01677
G1 X126.564 Y124.720 E1.30585
G1 X126.078 Y124.768 E0.01534
G1 X155.441 Y154.130 E1.30372
G1 X154.907 Y154.130 E0.01677
G1 X125.592 Y124.816 E1.30160
G1 X125.106 Y124.864 E0.01534
G1 X154.373 Y154.130 E1.29947
G1 X153.839 Y154.130 E0.01677
G1 X124.537 Y124.828 E1.30103
G1 X123.945 Y124.770 E0.01869
G1 X153.305 Y154.130 E1.30362
G1 X152.771 Y154.130 E0.01677
G1 X123.352 Y124.712 E1.30621
G1 X122.760 Y124.653 E0.01869
G1 X152.237 Y154.130 E1.30880
G1 X151.703 Y154.130 E0.01677
G1 X122.168 Y124.595 E1.31139
G1 X121.575 Y124.537 E0.01869
G1 X151.169 Y154.130 E1.31398
G1 X150.635 Y154.130 E0.01677
G1 X120.942 Y124.437 E1.31840
G1 X120.175 Y124.205 E0.02515
G1 X150.101 Y154.130 E1.32872
G1 X149.567 Y154.130 E0.01677
G1 X119.409 Y123.972 E1.33905
G1 X118.642 Y123.740 E0.02515
G1 X149.033 Y154.130 E1.34937
G1 X148.499 Y154.130 E0.01677
G1 X117.876 Y123.507 E1.35969
G1 X117.395 Y123.361 E0.01579
G1 X116.968 Y123.133 E0.01519
G1 X147.965 Y154.130 E1.37631
G1 X147.431 Y154.130 E0.01677
G1 X115.821 Y122.520 E1.40353
G1 X114.673 Y121.907 E0.04084
G1 X146.897 Y154.130 E1.43076
G1 X146.363 Y154.130 E0.01677
G1 X112.836 Y120.604 E1.48861
G1 X110.947 Y119.053 E0.07675
G1 X109.396 Y117.164 E0.07675
G1 X89.870 Y97.637 E0.86699
G1 X89.870 Y97.103 E0.01677
G1 X108.093 Y115.327 E0.80914
G1 X107.480 Y114.179 E0.04084
G1 X89.870 Y96.569 E0.78191
G1 X89.870 Y96.035 E0.01677
G1 X106.867 Y113.032 E0.75469
G1 X106.639 Y112.606 E0.01519
G1 X106.493 Y112.124 E0.01579
G1 X89.870 Y95.501 E0.73808
G1 X89.870 Y94.967 E0.01677
G1 X106.260 Y111.358 E0.72775
G1 X106.028 Y110.591 E0.02515
G1 X89.870 Y94.433 E0.71743
G1 X89.870 Y93.899 E0.01677
G1 X105.795 Y109.825 E0.70710
G1 X105.563 Y109.058 E0.02515
G1 X89.870 Y93.365 E0.69678
G1 X89.870 Y92.831 E0.01677
G1 X105.463 Y108.425 E0.69237
G1 X105.405 Y107.832 E0.01869
G1 X89.870 Y92.297 E0.68977
G1 X89.870 Y91.763 E0.01677
G1 X105.347 Y107.240 E0.68718
G1 X105.288 Y106.648 E0.01869
G1 X89.870 Y91.229 E0.68459
G1 X89.870 Y90.695 E0.01677
G1 X105.230 Y106.055 E0.68200
G1 X105.172 Y105.463 E0.01869
