; generated by PrusaSlicer 2.2.0+ on 2020-11-03 at 09:28:07 UTC

; 

; external perimeters extrusion width = 0.45mm
; perimeters extrusion width = 0.45mm
; infill extrusion width = 0.45mm
; solid infill extrusion width = 0.45mm
; top infill extrusion width = 0.40mm
; first layer extrusion width = 0.42mm

M73 P0 R399
M73 Q0 S402
M201 X1000 Y1000 Z200 E5000 ; sets maximum accelerations, mm/sec^2
M203 X200 Y200 Z12 E120 ; sets maximum feedrates, mm/sec
M204 P1250 R1250 T1250 ; sets acceleration (P, T) and retract acceleration (R), mm/sec^2
M205 X8.00 Y8.00 Z0.40 E4.50 ; sets the jerk limits, mm/sec
M205 S0 T0 ; sets the minimum extruding and travel feed rate, mm/sec
M107
M862.3 P "MK3S" ; printer model check
M862.1 P0.4 ; nozzle diameter check
M115 U3.9.1 ; tell printer latest fw version
G90 ; use absolute coordinates
M83 ; extruder relative mode
M104 S215 ; set extruder temp
M140 S60 ; set bed temp
M190 S60 ; wait for bed temp
M109 S215 ; wait for extruder temp
G28 W ; home all without mesh bed level
G80 ; mesh bed leveling
G1 Y-3.0 F1000.0 ; go outside print area
G92 E0.0
G1 X60.0 E9.0 F1000.0 ; intro line
M73 Q0 S402
M73 P0 R399
G1 X100.0 E12.5 F1000.0 ; intro line
G92 E0.0
M221 S95

; Don't change E values below. Excessive value can damage the printer.
M907 E430 ; set extruder motor current
G21 ; set units to millimeters
G90 ; use absolute coordinates
M83 ; use relative distances for extrusion
M900 K0.05 ; Filament gcode LA 1.5
M900 K30 ; Filament gcode LA 1.0
;BEFORE_LAYER_CHANGE
G92 E0.0
;0.2
G1 E-0.80000 F2100.00000
G1 Z0.600 F10800.000
;AFTER_LAYER_CHANGE
;0.2
G1 X86.922 Y53.642
G1 Z0.200
G1 E0.80000 F2100.00000
M204 S1000
G1 F1200.000
G1 X87.642 Y52.922 E0.03191
G1 X87.976 Y52.737 E0.01200
G1 X88.640 Y52.549 E0.02163
G1 X161.368 Y52.553 E2.28033
G1 X161.811 Y52.650 E0.01424
G1 X162.259 Y52.858 E0.01548
G1 X162.950 Y53.483 E0.02920
G1 X163.262 Y53.971 E0.01818
G1 X163.451 Y54.640 E0.02179
G1 X163.451 Y155.360 E3.15800
G1 X163.263 Y156.024 E0.02162
G1 X163.078 Y156.358 E0.01200
G1 X162.358 Y157.078 E0.03191
G1 X162.024 Y157.263 E0.01200
G1 X161.360 Y157.451 E0.02162
G1 X88.640 Y157.451 E2.28008
G1 X87.976 Y157.263 E0.02162
G1 X87.642 Y157.078 E0.01200
G1 X86.922 Y156.358 E0.03191
G1 X86.737 Y156.024 E0.01200
G1 X86.549 Y155.360 E0.02162
G1 X86.549 Y54.640 E3.15800
G1 X86.737 Y53.976 E0.02162
G1 X86.893 Y53.694 E0.01011
G1 X86.926 Y54.668 F10800.000
G1 F1200.000
G1 X87.091 Y54.106 E0.01838
G1 X87.237 Y53.851 E0.00919
G1 X87.851 Y53.237 E0.02726
G1 X88.106 Y53.091 E0.00919
G1 X88.668 Y52.926 E0.01838
G1 X161.346 Y52.930 E2.27875
G1 X161.705 Y53.013 E0.01157
G1 X162.071 Y53.185 E0.01268
G1 X162.676 Y53.743 E0.02580
G1 X162.908 Y54.105 E0.01347
G1 X163.074 Y54.668 E0.01841
G1 X163.074 Y155.332 E3.15624
G1 X162.909 Y155.894 E0.01838
G1 X162.763 Y156.149 E0.00919
G1 X162.149 Y156.763 E0.02726
G1 X161.894 Y156.908 E0.00919
G1 X161.332 Y157.074 E0.01838
G1 X88.668 Y157.074 E2.27832
G1 X88.106 Y156.908 E0.01838
G1 X87.851 Y156.763 E0.00919
G1 X87.237 Y156.149 E0.02726
G1 X87.091 Y155.894 E0.00919
G1 X86.926 Y155.332 E0.01838
G1 X86.926 Y54.728 E3.15436
G1 X87.303 Y54.698 F10800.000
G1 F1200.000
G1 X87.444 Y54.241 E0.01500
G1 X87.548 Y54.064 E0.00641
G1 X88.064 Y53.548 E0.02289
G1 X88.241 Y53.444 E0.00641
G1 X88.698 Y53.303 E0.01500
G1 X161.324 Y53.307 E2.27715
G1 X161.562 Y53.362 E0.00767
G1 X161.882 Y53.513 E0.01109
G1 X162.401 Y54.001 E0.02233
G1 X162.556 Y54.242 E0.00898
G1 X162.697 Y54.698 E0.01495
G1 X162.697 Y155.302 E3.15439
G1 X162.556 Y155.759 E0.01500
G1 X162.452 Y155.936 E0.00641
G1 X161.936 Y156.452 E0.02289
G1 X161.759 Y156.556 E0.00641
G1 X161.302 Y156.697 E0.01500
G1 X88.698 Y156.697 E2.27647
G1 X88.241 Y156.556 E0.01500
G1 X88.064 Y156.452 E0.00641
G1 X87.548 Y155.936 E0.02289
G1 X87.444 Y155.759 E0.00641
G1 X87.303 Y155.302 E0.01500
G1 X87.303 Y54.758 E3.15251
G1 X87.794 Y54.383 F10800.000
G1 F1200.000
G1 X87.856 Y54.283 E0.00369
G1 X88.283 Y53.856 E0.01893
G1 X88.383 Y53.794 E0.00369
G1 X88.729 Y53.680 E0.01144
G1 X161.302 Y53.684 E2.27546
M73 Q0 S401
M73 P0 R398
G1 X161.419 Y53.711 E0.00377
G1 X161.692 Y53.840 E0.00947
G1 X162.123 Y54.257 E0.01880
G1 X162.207 Y54.385 E0.00479
G1 X162.320 Y54.729 E0.01136
G1 X162.320 Y155.271 E3.15240
G1 X162.206 Y155.617 E0.01144
G1 X162.144 Y155.717 E0.00369
G1 X161.717 Y156.144 E0.01893
G1 X161.617 Y156.206 E0.00369
G1 X161.271 Y156.320 E0.01144
G1 X88.729 Y156.320 E2.27448
G1 X88.383 Y156.206 E0.01144
G1 X88.283 Y156.144 E0.00369
G1 X87.856 Y155.717 E0.01893
G1 X87.794 Y155.617 E0.00369
G1 X87.680 Y155.271 E0.01144
G1 X87.680 Y54.729 E3.15240
G1 X87.775 Y54.440 E0.00955
G1 X88.139 Y54.537 F10800.000
G1 F1200.000
G1 X88.510 Y54.157 E0.01666
G1 X88.764 Y54.057 E0.00856
G1 X161.250 Y54.057 E2.27273
G1 X161.500 Y54.167 E0.00856
G1 X161.843 Y54.510 E0.01522
G1 X161.943 Y54.764 E0.00856
G1 X161.943 Y155.236 E3.15020
G1 X161.843 Y155.490 E0.00856
G1 X161.490 Y155.843 E0.01566
G1 X161.236 Y155.943 E0.00856
G1 X88.764 Y155.943 E2.27228
G1 X88.510 Y155.843 E0.00856
G1 X88.157 Y155.490 E0.01566
G1 X88.057 Y155.236 E0.00856
G1 X88.057 Y54.764 E3.15020
G1 X88.119 Y54.594 E0.00569
G1 X88.463 Y54.737 F10800.000
G1 F1200.000
G1 X88.737 Y54.463 E0.01215
G1 X88.806 Y54.434 E0.00235
G1 X161.194 Y54.434 E2.26966
G1 X161.263 Y54.463 E0.00235
G1 X161.537 Y54.737 E0.01215
G1 X161.566 Y54.806 E0.00235
G1 X161.566 Y155.194 E3.14758
G1 X161.537 Y155.263 E0.00235
G1 X161.263 Y155.537 E0.01215
G1 X161.194 Y155.566 E0.00235
G1 X88.806 Y155.566 E2.26966
G1 X88.737 Y155.537 E0.00235
G1 X88.463 Y155.263 E0.01215
G1 X88.434 Y155.194 E0.00235
G1 X88.440 Y54.792 E3.14801
G1 X88.811 Y54.922 F10800.000
G1 F1200.000
G1 X88.922 Y54.811 E0.00490
G1 X161.078 Y54.811 E2.26241
G1 X161.189 Y54.922 E0.00490
G1 X161.189 Y155.078 E3.14033
G1 X161.078 Y155.189 E0.00490
G1 X88.922 Y155.189 E2.26241
M73 Q0 S400
M73 P0 R397
G1 X88.811 Y155.078 E0.00490
G1 X88.811 Y54.982 E3.13845
G1 X89.210 Y55.210 F10800.000
G1 F1200.000
G1 X160.790 Y55.210 E2.24434
G1 X160.790 Y154.790 E3.12226
G1 X89.210 Y154.790 E2.24434
G1 X89.210 Y55.270 E3.12038
G1 X89.590 Y55.334 F10800.000
G1 X89.587 Y55.587
G1 F1200.000
G1 X160.413 Y55.587 E2.22069
G1 X160.413 Y154.413 E3.09861
G1 X89.587 Y154.413 E2.22069
G1 X89.587 Y55.647 E3.09673
G1 F8640.000
G1 X92.879 Y55.644 E-0.76000
G1 E-0.04000 F2100.00000
G1 Z0.800 F10800.000
G1 X89.700 Y153.536
G1 Z0.200
G1 E0.80000 F2100.00000
G1 F1200.000
G1 X90.294 Y154.130 E0.02636
G1 X90.828 Y154.130 E0.01677
G1 X89.870 Y153.172 E0.04254
G1 X89.870 Y152.638 E0.01677
G1 X91.362 Y154.130 E0.06625
G1 X91.896 Y154.130 E0.01677
G1 X89.870 Y152.104 E0.08996
G1 X89.870 Y151.570 E0.01677
G1 X92.430 Y154.130 E0.11367
G1 X92.964 Y154.130 E0.01677
G1 X89.870 Y151.036 E0.13738
G1 X89.870 Y150.502 E0.01677
G1 X93.498 Y154.130 E0.16109
G1 X94.032 Y154.130 E0.01677
G1 X89.870 Y149.968 E0.18480
G1 X89.870 Y149.434 E0.01677
G1 X94.566 Y154.130 E0.20851
G1 X95.100 Y154.130 E0.01677
G1 X89.870 Y148.900 E0.23222
G1 X89.870 Y148.366 E0.01677
G1 X95.634 Y154.130 E0.25593
G1 X96.168 Y154.130 E0.01677
G1 X89.870 Y147.832 E0.27964
G1 X89.870 Y147.298 E0.01677
G1 X96.702 Y154.130 E0.30335
G1 X97.236 Y154.130 E0.01677
G1 X89.870 Y146.764 E0.32706
G1 X89.870 Y146.230 E0.01677
G1 X97.770 Y154.130 E0.35077
G1 X98.304 Y154.130 E0.01677
G1 X89.870 Y145.696 E0.37448
G1 X89.870 Y145.162 E0.01677
G1 X98.838 Y154.130 E0.39819
G1 X99.372 Y154.130 E0.01677
G1 X89.870 Y144.628 E0.42190
G1 X89.870 Y144.094 E0.01677
G1 X99.906 Y154.130 E0.44561
G1 X100.440 Y154.130 E0.01677
G1 X89.870 Y143.560 E0.46932
G1 X89.870 Y143.026 E0.01677
G1 X100.974 Y154.130 E0.49303
G1 X101.508 Y154.130 E0.01677
G1 X89.870 Y142.492 E0.51674
G1 X89.870 Y141.958 E0.01677
G1 X102.042 Y154.130 E0.54045
G1 X102.576 Y154.130 E0.01677
G1 X89.870 Y141.424 E0.56416
G1 X89.870 Y140.890 E0.01677
G1 X103.110 Y154.130 E0.58786
G1 X103.644 Y154.130 E0.01677
G1 X89.870 Y140.356 E0.61157
G1 X89.870 Y139.822 E0.01677
G1 X104.178 Y154.130 E0.63528
G1 X104.712 Y154.130 E0.01677
G1 X89.870 Y139.288 E0.65899
G1 X89.870 Y138.754 E0.01677
G1 X105.246 Y154.130 E0.68270
G1 X105.780 Y154.130 E0.01677
G1 X89.870 Y138.220 E0.70641
G1 X89.870 Y137.686 E0.01677
G1 X106.314 Y154.130 E0.73012
M73 Q0 S399
G1 X106.848 Y154.130 E0.01677
G1 X89.870 Y137.152 E0.75383
M73 P0 R396
G1 X89.870 Y136.618 E0.01677
G1 X107.382 Y154.130 E0.77754
G1 X107.916 Y154.130 E0.01677
G1 X89.870 Y136.084 E0.80125
G1 X89.870 Y135.550 E0.01677
G1 X108.450 Y154.130 E0.82496
G1 X108.984 Y154.130 E0.01677
G1 X89.870 Y135.016 E0.84867
G1 X89.870 Y134.482 E0.01677
G1 X109.518 Y154.130 E0.87238
G1 X110.052 Y154.130 E0.01677
G1 X89.870 Y133.948 E0.89609
G1 X89.870 Y133.414 E0.01677
G1 X110.586 Y154.130 E0.91980
G1 X111.120 Y154.130 E0.01677
G1 X89.870 Y132.880 E0.94351
G1 X89.870 Y132.346 E0.01677
G1 X111.653 Y154.130 E0.96722
G1 X112.187 Y154.130 E0.01677
G1 X89.870 Y131.813 E0.99093
G1 X89.870 Y131.279 E0.01677
G1 X112.721 Y154.130 E1.01464
G1 X113.255 Y154.130 E0.01677
G1 X89.870 Y130.745 E1.03835
G1 X89.870 Y130.211 E0.01677
G1 X113.789 Y154.130 E1.06206
G1 X114.323 Y154.130 E0.01677
G1 X89.870 Y129.677 E1.08577
G1 X89.870 Y129.143 E0.01677
G1 X114.857 Y154.130 E1.10948
G1 X115.391 Y154.130 E0.01677
G1 X89.870 Y128.609 E1.13319
G1 X89.870 Y128.075 E0.01677
G1 X115.925 Y154.130 E1.15690
G1 X116.459 Y154.130 E0.01677
G1 X89.870 Y127.541 E1.18061
G1 X89.870 Y127.007 E0.01677
G1 X116.993 Y154.130 E1.20432
G1 X117.527 Y154.130 E0.01677
G1 X89.870 Y126.473 E1.22803
G1 X89.870 Y125.939 E0.01677
G1 X118.061 Y154.130 E1.25174
G1 X118.595 Y154.130 E0.01677
G1 X89.870 Y125.405 E1.27545
G1 X89.870 Y124.871 E0.01677
G1 X119.129 Y154.130 E1.29916
G1 X119.663 Y154.130 E0.01677
G1 X89.870 Y124.337 E1.32287
G1 X89.870 Y123.803 E0.01677
G1 X120.197 Y154.130 E1.34658
G1 X120.731 Y154.130 E0.01677
G1 X89.870 Y123.269 E1.37029
G1 X89.870 Y122.735 E0.01677
G1 X121.265 Y154.130 E1.39400
G1 X121.799 Y154.130 E0.01677
G1 X89.870 Y122.201 E1.41771
G1 X89.870 Y121.667 E0.01677
G1 X122.333 Y154.130 E1.44142
G1 X122.867 Y154.130 E0.01677
G1 X89.870 Y121.133 E1.46513
G1 X89.870 Y120.599 E0.01677
G1 X123.401 Y154.130 E1.48884
G1 X123.935 Y154.130 E0.01677
G1 X89.870 Y120.065 E1.51255
M73 Q1 S398
G1 X89.870 Y119.531 E0.01677
G1 X124.469 Y154.130 E1.53626
M73 P1 R395
G1 X125.003 Y154.130 E0.01677
G1 X89.870 Y118.997 E1.55997
G1 X89.870 Y118.463 E0.01677
G1 X125.537 Y154.130 E1.58368
G1 X126.071 Y154.130 E0.01677
G1 X89.870 Y117.929 E1.60739
G1 X89.870 Y117.395 E0.01677
G1 X126.605 Y154.130 E1.63110
G1 X127.139 Y154.130 E0.01677
G1 X89.870 Y116.861 E1.65481
G1 X89.870 Y116.327 E0.01677
G1 X127.673 Y154.130 E1.67852
G1 X128.207 Y154.130 E0.01677
G1 X89.870 Y115.793 E1.70223
G1 X89.870 Y115.259 E0.01677
G1 X128.741 Y154.130 E1.72594
G1 X129.275 Y154.130 E0.01677
G1 X89.870 Y114.725 E1.74965
G1 X89.870 Y114.191 E0.01677
G1 X129.809 Y154.130 E1.77336
G1 X130.343 Y154.130 E0.01677
G1 X89.870 Y113.657 E1.79707
G1 X89.870 Y113.123 E0.01677
G1 X130.877 Y154.130 E1.82078
G1 X131.411 Y154.130 E0.01677
G1 X89.870 Y112.589 E1.84448
G1 X89.870 Y112.055 E0.01677
G1 X131.945 Y154.130 E1.86819
G1 X132.479 Y154.130 E0.01677
G1 X89.870 Y111.521 E1.89190
G1 X89.870 Y110.987 E0.01677
G1 X133.013 Y154.130 E1.91561
G1 X133.547 Y154.130 E0.01677
G1 X89.870 Y110.453 E1.93932
G1 X89.870 Y109.919 E0.01677
G1 X134.081 Y154.130 E1.96303
G1 X134.615 Y154.130 E0.01677
G1 X89.870 Y109.385 E1.98674
G1 X89.870 Y108.851 E0.01677
G1 X135.149 Y154.130 E2.01045
M73 Q1 S397
G1 X135.683 Y154.130 E0.01677
G1 X89.870 Y108.317 E2.03416
M73 P1 R394
G1 X89.870 Y107.783 E0.01677
G1 X136.217 Y154.130 E2.05787
G1 X136.751 Y154.130 E0.01677
G1 X89.870 Y107.249 E2.08158
G1 X89.870 Y106.715 E0.01677
G1 X137.285 Y154.130 E2.10529
G1 X137.819 Y154.130 E0.01677
G1 X89.870 Y106.181 E2.12900
G1 X89.870 Y105.647 E0.01677
G1 X138.353 Y154.130 E2.15271
G1 X138.887 Y154.130 E0.01677
G1 X89.870 Y105.113 E2.17642
G1 X89.870 Y104.579 E0.01677
G1 X139.421 Y154.130 E2.20013
G1 X139.955 Y154.130 E0.01677
G1 X89.870 Y104.045 E2.22384
G1 X89.870 Y103.511 E0.01677
G1 X140.489 Y154.130 E2.24755
G1 X141.023 Y154.130 E0.01677
G1 X89.870 Y102.977 E2.27126
G1 X89.870 Y102.443 E0.01677
G1 X141.557 Y154.130 E2.29497
G1 X142.091 Y154.130 E0.01677
G1 X89.870 Y101.909 E2.31868
G1 X89.870 Y101.375 E0.01677
G1 X142.625 Y154.130 E2.34239
G1 X143.159 Y154.130 E0.01677
G1 X89.870 Y100.841 E2.36610
G1 X89.870 Y100.307 E0.01677
G1 X143.693 Y154.130 E2.38981
G1 X144.227 Y154.130 E0.01677
G1 X89.870 Y99.773 E2.41352
M73 Q1 S396
G1 X89.870 Y99.239 E0.01677
G1 X144.761 Y154.130 E2.43723
M73 P1 R393
G1 X145.295 Y154.130 E0.01677
G1 X89.870 Y98.705 E2.46094
G1 X89.870 Y98.171 E0.01677
G1 X145.829 Y154.130 E2.48465
G1 X146.363 Y154.130 E0.01677
G1 X89.870 Y97.637 E2.50836
G1 X89.870 Y97.103 E0.01677
G1 X146.897 Y154.130 E2.53207
G1 X147.431 Y154.130 E0.01677
G1 X89.870 Y96.569 E2.55578
G1 X89.870 Y96.035 E0.01677
G1 X147.965 Y154.130 E2.57949
G1 X148.499 Y154.130 E0.01677
G1 X89.870 Y95.501 E2.60320
G1 X89.870 Y94.967 E0.01677
G1 X149.033 Y154.130 E2.62691
G1 X149.567 Y154.130 E0.01677
G1 X89.870 Y94.433 E2.65062
G1 X89.870 Y93.899 E0.01677
G1 X150.101 Y154.130 E2.67433
G1 X150.635 Y154.130 E0.01677
G1 X89.870 Y93.365 E2.69804
G1 X89.870 Y92.831 E0.01677
G1 X151.169 Y154.130 E2.72175
G1 X151.703 Y154.130 E0.01677
G1 X89.870 Y92.297 E2.74546
G1 X89.870 Y91.763 E0.01677
G1 X152.237 Y154.130 E2.76917
M73 Q1 S395
G1 X152.771 Y154.130 E0.01677
G1 X89.870 Y91.229 E2.79288
M73 P1 R392
G1 X89.870 Y90.695 E0.01677
G1 X153.305 Y154.130 E2.81659
G1 X153.839 Y154.130 E0.01677
G1 X89.870 Y90.161 E2.84030
G1 X89.870 Y89.627 E0.01677
G1 X154.373 Y154.130 E2.86401
G1 X154.907 Y154.130 E0.01677
G1 X89.870 Y89.093 E2.88772
G1 X89.870 Y88.559 E0.01677
G1 X155.441 Y154.130 E2.91143
G1 X155.975 Y154.130 E0.01677
G1 X89.870 Y88.025 E2.93514
G1 X89.870 Y87.491 E0.01677
G1 X156.509 Y154.130 E2.95885
G1 X157.043 Y154.130 E0.01677
G1 X89.870 Y86.957 E2.98256
G1 X89.870 Y86.423 E0.01677
G1 X157.577 Y154.130 E3.00627
G1 X158.111 Y154.130 E0.01677
G1 X89.870 Y85.889 E3.02998
G1 X89.870 Y85.355 E0.01677
G1 X158.644 Y154.130 E3.05369
G1 X159.178 Y154.130 E0.01677
G1 X89.870 Y84.822 E3.07740
M73 Q2 S394
G1 X89.870 Y84.288 E0.01677
G1 X159.712 Y154.130 E3.10110
M73 P2 R391
G1 X160.130 Y154.130 E0.01311
G1 X160.130 Y154.014 E0.00365
G1 X89.870 Y83.754 E3.11965
G1 X89.870 Y83.220 E0.01677
G1 X160.130 Y153.480 E3.11965
G1 X160.130 Y152.946 E0.01677
G1 X89.870 Y82.686 E3.11965
G1 X89.870 Y82.152 E0.01677
G1 X160.130 Y152.412 E3.11965
G1 X160.130 Y151.878 E0.01677
G1 X89.870 Y81.618 E3.11965
G1 X89.870 Y81.084 E0.01677
G1 X160.130 Y151.344 E3.11965
G1 X160.130 Y150.810 E0.01677
G1 X89.870 Y80.550 E3.11965
G1 X89.870 Y80.016 E0.01677
G1 X160.130 Y150.276 E3.11965
G1 X160.130 Y149.742 E0.01677
G1 X89.870 Y79.482 E3.11965
G1 X89.870 Y78.948 E0.01677
G1 X160.130 Y149.208 E3.11965
G1 X160.130 Y148.674 E0.01677
G1 X89.870 Y78.414 E3.11965
M73 Q2 S393
G1 X89.870 Y77.880 E0.01677
G1 X160.130 Y148.140 E3.11965
M73 P2 R390
G1 X160.130 Y147.606 E0.01677
G1 X89.870 Y77.346 E3.11965
G1 X89.870 Y76.812 E0.01677
G1 X160.130 Y147.072 E3.11965
G1 X160.130 Y146.538 E0.01677
G1 X89.870 Y76.278 E3.11965
G1 X89.870 Y75.744 E0.01677
G1 X160.130 Y146.004 E3.11965
G1 X160.130 Y145.470 E0.01677
G1 X89.870 Y75.210 E3.11965
G1 X89.870 Y74.676 E0.01677
G1 X160.130 Y144.936 E3.11965
G1 X160.130 Y144.402 E0.01677
G1 X89.870 Y74.142 E3.11965
G1 X89.870 Y73.608 E0.01677
G1 X160.130 Y143.868 E3.11965
G1 X160.130 Y143.334 E0.01677
G1 X89.870 Y73.074 E3.11965
G1 X89.870 Y72.540 E0.01677
G1 X160.130 Y142.800 E3.11965
G1 X160.130 Y142.266 E0.01677
G1 X89.870 Y72.006 E3.11965
M73 Q2 S392
G1 X89.870 Y71.472 E0.01677
G1 X160.130 Y141.732 E3.11965
M73 P2 R389
G1 X160.130 Y141.198 E0.01677
G1 X89.870 Y70.938 E3.11965
G1 X89.870 Y70.404 E0.01677
G1 X160.130 Y140.664 E3.11965
G1 X160.130 Y140.130 E0.01677
G1 X89.870 Y69.870 E3.11965
G1 X89.870 Y69.336 E0.01677
G1 X160.130 Y139.596 E3.11965
G1 X160.130 Y139.062 E0.01677
G1 X89.870 Y68.802 E3.11965
G1 X89.870 Y68.268 E0.01677
G1 X160.130 Y138.528 E3.11965
