;FLAVOR:Marlin
;TIME:13076
;Filament used: 17.1941m
;Layer height: 0.2
;MINX:-31.05
;MINY:-39.8
;MINZ:0.3
;MAXX:31.05
;MAXY:39.8
;MAXZ:35.9
;Generated with Cura_SteamEngine 4.6.2
M104 S210
M105
M109 S210
M82 ;absolute extrusion mode
G90
G1 F300 Z1
G1 F5000 X77 Y26
G1 F300 Z0.315
G92 E0
G1 F2520 X77 Y-45 E4
G1 F2520 X77.5 Y-45 E4.05
G1 F2520 X77.5 Y26 E8
G1 F5000 X77.25 Y26
G92 E0
G1 F2520 X77.25 Y-45 E4
G1 F2520 X77.75 Y-45 E4.05
G1 F2520 X77.75 Y26 E8
G1 F5000 X77 Y0
G1 F300 Z1
G1 X0 Y0 F5000
G92 E0
G92 E0
G92 E0
G1 F900 E-6.5
;LAYER_COUNT:179
;LAYER:0
M106 S255
;MESH:character-tray-base.stl
G0 F2400 X-30.15 Y38.9 Z0.3
;TYPE:WALL-INNER
G1 F900 E0
G1 F1800 X-30.15 Y-38.9 E3.88146
G1 X30.15 Y-38.9 E6.88984
G1 X30.15 Y38.9 E10.77129
G1 X-30.15 Y38.9 E13.77967
G0 F2400 X-30.55 Y39.3
G1 F1800 X-30.55 Y-39.3 E17.70104
G1 X30.55 Y-39.3 E20.74934
G1 X30.55 Y39.3 E24.67071
G1 X-30.55 Y39.3 E27.719
G0 F2400 X-30.95 Y39.7
;TYPE:WALL-OUTER
G1 F1800 X-30.95 Y-39.7 E31.68028
G1 X30.95 Y-39.7 E34.76848
G1 X30.95 Y39.7 E38.72976
G1 X-30.95 Y39.7 E41.81797
G0 F2400 X-30.95 Y39.5
G0 X-30.48 Y39.23
G0 X-29.76 Y38.51
;TYPE:SKIN
G1 F1800 X-29.76 Y-38.51 E45.66051
G1 X29.76 Y-38.51 E48.62998
G1 X29.76 Y38.51 E52.47252
G1 X-29.76 Y38.51 E55.44198
G0 F2400 X-28.987 Y38.329
G1 F1800 X-29.579 Y37.736 E55.48379
G0 F2400 X-29.579 Y37.171
G1 F1800 X-28.421 Y38.329 E55.56549
G0 F2400 X-27.855 Y38.329
G1 F1800 X-29.579 Y36.605 E55.68713
G0 F2400 X-29.579 Y36.039
G1 F1800 X-27.29 Y38.329 E55.84867
G0 F2400 X-26.724 Y38.329
G1 F1800 X-29.579 Y35.474 E56.0501
G0 F2400 X-29.579 Y34.908
G1 F1800 X-26.158 Y38.329 E56.29147
G0 F2400 X-25.593 Y38.329
G1 F1800 X-29.579 Y34.342 E56.57274
G0 F2400 X-29.579 Y33.777
G1 F1800 X-25.027 Y38.329 E56.89391
G0 F2400 X-24.461 Y38.329
G1 F1800 X-29.579 Y33.211 E57.25501
G0 F2400 X-29.579 Y32.645
G1 F1800 X-23.895 Y38.329 E57.65605
G0 F2400 X-23.33 Y38.329
G1 F1800 X-29.579 Y32.08 E58.09695
G0 F2400 X-29.579 Y31.514
G1 F1800 X-22.764 Y38.329 E58.57778
G0 F2400 X-22.198 Y38.329
G1 F1800 X-29.579 Y30.948 E59.09855
G0 F2400 X-29.579 Y30.382
G1 F1800 X-21.633 Y38.329 E59.65922
G0 F2400 X-21.067 Y38.329
G1 F1800 X-29.579 Y29.817 E60.25979
G0 F2400 X-29.579 Y29.251
G1 F1800 X-20.501 Y38.329 E60.90029
G0 F2400 X-19.936 Y38.329
G1 F1800 X-29.579 Y28.685 E61.58069
G0 F2400 X-29.579 Y28.12
G1 F1800 X-19.37 Y38.329 E62.30099
G0 F2400 X-18.804 Y38.329
G1 F1800 X-29.579 Y27.554 E63.06123
G0 F2400 X-29.579 Y26.988
G1 F1800 X-18.239 Y38.329 E63.86136
G0 F2400 X-17.673 Y38.329
G1 F1800 X-29.579 Y26.423 E64.70139
G0 F2400 X-29.579 Y25.857
G1 F1800 X-17.107 Y38.329 E65.58136
G0 F2400 X-16.542 Y38.329
G1 F1800 X-29.579 Y25.291 E66.50123
G0 F2400 X-29.579 Y24.726
G1 F1800 X-15.976 Y38.329 E67.46099
G0 F2400 X-15.41 Y38.329
G1 F1800 X-29.579 Y24.16 E68.46069
G0 F2400 X-29.579 Y23.594
G1 F1800 X-14.844 Y38.329 E69.50032
G0 F2400 X-14.279 Y38.329
G1 F1800 X-29.579 Y23.029 E70.57982
G0 F2400 X-29.579 Y22.463
G1 F1800 X-13.713 Y38.329 E71.69925
G0 F2400 X-13.147 Y38.329
G1 F1800 X-29.579 Y21.897 E72.85862
G0 F2400 X-29.579 Y21.331
G1 F1800 X-12.582 Y38.329 E74.05789
G0 F2400 X-12.016 Y38.329
G1 F1800 X-29.579 Y20.766 E75.29705
G0 F2400 X-29.579 Y20.2
G1 F1800 X-11.45 Y38.329 E76.57615
G0 F2400 X-10.885 Y38.329
G1 F1800 X-29.579 Y19.634 E77.89515
G0 F2400 X-29.579 Y19.069
G1 F1800 X-10.319 Y38.329 E79.25404
G0 F2400 X-9.753 Y38.329
G1 F1800 X-29.579 Y18.503 E80.65288
G0 F2400 X-29.579 Y17.937
G1 F1800 X-9.188 Y38.329 E82.09161
G0 F2400 X-8.622 Y38.329
G1 F1800 X-29.579 Y17.372 E83.57024
G0 F2400 X-29.579 Y16.806
G1 F1800 X-8.056 Y38.329 E85.0888
G0 F2400 X-7.491 Y38.329
G1 F1800 X-29.579 Y16.24 E86.64726
G0 F2400 X-29.579 Y15.675
G1 F1800 X-6.925 Y38.329 E88.24562
G0 F2400 X-6.359 Y38.329
G1 F1800 X-29.579 Y15.109 E89.88392
G0 F2400 X-29.579 Y14.543
G1 F1800 X-5.794 Y38.329 E91.56212
G0 F2400 X-5.228 Y38.329
G1 F1800 X-29.579 Y13.978 E93.28021
G0 F2400 X-29.579 Y13.412
G1 F1800 X-4.662 Y38.329 E95.03824
G0 F2400 X-4.096 Y38.329
G1 F1800 X-29.579 Y12.846 E96.8362
G0 F2400 X-29.579 Y12.281
G1 F1800 X-3.531 Y38.329 E98.67403
G0 F2400 X-2.965 Y38.329
G1 F1800 X-29.579 Y11.715 E100.55179
G0 F2400 X-29.579 Y11.149
G1 F1800 X-2.399 Y38.329 E102.46949
G0 F2400 X-1.834 Y38.329
G1 F1800 X-29.579 Y10.583 E104.42708
G0 F2400 X-29.579 Y10.018
G1 F1800 X-1.268 Y38.329 E106.42458
G0 F2400 X-.702 Y38.329
G1 F1800 X-29.579 Y9.452 E108.462
G0 F2400 X-29.579 Y8.886
G1 F1800 X-.137 Y38.329 E110.53933
G0 F2400 X0.428 Y38.329
G1 F1800 X-29.579 Y8.321 E112.65652
G0 F2400 X-29.579 Y7.755
G1 F1800 X0.994 Y38.329 E114.81365
G0 F2400 X1.559 Y38.329
G1 F1800 X-29.579 Y7.189 E117.01067
G0 F2400 X-29.579 Y6.624
G1 F1800 X2.125 Y38.329 E119.2476
G0 F2400 X2.691 Y38.329
G1 F1800 X-29.579 Y6.058 E121.52446
G0 F2400 X-29.579 Y5.492
G1 F1800 X3.256 Y38.329 E123.84121
G0 F2400 X3.822 Y38.329
G1 F1800 X-29.579 Y4.927 E126.19787
G0 F2400 X-29.579 Y4.361
G1 F1800 X4.388 Y38.329 E128.59446
G0 F2400 X4.953 Y38.329
G1 F1800 X-29.579 Y3.795 E131.03095
G0 F2400 X-29.579 Y3.23
G1 F1800 X5.519 Y38.329 E133.50734
G0 F2400 X6.085 Y38.329
G1 F1800 X-29.579 Y2.664 E136.02366
G0 F2400 X-29.579 Y2.098
G1 F1800 X6.651 Y38.329 E138.57992
G0 F2400 X7.216 Y38.329
G1 F1800 X-29.579 Y1.533 E141.17604
G0 F2400 X-29.579 Y0.967
G1 F1800 X7.782 Y38.329 E143.8121
G0 F2400 X8.348 Y38.329
G1 F1800 X-29.579 Y0.401 E146.48809
G0 F2400 X-29.579 Y-.164
G1 F1800 X8.913 Y38.329 E149.20394
G0 F2400 X9.479 Y38.329
G1 F1800 X-29.579 Y-.729 E151.95969
G0 F2400 X-29.579 Y-1.295
G1 F1800 X10.045 Y38.329 E154.75538
G0 F2400 X10.61 Y38.329
G1 F1800 X-29.579 Y-1.861 E157.59097
G0 F2400 X-29.579 Y-2.426
G1 F1800 X11.176 Y38.329 E160.46645
G0 F2400 X11.742 Y38.329
G1 F1800 X-29.579 Y-2.992 E163.38187
G0 F2400 X-29.579 Y-3.558
G1 F1800 X12.307 Y38.329 E166.33719
G0 F2400 X12.873 Y38.329
G1 F1800 X-29.579 Y-4.123 E169.33241
G0 F2400 X-29.579 Y-4.689
G1 F1800 X13.439 Y38.329 E172.36756
G0 F2400 X14.004 Y38.329
G1 F1800 X-29.579 Y-5.255 E175.44261
G0 F2400 X-29.579 Y-5.82
G1 F1800 X14.57 Y38.329 E178.55756
G0 F2400 X15.136 Y38.329
G1 F1800 X-29.579 Y-6.386 E181.71245
G0 F2400 X-29.579 Y-6.952
G1 F1800 X15.702 Y38.329 E184.90726
G0 F2400 X16.267 Y38.329
G1 F1800 X-29.579 Y-7.517 E188.14195
G0 F2400 X-29.579 Y-8.083
G1 F1800 X16.833 Y38.329 E191.41657
G0 F2400 X17.399 Y38.329
G1 F1800 X-29.579 Y-8.649 E194.73112
G0 F2400 X-29.579 Y-9.215
G1 F1800 X17.964 Y38.329 E198.08557
G0 F2400 X18.53 Y38.329
G1 F1800 X-29.579 Y-9.78 E201.47992
G0 F2400 X-29.579 Y-10.346
G1 F1800 X19.096 Y38.329 E204.9142
G0 F2400 X19.661 Y38.329
G1 F1800 X-29.579 Y-10.912 E208.38838
G0 F2400 X-29.579 Y-11.477
G1 F1800 X20.227 Y38.329 E211.90247
G0 F2400 X20.793 Y38.329
G1 F1800 X-29.579 Y-12.043 E215.45648
G0 F2400 X-29.579 Y-12.609
G1 F1800 X21.358 Y38.329 E219.0504
G0 F2400 X21.924 Y38.329
G1 F1800 X-29.579 Y-13.174 E222.68421
G0 F2400 X-29.579 Y-13.74
G1 F1800 X22.49 Y38.329 E226.35796
G0 F2400 X23.055 Y38.329
G1 F1800 X-29.579 Y-14.306 E230.07161
G0 F2400 X-29.579 Y-14.871
G1 F1800 X23.621 Y38.329 E233.82516
G0 F2400 X24.187 Y38.329
G1 F1800 X-29.579 Y-15.437 E237.61864
G0 F2400 X-29.579 Y-16.003
G1 F1800 X24.752 Y38.329 E241.45202
G0 F2400 X25.318 Y38.329
G1 F1800 X-29.579 Y-16.568 E245.3253
G0 F2400 X-29.579 Y-17.134
G1 F1800 X25.884 Y38.329 E249.23852
G0 F2400 X26.45 Y38.329
G1 F1800 X-29.579 Y-17.7 E253.19166
G0 F2400 X-29.579 Y-18.265
G1 F1800 X27.015 Y38.329 E257.18468
G0 F2400 X27.581 Y38.329
G1 F1800 X-29.579 Y-18.831 E261.21762
G0 F2400 X-29.579 Y-19.397
G1 F1800 X28.147 Y38.329 E265.2905
G0 F2400 X28.712 Y38.329
G1 F1800 X-29.579 Y-19.963 E269.40328
G0 F2400 X-29.579 Y-20.528
G1 F1800 X29.278 Y38.329 E273.55596
G0 F2400 X29.579 Y38.064
G1 F1800 X-29.579 Y-21.094 E277.72988
G0 F2400 X-29.579 Y-21.66
G1 F1800 X29.579 Y37.499 E281.90383
G0 F2400 X29.579 Y36.933
G1 F1800 X-29.579 Y-22.225 E286.07775
G0 F2400 X-29.579 Y-22.791
G1 F1800 X29.579 Y36.367 E290.25166
G0 F2400 X29.579 Y35.802
G1 F1800 X-29.579 Y-23.357 E294.42562
G0 F2400 X-29.579 Y-23.922
G1 F1800 X29.579 Y35.236 E298.59953
G0 F2400 X29.579 Y34.67
G1 F1800 X-29.579 Y-24.488 E302.77345
G0 F2400 X-29.579 Y-25.054
G1 F1800 X29.579 Y34.105 E306.9474
G0 F2400 X29.579 Y33.539
G1 F1800 X-29.579 Y-25.619 E311.12132
G0 F2400 X-29.579 Y-26.185
G1 F1800 X29.579 Y32.973 E315.29523
G0 F2400 X29.579 Y32.408
G1 F1800 X-29.579 Y-26.751 E319.46919
G0 F2400 X-29.579 Y-27.316
G1 F1800 X29.579 Y31.842 E323.6431
G0 F2400 X29.579 Y31.276
G1 F1800 X-29.579 Y-27.882 E327.81702
G0 F2400 X-29.579 Y-28.448
G1 F1800 X29.579 Y30.711 E331.99097
G0 F2400 X29.579 Y30.145
G1 F1800 X-29.579 Y-29.014 E336.16492
G0 F2400 X-29.579 Y-29.579
G1 F1800 X29.579 Y29.579 E340.33884
G0 F2400 X29.579 Y29.014
G1 F1800 X-29.579 Y-30.145 E344.51279
G0 F2400 X-29.579 Y-30.711
G1 F1800 X29.579 Y28.448 E348.68674
G0 F2400 X29.579 Y27.882
G1 F1800 X-29.579 Y-31.276 E352.86066
G0 F2400 X-29.579 Y-31.842
G1 F1800 X29.579 Y27.316 E357.03457
G0 F2400 X29.579 Y26.751
G1 F1800 X-29.579 Y-32.408 E361.20853
G0 F2400 X-29.579 Y-32.973
G1 F1800 X29.579 Y26.185 E365.38244
G0 F2400 X29.579 Y25.619
G1 F1800 X-29.579 Y-33.539 E369.55636
G0 F2400 X-29.579 Y-34.105
G1 F1800 X29.579 Y25.054 E373.73031
G0 F2400 X29.579 Y24.488
G1 F1800 X-29.579 Y-34.67 E377.90423
G0 F2400 X-29.579 Y-35.236
G1 F1800 X29.579 Y23.922 E382.07814
G0 F2400 X29.579 Y23.357
G1 F1800 X-29.579 Y-35.802 E386.25209
G0 F2400 X-29.579 Y-36.367
G1 F1800 X29.579 Y22.791 E390.42601
G0 F2400 X29.579 Y22.225
G1 F1800 X-29.579 Y-36.933 E394.59993
G0 F2400 X-29.579 Y-37.499
G1 F1800 X29.579 Y21.66 E398.77388
G0 F2400 X29.579 Y21.094
G1 F1800 X-29.579 Y-38.064 E402.9478
G0 F2400 X-29.278 Y-38.329
G1 F1800 X29.579 Y20.528 E407.10048
G0 F2400 X29.579 Y19.963
G1 F1800 X-28.712 Y-38.329 E411.21326
G0 F2400 X-28.147 Y-38.329
G1 F1800 X29.579 Y19.397 E415.28614
G0 F2400 X29.579 Y18.831
G1 F1800 X-27.581 Y-38.329 E419.31908
G0 F2400 X-27.015 Y-38.329
G1 F1800 X29.579 Y18.265 E423.3121
G0 F2400 X29.579 Y17.7
G1 F1800 X-26.45 Y-38.329 E427.26524
G0 F2400 X-25.884 Y-38.329
G1 F1800 X29.579 Y17.134 E431.17846
G0 F2400 X29.579 Y16.568
G1 F1800 X-25.318 Y-38.329 E435.05174
G0 F2400 X-24.752 Y-38.329
G1 F1800 X29.579 Y16.003 E438.88512
G0 F2400 X29.579 Y15.437
G1 F1800 X-24.187 Y-38.329 E442.6786
G0 F2400 X-23.621 Y-38.329
G1 F1800 X29.579 Y14.871 E446.43215
G0 F2400 X29.579 Y14.306
G1 F1800 X-23.055 Y-38.329 E450.1458
G0 F2400 X-22.49 Y-38.329
G1 F1800 X29.579 Y13.74 E453.81955
G0 F2400 X29.579 Y13.174
G1 F1800 X-21.924 Y-38.329 E457.45336
G0 F2400 X-21.358 Y-38.329
G1 F1800 X29.579 Y12.609 E461.04728
G0 F2400 X29.579 Y12.043
G1 F1800 X-20.793 Y-38.329 E464.60129
G0 F2400 X-20.227 Y-38.329
G1 F1800 X29.579 Y11.477 E468.11537
G0 F2400 X29.579 Y10.912
G1 F1800 X-19.661 Y-38.329 E471.58956
G0 F2400 X-19.096 Y-38.329
G1 F1800 X29.579 Y10.346 E475.02384
G0 F2400 X29.579 Y9.78
G1 F1800 X-18.53 Y-38.329 E478.41819
G0 F2400 X-17.964 Y-38.329
G1 F1800 X29.579 Y9.215 E481.77264
G0 F2400 X29.579 Y8.649
G1 F1800 X-17.399 Y-38.329 E485.08719
G0 F2400 X-16.833 Y-38.329
G1 F1800 X29.579 Y8.083 E488.36181
G0 F2400 X29.579 Y7.517
G1 F1800 X-16.267 Y-38.329 E491.59649
G0 F2400 X-15.702 Y-38.329
G1 F1800 X29.579 Y6.952 E494.79131
G0 F2400 X29.579 Y6.386
G1 F1800 X-15.136 Y-38.329 E497.9462
G0 F2400 X-14.57 Y-38.329
G1 F1800 X29.579 Y5.82 E501.06115
G0 F2400 X29.579 Y5.255
G1 F1800 X-14.004 Y-38.329 E504.1362
G0 F2400 X-13.439 Y-38.329
G1 F1800 X29.579 Y4.689 E507.17135
G0 F2400 X29.579 Y4.123
G1 F1800 X-12.873 Y-38.329 E510.16657
G0 F2400 X-12.307 Y-38.329
G1 F1800 X29.579 Y3.558 E513.12189
G0 F2400 X29.579 Y2.992
G1 F1800 X-11.742 Y-38.329 E516.03731
G0 F2400 X-11.176 Y-38.329
G1 F1800 X29.579 Y2.426 E518.91279
G0 F2400 X29.579 Y1.861
G1 F1800 X-10.61 Y-38.329 E521.74838
G0 F2400 X-10.045 Y-38.329
G1 F1800 X29.579 Y1.295 E524.54407
G0 F2400 X29.579 Y0.729
G1 F1800 X-9.479 Y-38.329 E527.29982
G0 F2400 X-8.913 Y-38.329
G1 F1800 X29.579 Y0.164 E530.01567
G0 F2400 X29.579 Y-.401
G1 F1800 X-8.348 Y-38.329 E532.69166
G0 F2400 X-7.782 Y-38.329
G1 F1800 X29.579 Y-.967 E535.32772
G0 F2400 X29.579 Y-1.533
G1 F1800 X-7.216 Y-38.329 E537.92384
G0 F2400 X-6.651 Y-38.329
G1 F1800 X29.579 Y-2.098 E540.4801
G0 F2400 X29.579 Y-2.664
G1 F1800 X-6.085 Y-38.329 E542.99642
G0 F2400 X-5.519 Y-38.329
G1 F1800 X29.579 Y-3.23 E545.47281
G0 F2400 X29.579 Y-3.795
G1 F1800 X-4.953 Y-38.329 E547.9093
G0 F2400 X-4.388 Y-38.329
G1 F1800 X29.579 Y-4.361 E550.30589
G0 F2400 X29.579 Y-4.927
G1 F1800 X-3.822 Y-38.329 E552.66255
G0 F2400 X-3.256 Y-38.329
G1 F1800 X29.579 Y-5.492 E554.9793
G0 F2400 X29.579 Y-6.058
G1 F1800 X-2.691 Y-38.329 E557.25616
G0 F2400 X-2.125 Y-38.329
G1 F1800 X29.579 Y-6.624 E559.49309
G0 F2400 X29.579 Y-7.189
G1 F1800 X-1.559 Y-38.329 E561.69011
G0 F2400 X-.994 Y-38.329
G1 F1800 X29.579 Y-7.755 E563.84724
G0 F2400 X29.579 Y-8.321
G1 F1800 X-.428 Y-38.329 E565.96443
G0 F2400 X0.137 Y-38.329
G1 F1800 X29.579 Y-8.886 E568.04175
G0 F2400 X29.579 Y-9.452
G1 F1800 X0.702 Y-38.329 E570.07918
G0 F2400 X1.268 Y-38.329
G1 F1800 X29.579 Y-10.018 E572.07668
G0 F2400 X29.579 Y-10.583
G1 F1800 X1.834 Y-38.329 E574.03427
G0 F2400 X2.399 Y-38.329
G1 F1800 X29.579 Y-11.149 E575.95197
G0 F2400 X29.579 Y-11.715
G1 F1800 X2.965 Y-38.329 E577.82973
G0 F2400 X3.531 Y-38.329
G1 F1800 X29.579 Y-12.281 E579.66756
G0 F2400 X29.579 Y-12.846
G1 F1800 X4.096 Y-38.329 E581.46552
G0 F2400 X4.662 Y-38.329
G1 F1800 X29.579 Y-13.412 E583.22355
G0 F2400 X29.579 Y-13.978
G1 F1800 X5.228 Y-38.329 E584.94164
G0 F2400 X5.794 Y-38.329
G1 F1800 X29.579 Y-14.543 E586.61984
G0 F2400 X29.579 Y-15.109
G1 F1800 X6.359 Y-38.329 E588.25813
G0 F2400 X6.925 Y-38.329
G1 F1800 X29.579 Y-15.675 E589.8565
G0 F2400 X29.579 Y-16.24
G1 F1800 X7.491 Y-38.329 E591.41496
G0 F2400 X8.056 Y-38.329
G1 F1800 X29.579 Y-16.806 E592.93352
G0 F2400 X29.579 Y-17.372
G1 F1800 X8.622 Y-38.329 E594.41215
G0 F2400 X9.188 Y-38.329
G1 F1800 X29.579 Y-17.937 E595.85088
G0 F2400 X29.579 Y-18.503
G1 F1800 X9.753 Y-38.329 E597.24972
G0 F2400 X10.319 Y-38.329
G1 F1800 X29.579 Y-19.069 E598.60861
G0 F2400 X29.579 Y-19.634
G1 F1800 X10.885 Y-38.329 E599.92761
G0 F2400 X11.45 Y-38.329
G1 F1800 X29.579 Y-20.2 E601.20671
G0 F2400 X29.579 Y-20.766
G1 F1800 X12.016 Y-38.329 E602.44587
G0 F2400 X12.582 Y-38.329
G1 F1800 X29.579 Y-21.331 E603.64514
G0 F2400 X29.579 Y-21.897
G1 F1800 X13.147 Y-38.329 E604.80451
G0 F2400 X13.713 Y-38.329
G1 F1800 X29.579 Y-22.463 E605.92394
G0 F2400 X29.579 Y-23.029
G1 F1800 X14.279 Y-38.329 E607.00343
G0 F2400 X14.844 Y-38.329
G1 F1800 X29.579 Y-23.594 E608.04307
G0 F2400 X29.579 Y-24.16
G1 F1800 X15.41 Y-38.329 E609.04277
G0 F2400 X15.976 Y-38.329
G1 F1800 X29.579 Y-24.726 E610.00253
G0 F2400 X29.579 Y-25.291
G1 F1800 X16.542 Y-38.329 E610.9224
G0 F2400 X17.107 Y-38.329
G1 F1800 X29.579 Y-25.857 E611.80237
G0 F2400 X29.579 Y-26.423
G1 F1800 X17.673 Y-38.329 E612.6424
G0 F2400 X18.239 Y-38.329
G1 F1800 X29.579 Y-26.988 E613.44253
G0 F2400 X29.579 Y-27.554
G1 F1800 X18.804 Y-38.329 E614.20277
G0 F2400 X19.37 Y-38.329
G1 F1800 X29.579 Y-28.12 E614.92307
G0 F2400 X29.579 Y-28.685
G1 F1800 X19.936 Y-38.329 E615.60347
G0 F2400 X20.501 Y-38.329
G1 F1800 X29.579 Y-29.251 E616.24397
G0 F2400 X29.579 Y-29.817
G1 F1800 X21.067 Y-38.329 E616.84454
G0 F2400 X21.633 Y-38.329
G1 F1800 X29.579 Y-30.382 E617.40521
G0 F2400 X29.579 Y-30.948
G1 F1800 X22.198 Y-38.329 E617.92598
G0 F2400 X22.764 Y-38.329
G1 F1800 X29.579 Y-31.514 E618.40681
G0 F2400 X29.579 Y-32.08
G1 F1800 X23.33 Y-38.329 E618.84771
G0 F2400 X23.895 Y-38.329
G1 F1800 X29.579 Y-32.645 E619.24875
G0 F2400 X29.579 Y-33.211
G1 F1800 X24.461 Y-38.329 E619.60985
G0 F2400 X25.027 Y-38.329
G1 F1800 X29.579 Y-33.777 E619.93102
G0 F2400 X29.579 Y-34.342
G1 F1800 X25.593 Y-38.329 E620.21229
G0 F2400 X26.158 Y-38.329
G1 F1800 X29.579 Y-34.908 E620.45366
G0 F2400 X29.579 Y-35.474
G1 F1800 X26.724 Y-38.329 E620.65509
G0 F2400 X27.29 Y-38.329
G1 F1800 X29.579 Y-36.039 E620.81663
G0 F2400 X29.579 Y-36.605
G1 F1800 X27.855 Y-38.329 E620.93827
G0 F2400 X28.421 Y-38.329
G1 F1800 X29.579 Y-37.171 E621.01997
G0 F2400 X29.579 Y-37.736
