;FLAVOR:Marlin
;TIME:8419
;Filament used: 9.70035m
;Layer height: 0.2
;MINX:-51.3
;MINY:-42.8
;MINZ:0.3
;MAXX:51.3
;MAXY:42.8
;MAXZ:19.9
;Generated with Cura_SteamEngine 4.6.2
M104 S200
M105
M109 S200
M82 ;absolute extrusion mode
G90
G1 F300 Z1
G1 F5000 X77 Y26
G1 F300 Z0.315
G92 E0
G1 F2520 X77 Y-45 E4
G1 F2520 X77.5 Y-45 E4.05
G1 F2520 X77.5 Y26 E8
G1 F5000 X77.25 Y26
G92 E0
G1 F2520 X77.25 Y-45 E4
G1 F2520 X77.75 Y-45 E4.05
G1 F2520 X77.75 Y26 E8
G1 F5000 X77 Y0
G1 F300 Z1
G1 X0 Y0 F5000
G92 E0
G92 E0
G92 E0
G1 F900 E-6.5
;LAYER_COUNT:99
;LAYER:0
M106 S255
;MESH:clip.stl(1)
G0 F2400 X9.6 Y10.9 Z0.3
;TYPE:WALL-INNER
G1 F900 E0
G1 F1800 X9.6 Y-10.9 E1.08761
G1 X50.4 Y-10.9 E3.12313
G1 X50.4 Y10.9 E4.21073
G1 X9.6 Y10.9 E6.24625
G0 F2400 X9.2 Y11.3
G1 F1800 X9.2 Y-11.3 E7.37377
G1 X50.8 Y-11.3 E9.4492
G1 X50.8 Y11.3 E10.57672
G1 X9.2 Y11.3 E12.65216
G0 F2400 X8.8 Y11.7
;TYPE:WALL-OUTER
G1 F1800 X8.8 Y-11.7 E13.81959
G1 X51.2 Y-11.7 E15.93493
G1 X51.2 Y11.7 E17.10236
G1 X8.8 Y11.7 E19.21771
G0 F2400 X8.8 Y11.5
G0 X9.27 Y11.23
G0 X9.99 Y10.51
;TYPE:SKIN
G1 F1800 X9.99 Y-10.51 E20.2664
G1 X50.01 Y-10.51 E22.263
G1 X50.01 Y10.51 E23.3117
G1 X9.99 Y10.51 E25.3083
G0 F2400 X10.329 Y10.329
G1 F1800 X10.169 Y10.169 E25.31959
G0 F2400 X10.169 Y9.603
G1 F1800 X10.895 Y10.329 E25.37081
G0 F2400 X11.46 Y10.329
G1 F1800 X10.169 Y9.038 E25.4619
G0 F2400 X10.169 Y8.472
G1 F1800 X12.026 Y10.329 E25.59292
G0 F2400 X12.592 Y10.329
G1 F1800 X10.169 Y7.906 E25.76388
G0 F2400 X10.169 Y7.341
G1 F1800 X13.157 Y10.329 E25.9747
G0 F2400 X13.723 Y10.329
G1 F1800 X10.169 Y6.775 E26.22545
G0 F2400 X10.169 Y6.209
G1 F1800 X14.289 Y10.329 E26.51614
G0 F2400 X14.854 Y10.329
G1 F1800 X10.169 Y5.644 E26.84669
G0 F2400 X10.169 Y5.078
G1 F1800 X15.42 Y10.329 E27.21718
G0 F2400 X15.986 Y10.329
G1 F1800 X10.169 Y4.512 E27.6276
G0 F2400 X10.169 Y3.947
G1 F1800 X16.551 Y10.329 E28.07788
G0 F2400 X17.117 Y10.329
G1 F1800 X10.169 Y3.381 E28.5681
G0 F2400 X10.169 Y2.815
G1 F1800 X17.683 Y10.329 E29.09826
G0 F2400 X18.249 Y10.329
G1 F1800 X10.169 Y2.25 E29.66831
G0 F2400 X10.169 Y1.684
G1 F1800 X18.814 Y10.329 E30.27826
G0 F2400 X19.38 Y10.329
G1 F1800 X10.169 Y1.118 E30.92815
G0 F2400 X10.169 Y0.552
G1 F1800 X19.946 Y10.329 E31.61797
G0 F2400 X20.511 Y10.329
G1 F1800 X10.169 Y-0.012 E32.34761
G0 F2400 X10.169 Y-.578
G1 F1800 X21.077 Y10.329 E33.1172
G0 F2400 X21.643 Y10.329
G1 F1800 X10.169 Y-1.144 E33.92671
G0 F2400 X10.169 Y-1.709
G1 F1800 X22.208 Y10.329 E34.7761
G0 F2400 X22.774 Y10.329
G1 F1800 X10.169 Y-2.275 E35.66541
G0 F2400 X10.169 Y-2.841
G1 F1800 X23.34 Y10.329 E36.59466
G0 F2400 X23.905 Y10.329
G1 F1800 X10.169 Y-3.406 E37.56378
G0 F2400 X10.169 Y-3.972
G1 F1800 X24.471 Y10.329 E38.57282
G0 F2400 X25.037 Y10.329
G1 F1800 X10.169 Y-4.538 E39.62181
G0 F2400 X10.169 Y-5.103
G1 F1800 X25.602 Y10.329 E40.71065
G0 F2400 X26.168 Y10.329
G1 F1800 X10.169 Y-5.669 E41.83943
G0 F2400 X10.169 Y-6.235
G1 F1800 X26.734 Y10.329 E43.00815
G0 F2400 X27.299 Y10.329
G1 F1800 X10.169 Y-6.8 E44.21673
G0 F2400 X10.169 Y-7.366
G1 F1800 X27.865 Y10.329 E45.46524
G0 F2400 X28.431 Y10.329
G1 F1800 X10.169 Y-7.932 E46.75369
G0 F2400 X10.169 Y-8.498
G1 F1800 X28.997 Y10.329 E48.08207
G0 F2400 X29.562 Y10.329
G1 F1800 X10.169 Y-9.063 E49.45031
G0 F2400 X10.169 Y-9.629
G1 F1800 X30.128 Y10.329 E50.85849
G0 F2400 X30.694 Y10.329
G1 F1800 X10.169 Y-10.195 E52.30661
G0 F2400 X10.6 Y-10.329
G1 F1800 X31.259 Y10.329 E53.76418
G0 F2400 X31.825 Y10.329
G1 F1800 X11.166 Y-10.329 E55.22175
G0 F2400 X11.732 Y-10.329
G1 F1800 X32.391 Y10.329 E56.67931
G0 F2400 X32.956 Y10.329
G1 F1800 X12.298 Y-10.329 E58.13685
G0 F2400 X12.863 Y-10.329
G1 F1800 X33.522 Y10.329 E59.59442
G0 F2400 X34.088 Y10.329
G1 F1800 X13.429 Y-10.329 E61.05199
G0 F2400 X13.995 Y-10.329
G1 F1800 X34.653 Y10.329 E62.50952
G0 F2400 X35.219 Y10.329
G1 F1800 X14.56 Y-10.329 E63.96709
G0 F2400 X15.126 Y-10.329
G1 F1800 X35.785 Y10.329 E65.42466
G0 F2400 X36.35 Y10.329
G1 F1800 X15.692 Y-10.329 E66.88219
G0 F2400 X16.257 Y-10.329
G1 F1800 X36.916 Y10.329 E68.33976
G0 F2400 X37.482 Y10.329
G1 F1800 X16.823 Y-10.329 E69.79733
G0 F2400 X17.389 Y-10.329
G1 F1800 X38.048 Y10.329 E71.2549
G0 F2400 X38.613 Y10.329
G1 F1800 X17.954 Y-10.329 E72.71247
G0 F2400 X18.52 Y-10.329
G1 F1800 X39.179 Y10.329 E74.17003
G0 F2400 X39.745 Y10.329
G1 F1800 X19.086 Y-10.329 E75.6276
G0 F2400 X19.651 Y-10.329
G1 F1800 X40.31 Y10.329 E77.08517
G0 F2400 X40.876 Y10.329
G1 F1800 X20.217 Y-10.329 E78.54274
G0 F2400 X20.783 Y-10.329
G1 F1800 X41.442 Y10.329 E80.00031
G0 F2400 X42.007 Y10.329
G1 F1800 X21.348 Y-10.329 E81.45788
G0 F2400 X21.914 Y-10.329
G1 F1800 X42.573 Y10.329 E82.91545
G0 F2400 X43.139 Y10.329
G1 F1800 X22.48 Y-10.329 E84.37302
G0 F2400 X23.046 Y-10.329
G1 F1800 X43.704 Y10.329 E85.83055
G0 F2400 X44.27 Y10.329
G1 F1800 X23.611 Y-10.329 E87.28812
G0 F2400 X24.177 Y-10.329
G1 F1800 X44.836 Y10.329 E88.74569
G0 F2400 X45.401 Y10.329
G1 F1800 X24.743 Y-10.329 E90.20322
G0 F2400 X25.308 Y-10.329
G1 F1800 X45.967 Y10.329 E91.66079
G0 F2400 X46.533 Y10.329
G1 F1800 X25.874 Y-10.329 E93.11836
G0 F2400 X26.44 Y-10.329
G1 F1800 X47.098 Y10.329 E94.57589
G0 F2400 X47.664 Y10.329
G1 F1800 X27.005 Y-10.329 E96.03346
G0 F2400 X27.571 Y-10.329
G1 F1800 X48.23 Y10.329 E97.49103
G0 F2400 X48.796 Y10.329
G1 F1800 X28.137 Y-10.329 E98.9486
G0 F2400 X28.702 Y-10.329
G1 F1800 X49.361 Y10.329 E100.40617
G0 F2400 X49.829 Y10.231
G1 F1800 X29.268 Y-10.329 E101.85682
G0 F2400 X29.834 Y-10.329
G1 F1800 X49.829 Y9.665 E103.26754
G0 F2400 X49.829 Y9.099
G1 F1800 X30.399 Y-10.329 E104.63836
G0 F2400 X30.965 Y-10.329
G1 F1800 X49.829 Y8.534 E105.96928
G0 F2400 X49.829 Y7.968
G1 F1800 X31.531 Y-10.329 E107.26027
G0 F2400 X32.096 Y-10.329
G1 F1800 X49.829 Y7.402 E108.51136
G0 F2400 X49.829 Y6.837
G1 F1800 X32.662 Y-10.329 E109.72255
G0 F2400 X33.228 Y-10.329
G1 F1800 X49.829 Y6.271 E110.8938
G0 F2400 X49.829 Y5.705
G1 F1800 X33.794 Y-10.329 E112.02512
G0 F2400 X34.359 Y-10.329
G1 F1800 X49.829 Y5.139 E113.11654
G0 F2400 X49.829 Y4.574
G1 F1800 X34.925 Y-10.329 E114.16807
G0 F2400 X35.491 Y-10.329
G1 F1800 X49.829 Y4.008 E115.17966
G0 F2400 X49.829 Y3.442
G1 F1800 X36.056 Y-10.329 E116.15134
G0 F2400 X36.622 Y-10.329
G1 F1800 X49.829 Y2.877 E117.08313
G0 F2400 X49.829 Y2.311
G1 F1800 X37.188 Y-10.329 E117.97499
G0 F2400 X37.753 Y-10.329
G1 F1800 X49.829 Y1.745 E118.82695
G0 F2400 X49.829 Y1.18
G1 F1800 X38.319 Y-10.329 E119.639
G0 F2400 X38.885 Y-10.329
G1 F1800 X49.829 Y0.614 E120.41113
G0 F2400 X49.829 Y0.048
G1 F1800 X39.45 Y-10.329 E121.14335
G0 F2400 X40.016 Y-10.329
G1 F1800 X49.829 Y-.516 E121.83571
G0 F2400 X49.829 Y-1.082
G1 F1800 X40.582 Y-10.329 E122.48814
G0 F2400 X41.147 Y-10.329
G1 F1800 X49.829 Y-1.648 E123.10066
G0 F2400 X49.829 Y-2.213
G1 F1800 X41.713 Y-10.329 E123.67329
G0 F2400 X42.279 Y-10.329
G1 F1800 X49.829 Y-2.779 E124.20598
G0 F2400 X49.829 Y-3.345
G1 F1800 X42.845 Y-10.329 E124.69874
G0 F2400 X43.41 Y-10.329
G1 F1800 X49.829 Y-3.911 E125.1516
G0 F2400 X49.829 Y-4.476
G1 F1800 X43.976 Y-10.329 E125.56456
G0 F2400 X44.542 Y-10.329
G1 F1800 X49.829 Y-5.042 E125.93759
G0 F2400 X49.829 Y-5.608
G1 F1800 X45.107 Y-10.329 E126.27072
G0 F2400 X45.673 Y-10.329
G1 F1800 X49.829 Y-6.173 E126.56395
G0 F2400 X49.829 Y-6.739
G1 F1800 X46.239 Y-10.329 E126.81724
G0 F2400 X46.804 Y-10.329
G1 F1800 X49.829 Y-7.305 E127.03063
G0 F2400 X49.829 Y-7.87
G1 F1800 X47.37 Y-10.329 E127.20413
G0 F2400 X47.936 Y-10.329
G1 F1800 X49.829 Y-8.436 E127.33769
G0 F2400 X49.829 Y-9.002
G1 F1800 X48.501 Y-10.329 E127.43135
G0 F2400 X49.067 Y-10.329
G1 F1800 X49.829 Y-9.567 E127.48512
G0 F2400 X49.829 Y-10.133
G1 F1800 X49.633 Y-10.329 E127.49895
G1 F900 E120.99895
;MESH:clip.stl(2)
G0 F2400 X9.6 Y11.28
G0 X9.6 Y12.565
G0 X9.6 Y18.435
G0 X9.6 Y19.72
G0 X9.6 Y41.9
;TYPE:WALL-INNER
G1 F900 E127.49895
G1 F1800 X9.6 Y20.1 E128.58655
G1 X50.4 Y20.1 E130.62207
G1 X50.4 Y41.9 E131.70968
G1 X9.6 Y41.9 E133.7452
G0 F2400 X9.2 Y42.3
G1 F1800 X9.2 Y19.7 E134.87272
G1 X50.8 Y19.7 E136.94815
G1 X50.8 Y42.3 E138.07567
G1 X9.2 Y42.3 E140.1511
G0 F2400 X8.8 Y42.7
;TYPE:WALL-OUTER
G1 F1800 X8.8 Y19.3 E141.31853
G1 X51.2 Y19.3 E143.43388
G1 X51.2 Y42.7 E144.60131
G1 X8.8 Y42.7 E146.71665
G0 F2400 X8.8 Y42.5
G0 X9.27 Y42.23
G0 X9.99 Y41.51
;TYPE:SKIN
G1 F1800 X9.99 Y20.49 E147.76534
G1 X50.01 Y20.49 E149.76195
G1 X50.01 Y41.51 E150.81064
G1 X9.99 Y41.51 E152.80725
G0 F2400 X10.781 Y41.328
G1 F1800 X10.169 Y40.716 E152.85043
G0 F2400 X10.169 Y40.15
G1 F1800 X11.347 Y41.328 E152.93354
G0 F2400 X11.913 Y41.328
G1 F1800 X10.169 Y39.585 E153.05656
G0 F2400 X10.169 Y39.019
G1 F1800 X12.479 Y41.328 E153.2195
G0 F2400 X13.044 Y41.328
G1 F1800 X10.169 Y38.453 E153.42235
G0 F2400 X10.169 Y37.888
G1 F1800 X13.61 Y41.328 E153.6651
G0 F2400 X14.176 Y41.328
G1 F1800 X10.169 Y37.322 E153.94778
G0 F2400 X10.169 Y36.756
G1 F1800 X14.741 Y41.328 E154.27036
G0 F2400 X15.307 Y41.328
G1 F1800 X10.169 Y36.191 E154.63283
G0 F2400 X10.169 Y35.625
G1 F1800 X15.873 Y41.328 E155.03525
G0 F2400 X16.438 Y41.328
G1 F1800 X10.169 Y35.059 E155.47756
G0 F2400 X10.169 Y34.494
G1 F1800 X17.004 Y41.328 E155.95977
G0 F2400 X17.57 Y41.328
G1 F1800 X10.169 Y33.928 E156.48191
G0 F2400 X10.169 Y33.362
G1 F1800 X18.135 Y41.328 E157.04396
G0 F2400 X18.701 Y41.328
G1 F1800 X10.169 Y32.797 E157.6459
G0 F2400 X10.169 Y32.231
G1 F1800 X19.267 Y41.328 E158.28778
G0 F2400 X19.832 Y41.328
G1 F1800 X10.169 Y31.665 E158.96956
G0 F2400 X10.169 Y31.099
G1 F1800 X20.398 Y41.328 E159.69127
G0 F2400 X20.964 Y41.328
G1 F1800 X10.169 Y30.534 E160.45288
G0 F2400 X10.169 Y29.968
G1 F1800 X21.529 Y41.328 E161.25439
G0 F2400 X22.095 Y41.328
G1 F1800 X10.169 Y29.402 E162.09583
G0 F2400 X10.169 Y28.837
G1 F1800 X22.661 Y41.328 E162.97717
G0 F2400 X23.227 Y41.328
G1 F1800 X10.169 Y28.271 E163.89845
G0 F2400 X10.169 Y27.705
G1 F1800 X23.792 Y41.328 E164.85963
G0 F2400 X24.358 Y41.328
G1 F1800 X10.169 Y27.14 E165.8607
G0 F2400 X10.169 Y26.574
G1 F1800 X24.924 Y41.328 E166.90171
G0 F2400 X25.489 Y41.328
G1 F1800 X10.169 Y26.008 E167.98262
G0 F2400 X10.169 Y25.443
G1 F1800 X26.055 Y41.328 E169.10343
G0 F2400 X26.621 Y41.328
G1 F1800 X10.169 Y24.877 E170.26417
G0 F2400 X10.169 Y24.311
G1 F1800 X27.186 Y41.328 E171.46481
G0 F2400 X27.752 Y41.328
G1 F1800 X10.169 Y23.746 E172.70535
G0 F2400 X10.169 Y23.18
G1 F1800 X28.318 Y41.328 E173.98583
G0 F2400 X28.883 Y41.328
G1 F1800 X10.169 Y22.614 E175.3062
G0 F2400 X10.169 Y22.049
G1 F1800 X29.449 Y41.328 E176.66647
G0 F2400 X30.015 Y41.328
G1 F1800 X10.169 Y21.483 E178.06668
G0 F2400 X10.169 Y20.917
G1 F1800 X30.58 Y41.328 E179.50679
G0 F2400 X31.146 Y41.328
G1 F1800 X10.487 Y20.67 E180.96436
G0 F2400 X11.053 Y20.67
G1 F1800 X31.712 Y41.328 E182.42192
G0 F2400 X32.278 Y41.328
G1 F1800 X11.619 Y20.67 E183.87949
G0 F2400 X12.184 Y20.67
G1 F1800 X32.843 Y41.328 E185.33706
G0 F2400 X33.409 Y41.328
G1 F1800 X12.75 Y20.67 E186.79463
G0 F2400 X13.316 Y20.67
G1 F1800 X33.975 Y41.328 E188.2522
G0 F2400 X34.54 Y41.328
G1 F1800 X13.881 Y20.67 E189.70977
G0 F2400 X14.447 Y20.67
G1 F1800 X35.106 Y41.328 E191.16734
G0 F2400 X35.672 Y41.328
G1 F1800 X15.013 Y20.67 E192.62491
G0 F2400 X15.578 Y20.67
G1 F1800 X36.237 Y41.328 E194.08247
G0 F2400 X36.803 Y41.328
G1 F1800 X16.144 Y20.67 E195.54004
G0 F2400 X16.71 Y20.67
G1 F1800 X37.369 Y41.328 E196.99761
G0 F2400 X37.934 Y41.328
G1 F1800 X17.276 Y20.67 E198.45515
G0 F2400 X17.841 Y20.67
G1 F1800 X38.5 Y41.328 E199.91271
G0 F2400 X39.066 Y41.328
G1 F1800 X18.407 Y20.67 E201.37028
G0 F2400 X18.973 Y20.67
G1 F1800 X39.631 Y41.328 E202.82782
G0 F2400 X40.197 Y41.328
G1 F1800 X19.538 Y20.67 E204.28539
G0 F2400 X20.104 Y20.67
G1 F1800 X40.763 Y41.328 E205.74295
G0 F2400 X41.328 Y41.328
G1 F1800 X20.67 Y20.67 E207.20049
G0 F2400 X21.235 Y20.67
G1 F1800 X41.894 Y41.328 E208.65806
G0 F2400 X42.46 Y41.328
G1 F1800 X21.801 Y20.67 E210.11563
G0 F2400 X22.367 Y20.67
G1 F1800 X43.026 Y41.328 E211.57319
G0 F2400 X43.591 Y41.328
G1 F1800 X22.932 Y20.67 E213.03076
G0 F2400 X23.498 Y20.67
G1 F1800 X44.157 Y41.328 E214.48833
G0 F2400 X44.723 Y41.328
G1 F1800 X24.064 Y20.67 E215.9459
G0 F2400 X24.629 Y20.67
G1 F1800 X45.288 Y41.328 E217.40347
G0 F2400 X45.854 Y41.328
G1 F1800 X25.195 Y20.67 E218.86104
G0 F2400 X25.761 Y20.67
G1 F1800 X46.42 Y41.328 E220.31861
G0 F2400 X46.985 Y41.328
G1 F1800 X26.326 Y20.67 E221.77618
G0 F2400 X26.892 Y20.67
G1 F1800 X47.551 Y41.328 E223.23374
G0 F2400 X48.117 Y41.328
G1 F1800 X27.458 Y20.67 E224.69131
G0 F2400 X28.024 Y20.67
G1 F1800 X48.682 Y41.328 E226.14885
G0 F2400 X49.248 Y41.328
G1 F1800 X28.589 Y20.67 E227.60642
G0 F2400 X29.155 Y20.67
G1 F1800 X49.814 Y41.328 E229.06398
G0 F2400 X49.829 Y40.778
G1 F1800 X29.721 Y20.67 E230.48271
G0 F2400 X30.286 Y20.67
G1 F1800 X49.829 Y40.213 E231.86158
G0 F2400 X49.829 Y39.647
G1 F1800 X30.852 Y20.67 E233.20051
G0 F2400 X31.418 Y20.67
G1 F1800 X49.829 Y39.081 E234.4995
G0 F2400 X49.829 Y38.516
G1 F1800 X31.983 Y20.67 E235.75863
G0 F2400 X32.549 Y20.67
G1 F1800 X49.829 Y37.95 E236.97783
G0 F2400 X49.829 Y37.384
G1 F1800 X33.115 Y20.67 E238.15709
G0 F2400 X33.68 Y20.67
G1 F1800 X49.829 Y36.819 E239.29649
G0 F2400 X49.829 Y36.253
G1 F1800 X34.246 Y20.67 E240.39596
G0 F2400 X34.812 Y20.67
G1 F1800 X49.829 Y35.687 E241.45549
G0 F2400 X49.829 Y35.121
G1 F1800 X35.377 Y20.67 E242.47512
G0 F2400 X35.943 Y20.67
G1 F1800 X49.829 Y34.556 E243.45485
G0 F2400 X49.829 Y33.99
G1 F1800 X36.509 Y20.67 E244.39465
G0 F2400 X37.075 Y20.67
G1 F1800 X49.829 Y33.424 E245.29451
G0 F2400 X49.829 Y32.859
G1 F1800 X37.64 Y20.67 E246.15451
G0 F2400 X38.206 Y20.67
G1 F1800 X49.829 Y32.293 E246.97458
G0 F2400 X49.829 Y31.727
G1 F1800 X38.772 Y20.67 E247.75471
G0 F2400 X39.337 Y20.67
G1 F1800 X49.829 Y31.162 E248.49498
G0 F2400 X49.829 Y30.596
G1 F1800 X39.903 Y20.67 E249.19531
G0 F2400 X40.469 Y20.67
G1 F1800 X49.829 Y30.03 E249.85571
G0 F2400 X49.829 Y29.465
G1 F1800 X41.034 Y20.67 E250.47624
G0 F2400 X41.6 Y20.67
G1 F1800 X49.829 Y28.899 E251.05684
G0 F2400 X49.829 Y28.333
G1 F1800 X42.166 Y20.67 E251.59751
G0 F2400 X42.731 Y20.67
G1 F1800 X49.829 Y27.768 E252.09831
G0 F2400 X49.829 Y27.202
G1 F1800 X43.297 Y20.67 E252.55918
G0 F2400 X43.863 Y20.67
G1 F1800 X49.829 Y26.636 E252.98011
G0 F2400 X49.829 Y26.071
G1 F1800 X44.428 Y20.67 E253.36118
G0 F2400 X44.994 Y20.67
G1 F1800 X49.829 Y25.505 E253.70232
G0 F2400 X49.829 Y24.939
G1 F1800 X45.56 Y20.67 E254.00352
G0 F2400 X46.125 Y20.67
G1 F1800 X49.829 Y24.373 E254.26482
G0 F2400 X49.829 Y23.808
G1 F1800 X46.691 Y20.67 E254.48622
G0 F2400 X47.257 Y20.67
G1 F1800 X49.829 Y23.242 E254.66769
G0 F2400 X49.829 Y22.676
G1 F1800 X47.823 Y20.67 E254.80923
G0 F2400 X48.388 Y20.67
G1 F1800 X49.829 Y22.111 E254.9109
G0 F2400 X49.829 Y21.545
G1 F1800 X48.954 Y20.67 E254.97263
G0 F2400 X49.52 Y20.67
G1 F1800 X49.829 Y20.979 E254.99443
G1 F900 E248.49443
;MESH:clip.stl
G0 F2400 X9.22 Y41.9
G0 X7.935 Y41.9
G0 X-7.935 Y41.9
G0 X-9.22 Y41.9
G0 X-50.4 Y41.9
;TYPE:WALL-INNER
G1 F900 E254.99443
G1 F1800 X-50.4 Y20.1 E256.08204
G1 X-9.6 Y20.1 E258.11756
G1 X-9.6 Y41.9 E259.20517
G1 X-50.4 Y41.9 E261.24069
G0 F2400 X-50.8 Y42.3
G1 F1800 X-50.8 Y19.7 E262.36821
G1 X-9.2 Y19.7 E264.44364
G1 X-9.2 Y42.3 E265.57116
G1 X-50.8 Y42.3 E267.64659
G0 F2400 X-51.2 Y42.7
;TYPE:WALL-OUTER
G1 F1800 X-51.2 Y19.3 E268.81402
G1 X-8.8 Y19.3 E270.92937
G1 X-8.8 Y42.7 E272.0968
G1 X-51.2 Y42.7 E274.21214
G0 F2400 X-51.2 Y42.5
G0 X-50.73 Y42.23
G0 X-50.01 Y41.51
;TYPE:SKIN
G1 F1800 X-50.01 Y20.49 E275.26083
G1 X-9.99 Y20.49 E277.25744
G1 X-9.99 Y41.51 E278.30613
G1 X-50.01 Y41.51 E280.30274
G0 F2400 X-49.746 Y41.328
G1 F1800 X-49.829 Y41.245 E280.30859
G0 F2400 X-49.829 Y40.679
G1 F1800 X-49.18 Y41.328 E280.35438
G0 F2400 X-48.615 Y41.328
G1 F1800 X-49.829 Y40.114 E280.44004
G0 F2400 X-49.829 Y39.548
G1 F1800 X-48.049 Y41.328 E280.56563
G0 F2400 X-47.483 Y41.328
G1 F1800 X-49.829 Y38.982 E280.73115
G0 F2400 X-49.829 Y38.417
G1 F1800 X-46.917 Y41.328 E280.93657
G0 F2400 X-46.352 Y41.328
G1 F1800 X-49.829 Y37.851 E281.18189
G0 F2400 X-49.829 Y37.285
G1 F1800 X-45.786 Y41.328 E281.46715
G0 F2400 X-45.22 Y41.328
