; generated by PrusaSlicer 2.2.0+ on 2020-11-06 at 07:36:54 UTC

; 

; external perimeters extrusion width = 0.45mm
; perimeters extrusion width = 0.45mm
; infill extrusion width = 0.45mm
; solid infill extrusion width = 0.45mm
; top infill extrusion width = 0.40mm
; first layer extrusion width = 0.42mm

M73 P0 R142
M73 Q0 S142
M201 X1000 Y1000 Z200 E5000 ; sets maximum accelerations, mm/sec^2
M203 X200 Y200 Z12 E120 ; sets maximum feedrates, mm/sec
M204 P1250 R1250 T1250 ; sets acceleration (P, T) and retract acceleration (R), mm/sec^2
M205 X8.00 Y8.00 Z0.40 E4.50 ; sets the jerk limits, mm/sec
M205 S0 T0 ; sets the minimum extruding and travel feed rate, mm/sec
M107
M862.3 P "MK3S" ; printer model check
M862.1 P0.4 ; nozzle diameter check
M115 U3.9.1 ; tell printer latest fw version
G90 ; use absolute coordinates
M83 ; extruder relative mode
M104 S215 ; set extruder temp
M140 S70 ; set bed temp
M190 S70 ; wait for bed temp
M109 S215 ; wait for extruder temp
G28 W ; home all without mesh bed level
G80 ; mesh bed leveling
G1 Y-3.0 F1000.0 ; go outside print area
G92 E0.0
G1 X60.0 E9.0 F1000.0 ; intro line
M73 Q0 S142
M73 P0 R142
G1 X100.0 E12.5 F1000.0 ; intro line
G92 E0.0
M221 S95

; Don't change E values below. Excessive value can damage the printer.
M907 E430 ; set extruder motor current
G21 ; set units to millimeters
G90 ; use absolute coordinates
M83 ; use relative distances for extrusion
M900 K0.05 ; Filament gcode LA 1.5
M900 K30 ; Filament gcode LA 1.0
;BEFORE_LAYER_CHANGE
G92 E0.0
;0.2
G1 E-0.80000 F2100.00000
G1 Z0.600 F10800.000
;AFTER_LAYER_CHANGE
;0.2
G1 X114.438 Y64.124
G1 Z0.200
G1 E0.80000 F2100.00000
M204 S1000
G1 F1200.000
G1 X114.997 Y63.538 E0.02540
G1 X115.471 Y63.238 E0.01760
G1 X116.140 Y63.049 E0.02179
G1 X133.868 Y63.053 E0.55585
G1 X134.311 Y63.150 E0.01423
G1 X134.759 Y63.358 E0.01548
G1 X135.450 Y63.983 E0.02920
G1 X135.762 Y64.471 E0.01818
G1 X135.951 Y65.140 E0.02179
G1 X135.951 Y144.819 E2.49827
G1 X135.903 Y145.146 E0.01037
G1 X135.562 Y145.876 E0.02525
G1 X135.003 Y146.462 E0.02540
G1 X134.529 Y146.762 E0.01760
G1 X133.860 Y146.951 E0.02179
G1 X116.181 Y146.951 E0.55430
G1 X115.854 Y146.903 E0.01037
G1 X115.124 Y146.562 E0.02525
G1 X114.538 Y146.003 E0.02540
G1 X114.238 Y145.529 E0.01760
G1 X114.049 Y144.860 E0.02179
G1 X114.049 Y65.181 E2.49827
G1 X114.097 Y64.854 E0.01037
G1 X114.413 Y64.179 E0.02337
G1 X114.752 Y64.341 F10800.000
G1 F1200.000
G1 X115.251 Y63.817 E0.02269
G1 X115.604 Y63.592 E0.01314
G1 X116.168 Y63.426 E0.01842
G1 X133.846 Y63.430 E0.55427
G1 X134.205 Y63.513 E0.01157
G1 X134.571 Y63.685 E0.01268
G1 X135.176 Y64.243 E0.02580
G1 X135.408 Y64.605 E0.01347
G1 X135.574 Y65.168 E0.01841
G1 X135.574 Y144.804 E2.49692
G1 X135.535 Y145.060 E0.00812
G1 X135.236 Y145.683 E0.02167
G1 X134.749 Y146.183 E0.02188
G1 X134.396 Y146.408 E0.01314
G1 X133.832 Y146.574 E0.01842
G1 X116.196 Y146.574 E0.55296
G1 X115.940 Y146.535 E0.00812
G1 X115.317 Y146.236 E0.02167
G1 X114.817 Y145.749 E0.02188
G1 X114.592 Y145.396 E0.01314
G1 X114.426 Y144.832 E0.01842
G1 X114.426 Y65.196 E2.49692
G1 X114.465 Y64.940 E0.00812
G1 X114.726 Y64.395 E0.01894
G1 X114.833 Y65.030 F10800.000
G1 F1200.000
G1 X115.087 Y64.513 E0.01806
G1 X115.502 Y64.098 E0.01841
G1 X115.742 Y63.944 E0.00892
G1 X116.198 Y63.803 E0.01496
G1 X133.824 Y63.807 E0.55266
G1 X134.062 Y63.862 E0.00767
G1 X134.382 Y64.013 E0.01109
G1 X134.901 Y64.501 E0.02233
G1 X135.056 Y64.742 E0.00898
G1 X135.197 Y65.198 E0.01495
G1 X135.197 Y144.788 E2.49550
G1 X135.167 Y144.970 E0.00579
G1 X134.913 Y145.487 E0.01806
G1 X134.498 Y145.902 E0.01841
G1 X134.258 Y146.056 E0.00892
G1 X133.802 Y146.197 E0.01496
G1 X116.212 Y146.197 E0.55153
G1 X116.030 Y146.167 E0.00579
G1 X115.513 Y145.913 E0.01806
G1 X115.098 Y145.498 E0.01841
G1 X114.944 Y145.258 E0.00892
G1 X114.803 Y144.802 E0.01496
G1 X114.803 Y65.212 E2.49550
G1 X114.823 Y65.089 E0.00391
G1 X115.199 Y65.121 F10800.000
G1 F1200.000
G1 X115.376 Y64.757 E0.01270
G1 X115.756 Y64.378 E0.01682
G1 X115.885 Y64.293 E0.00484
G1 X116.229 Y64.180 E0.01136
G1 X133.802 Y64.184 E0.55097
G1 X133.919 Y64.211 E0.00377
G1 X134.192 Y64.340 E0.00947
G1 X134.623 Y64.757 E0.01880
G1 X134.707 Y64.885 E0.00479
G1 X134.820 Y65.229 E0.01136
G1 X134.820 Y144.771 E2.49396
G1 X134.801 Y144.879 E0.00345
G1 X134.624 Y145.243 E0.01270
G1 X134.244 Y145.622 E0.01682
G1 X134.115 Y145.707 E0.00484
G1 X133.771 Y145.820 E0.01136
G1 X116.229 Y145.820 E0.54999
G1 X116.121 Y145.801 E0.00345
G1 X115.757 Y145.624 E0.01270
G1 X115.378 Y145.244 E0.01682
G1 X115.293 Y145.115 E0.00484
G1 X115.180 Y144.771 E0.01136
G1 X115.189 Y65.180 E2.49550
G1 X115.564 Y65.218 F10800.000
G1 F1200.000
G1 X115.667 Y65.000 E0.00757
G1 X116.010 Y64.657 E0.01522
G1 X116.264 Y64.557 E0.00856
G1 X133.750 Y64.557 E0.54824
G1 X134.000 Y64.667 E0.00856
G1 X134.343 Y65.010 E0.01522
G1 X134.443 Y65.264 E0.00856
G1 X134.443 Y144.750 E2.49221
G1 X134.333 Y145.000 E0.00856
G1 X133.990 Y145.343 E0.01522
G1 X133.736 Y145.443 E0.00856
G1 X116.250 Y145.443 E0.54824
G1 X116.000 Y145.333 E0.00856
G1 X115.657 Y144.990 E0.01522
G1 X115.557 Y144.736 E0.00856
G1 X115.557 Y65.278 E2.49134
G1 X115.963 Y65.237 F10800.000
G1 F1200.000
G1 X116.237 Y64.963 E0.01215
G1 X116.306 Y64.934 E0.00235
G1 X133.694 Y64.934 E0.54517
G1 X133.763 Y64.963 E0.00235
G1 X134.037 Y65.237 E0.01215
G1 X134.066 Y65.306 E0.00235
G1 X134.066 Y144.694 E2.48914
G1 X134.037 Y144.763 E0.00235
G1 X133.763 Y145.037 E0.01215
G1 X133.694 Y145.066 E0.00235
G1 X116.306 Y145.066 E0.54517
M73 Q0 S141
G1 X116.237 Y145.037 E0.00235
G1 X115.963 Y144.763 E0.01215
G1 X115.934 Y144.694 E0.00235
G1 X115.940 Y65.292 E2.48957
M73 P0 R141
G1 X116.311 Y65.422 F10800.000
G1 F1200.000
G1 X116.422 Y65.311 E0.00490
G1 X133.578 Y65.311 E0.53792
G1 X133.689 Y65.422 E0.00490
G1 X133.689 Y144.578 E2.48189
G1 X133.578 Y144.689 E0.00490
G1 X116.422 Y144.689 E0.53792
G1 X116.311 Y144.578 E0.00490
G1 X116.311 Y65.482 E2.48001
G1 X116.710 Y65.710 F10800.000
G1 F1200.000
G1 X133.290 Y65.710 E0.51985
G1 X133.290 Y144.290 E2.46382
G1 X116.710 Y144.290 E0.51985
G1 X116.710 Y65.770 E2.46194
G1 X117.069 Y65.886 F10800.000
G1 X117.087 Y66.087
G1 F1200.000
G1 X132.913 Y66.087 E0.49621
G1 X132.913 Y143.913 E2.44017
G1 X117.087 Y143.913 E0.49621
G1 X117.087 Y66.147 E2.43829
G1 F8640.000
G1 X120.378 Y66.135 E-0.76000
G1 E-0.04000 F2100.00000
G1 Z0.800 F10800.000
G1 X117.967 Y143.800
G1 Z0.200
G1 E0.80000 F2100.00000
G1 F1200.000
G1 X117.370 Y143.203 E0.02660
G1 X117.370 Y142.667 E0.01690
G1 X118.333 Y143.630 E0.04293
G1 X118.869 Y143.630 E0.01690
G1 X117.370 Y142.131 E0.06682
G1 X117.370 Y141.595 E0.01690
G1 X119.405 Y143.630 E0.09072
G1 X119.941 Y143.630 E0.01690
G1 X117.370 Y141.059 E0.11461
G1 X117.370 Y140.523 E0.01690
G1 X120.477 Y143.630 E0.13851
G1 X121.013 Y143.630 E0.01690
G1 X117.370 Y139.987 E0.16240
G1 X117.370 Y139.451 E0.01690
G1 X121.549 Y143.630 E0.18629
G1 X122.085 Y143.630 E0.01690
G1 X117.370 Y138.915 E0.21019
G1 X117.370 Y138.379 E0.01690
G1 X122.621 Y143.630 E0.23408
G1 X123.158 Y143.630 E0.01690
G1 X117.370 Y137.842 E0.25798
G1 X117.370 Y137.306 E0.01690
G1 X123.694 Y143.630 E0.28187
G1 X124.230 Y143.630 E0.01690
G1 X117.370 Y136.770 E0.30577
G1 X117.370 Y136.234 E0.01690
G1 X124.766 Y143.630 E0.32966
G1 X125.302 Y143.630 E0.01690
G1 X117.370 Y135.698 E0.35355
G1 X117.370 Y135.162 E0.01690
G1 X125.838 Y143.630 E0.37745
G1 X126.374 Y143.630 E0.01690
G1 X117.370 Y134.626 E0.40134
G1 X117.370 Y134.090 E0.01690
G1 X126.910 Y143.630 E0.42524
G1 X127.446 Y143.630 E0.01690
G1 X117.370 Y133.554 E0.44913
G1 X117.370 Y133.018 E0.01690
G1 X127.982 Y143.630 E0.47302
G1 X128.518 Y143.630 E0.01690
G1 X117.370 Y132.482 E0.49692
G1 X117.370 Y131.946 E0.01690
G1 X129.054 Y143.630 E0.52081
G1 X129.590 Y143.630 E0.01690
G1 X117.370 Y131.410 E0.54471
G1 X117.370 Y130.874 E0.01690
G1 X130.126 Y143.630 E0.56860
G1 X130.662 Y143.630 E0.01690
G1 X117.370 Y130.338 E0.59250
G1 X117.370 Y129.802 E0.01690
G1 X131.198 Y143.630 E0.61639
G1 X131.735 Y143.630 E0.01690
G1 X117.370 Y129.265 E0.64028
G1 X117.370 Y128.729 E0.01690
G1 X132.271 Y143.630 E0.66418
G1 X132.630 Y143.630 E0.01133
G1 X132.630 Y143.454 E0.00556
G1 X117.370 Y128.193 E0.68020
G1 X117.370 Y127.657 E0.01690
G1 X132.630 Y142.918 E0.68020
G1 X132.630 Y142.381 E0.01690
G1 X117.370 Y127.121 E0.68020
G1 X117.370 Y126.585 E0.01690
G1 X132.630 Y141.845 E0.68020
G1 X132.630 Y141.309 E0.01690
G1 X117.370 Y126.049 E0.68020
G1 X117.370 Y125.513 E0.01690
G1 X132.630 Y140.773 E0.68020
G1 X132.630 Y140.237 E0.01690
G1 X117.370 Y124.977 E0.68020
G1 X117.370 Y124.441 E0.01690
G1 X132.630 Y139.701 E0.68020
G1 X132.630 Y139.165 E0.01690
G1 X117.370 Y123.905 E0.68020
M73 Q1 S140
G1 X117.370 Y123.369 E0.01690
G1 X132.630 Y138.629 E0.68020
G1 X132.630 Y138.093 E0.01690
G1 X117.370 Y122.833 E0.68020
G1 X117.370 Y122.297 E0.01690
G1 X132.630 Y137.557 E0.68020
G1 X132.630 Y137.021 E0.01690
G1 X117.370 Y121.761 E0.68020
M73 P1 R140
G1 X117.370 Y121.225 E0.01690
G1 X132.630 Y136.485 E0.68020
G1 X132.630 Y135.949 E0.01690
G1 X117.370 Y120.689 E0.68020
G1 X117.370 Y120.152 E0.01690
G1 X132.630 Y135.413 E0.68020
G1 X132.630 Y134.877 E0.01690
G1 X117.370 Y119.616 E0.68020
G1 X117.370 Y119.080 E0.01690
G1 X132.630 Y134.341 E0.68020
G1 X132.630 Y133.805 E0.01690
G1 X117.370 Y118.544 E0.68020
G1 X117.370 Y118.008 E0.01690
G1 X132.630 Y133.268 E0.68020
G1 X132.630 Y132.732 E0.01690
G1 X117.370 Y117.472 E0.68020
G1 X117.370 Y116.936 E0.01690
G1 X132.630 Y132.196 E0.68020
G1 X132.630 Y131.660 E0.01690
G1 X117.370 Y116.400 E0.68020
G1 X117.370 Y115.864 E0.01690
G1 X132.630 Y131.124 E0.68020
G1 X132.630 Y130.588 E0.01690
G1 X117.370 Y115.328 E0.68020
G1 X117.370 Y114.792 E0.01690
G1 X132.630 Y130.052 E0.68020
G1 X132.630 Y129.516 E0.01690
G1 X117.370 Y114.256 E0.68020
G1 X117.370 Y113.720 E0.01690
G1 X132.630 Y128.980 E0.68020
G1 X132.630 Y128.444 E0.01690
G1 X117.370 Y113.184 E0.68020
G1 X117.370 Y112.648 E0.01690
G1 X132.630 Y127.908 E0.68020
G1 X132.630 Y127.372 E0.01690
G1 X117.370 Y112.112 E0.68020
G1 X117.370 Y111.575 E0.01690
G1 X132.630 Y126.836 E0.68020
G1 X132.630 Y126.300 E0.01690
G1 X117.370 Y111.039 E0.68020
G1 X117.370 Y110.503 E0.01690
G1 X132.630 Y125.764 E0.68020
G1 X132.630 Y125.228 E0.01690
G1 X117.370 Y109.967 E0.68020
G1 X117.370 Y109.431 E0.01690
G1 X132.630 Y124.691 E0.68020
G1 X132.630 Y124.155 E0.01690
G1 X117.370 Y108.895 E0.68020
G1 X117.370 Y108.359 E0.01690
G1 X132.630 Y123.619 E0.68020
G1 X132.630 Y123.083 E0.01690
G1 X117.370 Y107.823 E0.68020
G1 X117.370 Y107.287 E0.01690
G1 X132.630 Y122.547 E0.68020
G1 X132.630 Y122.011 E0.01690
G1 X117.370 Y106.751 E0.68020
G1 X117.370 Y106.215 E0.01690
G1 X132.630 Y121.475 E0.68020
G1 X132.630 Y120.939 E0.01690
G1 X117.370 Y105.679 E0.68020
G1 X117.370 Y105.143 E0.01690
G1 X132.630 Y120.403 E0.68020
G1 X132.630 Y119.867 E0.01690
G1 X117.370 Y104.607 E0.68020
G1 X117.370 Y104.071 E0.01690
G1 X132.630 Y119.331 E0.68020
G1 X132.630 Y118.795 E0.01690
G1 X117.370 Y103.535 E0.68020
G1 X117.370 Y102.999 E0.01690
G1 X132.630 Y118.259 E0.68020
G1 X132.630 Y117.723 E0.01690
G1 X117.370 Y102.462 E0.68020
G1 X117.370 Y101.926 E0.01690
G1 X132.630 Y117.187 E0.68020
G1 X132.630 Y116.651 E0.01690
G1 X117.370 Y101.390 E0.68020
G1 X117.370 Y100.854 E0.01690
G1 X132.630 Y116.115 E0.68020
G1 X132.630 Y115.578 E0.01690
G1 X117.370 Y100.318 E0.68020
G1 X117.370 Y99.782 E0.01690
G1 X132.630 Y115.042 E0.68020
G1 X132.630 Y114.506 E0.01690
G1 X117.370 Y99.246 E0.68020
G1 X117.370 Y98.710 E0.01690
G1 X132.630 Y113.970 E0.68020
G1 X132.630 Y113.434 E0.01690
G1 X117.370 Y98.174 E0.68020
G1 X117.370 Y97.638 E0.01690
G1 X132.630 Y112.898 E0.68020
G1 X132.630 Y112.362 E0.01690
G1 X117.370 Y97.102 E0.68020
G1 X117.370 Y96.566 E0.01690
G1 X132.630 Y111.826 E0.68020
G1 X132.630 Y111.290 E0.01690
G1 X117.370 Y96.030 E0.68020
G1 X117.370 Y95.494 E0.01690
G1 X132.630 Y110.754 E0.68020
G1 X132.630 Y110.218 E0.01690
G1 X117.370 Y94.958 E0.68020
M73 Q2 S139
G1 X117.370 Y94.422 E0.01690
G1 X132.630 Y109.682 E0.68020
G1 X132.630 Y109.146 E0.01690
G1 X117.370 Y93.885 E0.68020
G1 X117.370 Y93.349 E0.01690
G1 X132.630 Y108.610 E0.68020
G1 X132.630 Y108.074 E0.01690
G1 X117.370 Y92.813 E0.68020
M73 P2 R139
G1 X117.370 Y92.277 E0.01690
G1 X132.630 Y107.538 E0.68020
G1 X132.630 Y107.001 E0.01690
G1 X117.370 Y91.741 E0.68020
G1 X117.370 Y91.205 E0.01690
G1 X132.630 Y106.465 E0.68020
G1 X132.630 Y105.929 E0.01690
G1 X117.370 Y90.669 E0.68020
G1 X117.370 Y90.133 E0.01690
G1 X132.630 Y105.393 E0.68020
G1 X132.630 Y104.857 E0.01690
G1 X117.370 Y89.597 E0.68020
G1 X117.370 Y89.061 E0.01690
G1 X132.630 Y104.321 E0.68020
G1 X132.630 Y103.785 E0.01690
G1 X117.370 Y88.525 E0.68020
G1 X117.370 Y87.989 E0.01690
G1 X132.630 Y103.249 E0.68020
G1 X132.630 Y102.713 E0.01690
G1 X117.370 Y87.453 E0.68020
G1 X117.370 Y86.917 E0.01690
G1 X132.630 Y102.177 E0.68020
G1 X132.630 Y101.641 E0.01690
G1 X117.370 Y86.381 E0.68020
G1 X117.370 Y85.845 E0.01690
G1 X132.630 Y101.105 E0.68020
G1 X132.630 Y100.569 E0.01690
G1 X117.370 Y85.309 E0.68020
G1 X117.370 Y84.772 E0.01690
G1 X132.630 Y100.033 E0.68020
G1 X132.630 Y99.497 E0.01690
G1 X117.370 Y84.236 E0.68020
G1 X117.370 Y83.700 E0.01690
G1 X132.630 Y98.961 E0.68020
G1 X132.630 Y98.425 E0.01690
G1 X117.370 Y83.164 E0.68020
G1 X117.370 Y82.628 E0.01690
G1 X132.630 Y97.888 E0.68020
G1 X132.630 Y97.352 E0.01690
G1 X117.370 Y82.092 E0.68020
G1 X117.370 Y81.556 E0.01690
G1 X132.630 Y96.816 E0.68020
G1 X132.630 Y96.280 E0.01690
G1 X117.370 Y81.020 E0.68020
G1 X117.370 Y80.484 E0.01690
G1 X132.630 Y95.744 E0.68020
G1 X132.630 Y95.208 E0.01690
G1 X117.370 Y79.948 E0.68020
G1 X117.370 Y79.412 E0.01690
G1 X132.630 Y94.672 E0.68020
G1 X132.630 Y94.136 E0.01690
G1 X117.370 Y78.876 E0.68020
G1 X117.370 Y78.340 E0.01690
G1 X132.630 Y93.600 E0.68020
G1 X132.630 Y93.064 E0.01690
G1 X117.370 Y77.804 E0.68020
G1 X117.370 Y77.268 E0.01690
G1 X132.630 Y92.528 E0.68020
G1 X132.630 Y91.992 E0.01690
G1 X117.370 Y76.732 E0.68020
G1 X117.370 Y76.195 E0.01690
G1 X132.630 Y91.456 E0.68020
G1 X132.630 Y90.920 E0.01690
G1 X117.370 Y75.659 E0.68020
G1 X117.370 Y75.123 E0.01690
G1 X132.630 Y90.384 E0.68020
G1 X132.630 Y89.848 E0.01690
G1 X117.370 Y74.587 E0.68020
G1 X117.370 Y74.051 E0.01690
G1 X132.630 Y89.311 E0.68020
G1 X132.630 Y88.775 E0.01690
G1 X117.370 Y73.515 E0.68020
G1 X117.370 Y72.979 E0.01690
G1 X132.630 Y88.239 E0.68020
G1 X132.630 Y87.703 E0.01690
G1 X117.370 Y72.443 E0.68020
G1 X117.370 Y71.907 E0.01690
G1 X132.630 Y87.167 E0.68020
G1 X132.630 Y86.631 E0.01690
G1 X117.370 Y71.371 E0.68020
G1 X117.370 Y70.835 E0.01690
G1 X132.630 Y86.095 E0.68020
G1 X132.630 Y85.559 E0.01690
G1 X117.370 Y70.299 E0.68020
G1 X117.370 Y69.763 E0.01690
G1 X132.630 Y85.023 E0.68020
G1 X132.630 Y84.487 E0.01690
G1 X117.370 Y69.227 E0.68020
G1 X117.370 Y68.691 E0.01690
G1 X132.630 Y83.951 E0.68020
G1 X132.630 Y83.415 E0.01690
G1 X117.370 Y68.155 E0.68020
G1 X117.370 Y67.619 E0.01690
G1 X132.630 Y82.879 E0.68020
G1 X132.630 Y82.343 E0.01690
G1 X117.370 Y67.082 E0.68020
G1 X117.370 Y66.546 E0.01690
G1 X132.630 Y81.807 E0.68020
G1 X132.630 Y81.271 E0.01690
G1 X117.729 Y66.370 E0.66418
M73 Q2 S138
G1 X118.265 Y66.370 E0.01690
G1 X132.630 Y80.735 E0.64028
G1 X132.630 Y80.198 E0.01690
G1 X118.802 Y66.370 E0.61639
G1 X119.338 Y66.370 E0.01690
G1 X132.630 Y79.662 E0.59250
G1 X132.630 Y79.126 E0.01690
G1 X119.874 Y66.370 E0.56860
G1 X120.410 Y66.370 E0.01690
G1 X132.630 Y78.590 E0.54471
M73 P2 R138
G1 X132.630 Y78.054 E0.01690
G1 X120.946 Y66.370 E0.52081
G1 X121.482 Y66.370 E0.01690
G1 X132.630 Y77.518 E0.49692
G1 X132.630 Y76.982 E0.01690
G1 X122.018 Y66.370 E0.47303
G1 X122.554 Y66.370 E0.01690
G1 X132.630 Y76.446 E0.44913
G1 X132.630 Y75.910 E0.01690
G1 X123.090 Y66.370 E0.42524
G1 X123.626 Y66.370 E0.01690
G1 X132.630 Y75.374 E0.40134
G1 X132.630 Y74.838 E0.01690
G1 X124.162 Y66.370 E0.37745
G1 X124.698 Y66.370 E0.01690
G1 X132.630 Y74.302 E0.35355
G1 X132.630 Y73.766 E0.01690
G1 X125.234 Y66.370 E0.32966
G1 X125.770 Y66.370 E0.01690
G1 X132.630 Y73.230 E0.30577
G1 X132.630 Y72.694 E0.01690
