;FLAVOR:Marlin
;TIME:6094
;Filament used: 8.10132m
;Layer height: 0.2
;MINX:-39.8
;MINY:-31.05
;MINZ:0.3
;MAXX:39.8
;MAXY:31.05
;MAXZ:19.9
;Generated with Cura_SteamEngine 4.6.2
M104 S210
M105
M109 S210
M82 ;absolute extrusion mode
G90
G1 F300 Z1
G1 F5000 X77 Y26
G1 F300 Z0.315
G92 E0
G1 F2520 X77 Y-45 E4
G1 F2520 X77.5 Y-45 E4.05
G1 F2520 X77.5 Y26 E8
G1 F5000 X77.25 Y26
G92 E0
G1 F2520 X77.25 Y-45 E4
G1 F2520 X77.75 Y-45 E4.05
G1 F2520 X77.75 Y26 E8
G1 F5000 X77 Y0
G1 F300 Z1
G1 X0 Y0 F5000
G92 E0
G92 E0
G92 E0
G1 F900 E-6.5
;LAYER_COUNT:99
;LAYER:0
M106 S255
;MESH:resource-tray.stl
G0 F2400 X-38.9 Y30.15 Z0.3
;TYPE:WALL-INNER
G1 F900 E0
G1 F1800 X-38.9 Y-30.15 E3.00838
G1 X38.9 Y-30.15 E6.88984
G1 X38.9 Y30.15 E9.89822
G1 X-38.9 Y30.15 E13.77967
G0 F2400 X-39.3 Y30.55
G1 F1800 X-39.3 Y-30.55 E16.82797
G1 X39.3 Y-30.55 E20.74934
G1 X39.3 Y30.55 E23.79763
G1 X-39.3 Y30.55 E27.719
G0 F2400 X-39.7 Y30.95
;TYPE:WALL-OUTER
G1 F1800 X-39.7 Y-30.95 E30.8072
G1 X39.7 Y-30.95 E34.76848
G1 X39.7 Y30.95 E37.85669
G1 X-39.7 Y30.95 E41.81797
G0 F2400 X-39.7 Y30.75
G0 X-39.23 Y30.48
G0 X-38.51 Y29.76
;TYPE:SKIN
G1 F1800 X-38.51 Y-29.76 E44.78743
G1 X38.51 Y-29.76 E48.62998
G1 X38.51 Y29.76 E51.59944
G1 X-38.51 Y29.76 E55.44198
G0 F2400 X-38.329 Y28.987
G1 F1800 X-37.736 Y29.579 E55.48379
G0 F2400 X-37.171 Y29.579
G1 F1800 X-38.329 Y28.421 E55.56549
G0 F2400 X-38.329 Y27.855
G1 F1800 X-36.605 Y29.579 E55.68713
G0 F2400 X-36.039 Y29.579
G1 F1800 X-38.329 Y27.29 E55.84867
G0 F2400 X-38.329 Y26.724
G1 F1800 X-35.474 Y29.579 E56.0501
G0 F2400 X-34.908 Y29.579
G1 F1800 X-38.329 Y26.158 E56.29147
G0 F2400 X-38.329 Y25.593
G1 F1800 X-34.342 Y29.579 E56.57274
G0 F2400 X-33.777 Y29.579
G1 F1800 X-38.329 Y25.027 E56.89391
G0 F2400 X-38.329 Y24.461
G1 F1800 X-33.211 Y29.579 E57.25501
G0 F2400 X-32.645 Y29.579
G1 F1800 X-38.329 Y23.895 E57.65605
G0 F2400 X-38.329 Y23.33
G1 F1800 X-32.08 Y29.579 E58.09695
G0 F2400 X-31.514 Y29.579
G1 F1800 X-38.329 Y22.764 E58.57778
G0 F2400 X-38.329 Y22.198
G1 F1800 X-30.948 Y29.579 E59.09855
G0 F2400 X-30.382 Y29.579
G1 F1800 X-38.329 Y21.633 E59.65922
G0 F2400 X-38.329 Y21.067
G1 F1800 X-29.817 Y29.579 E60.25979
G0 F2400 X-29.251 Y29.579
G1 F1800 X-38.329 Y20.501 E60.90029
G0 F2400 X-38.329 Y19.936
G1 F1800 X-28.685 Y29.579 E61.58069
G0 F2400 X-28.12 Y29.579
G1 F1800 X-38.329 Y19.37 E62.30099
G0 F2400 X-38.329 Y18.804
G1 F1800 X-27.554 Y29.579 E63.06123
G0 F2400 X-26.988 Y29.579
G1 F1800 X-38.329 Y18.239 E63.86136
G0 F2400 X-38.329 Y17.673
G1 F1800 X-26.423 Y29.579 E64.70139
G0 F2400 X-25.857 Y29.579
G1 F1800 X-38.329 Y17.107 E65.58136
G0 F2400 X-38.329 Y16.542
G1 F1800 X-25.291 Y29.579 E66.50123
G0 F2400 X-24.726 Y29.579
G1 F1800 X-38.329 Y15.976 E67.46099
G0 F2400 X-38.329 Y15.41
G1 F1800 X-24.16 Y29.579 E68.46069
G0 F2400 X-23.594 Y29.579
G1 F1800 X-38.329 Y14.844 E69.50032
G0 F2400 X-38.329 Y14.279
G1 F1800 X-23.029 Y29.579 E70.57982
G0 F2400 X-22.463 Y29.579
G1 F1800 X-38.329 Y13.713 E71.69925
G0 F2400 X-38.329 Y13.147
G1 F1800 X-21.897 Y29.579 E72.85862
G0 F2400 X-21.331 Y29.579
G1 F1800 X-38.329 Y12.582 E74.05789
G0 F2400 X-38.329 Y12.016
G1 F1800 X-20.766 Y29.579 E75.29705
G0 F2400 X-20.2 Y29.579
G1 F1800 X-38.329 Y11.45 E76.57615
G0 F2400 X-38.329 Y10.885
G1 F1800 X-19.634 Y29.579 E77.89515
G0 F2400 X-19.069 Y29.579
G1 F1800 X-38.329 Y10.319 E79.25404
G0 F2400 X-38.329 Y9.753
G1 F1800 X-18.503 Y29.579 E80.65288
G0 F2400 X-17.937 Y29.579
G1 F1800 X-38.329 Y9.188 E82.09161
G0 F2400 X-38.329 Y8.622
G1 F1800 X-17.372 Y29.579 E83.57024
G0 F2400 X-16.806 Y29.579
G1 F1800 X-38.329 Y8.056 E85.0888
G0 F2400 X-38.329 Y7.491
G1 F1800 X-16.24 Y29.579 E86.64726
G0 F2400 X-15.675 Y29.579
G1 F1800 X-38.329 Y6.925 E88.24562
G0 F2400 X-38.329 Y6.359
G1 F1800 X-15.109 Y29.579 E89.88392
G0 F2400 X-14.543 Y29.579
G1 F1800 X-38.329 Y5.794 E91.56212
G0 F2400 X-38.329 Y5.228
G1 F1800 X-13.978 Y29.579 E93.28021
G0 F2400 X-13.412 Y29.579
G1 F1800 X-38.329 Y4.662 E95.03824
G0 F2400 X-38.329 Y4.096
G1 F1800 X-12.846 Y29.579 E96.8362
G0 F2400 X-12.281 Y29.579
G1 F1800 X-38.329 Y3.531 E98.67403
G0 F2400 X-38.329 Y2.965
G1 F1800 X-11.715 Y29.579 E100.55179
G0 F2400 X-11.149 Y29.579
G1 F1800 X-38.329 Y2.399 E102.46949
G0 F2400 X-38.329 Y1.834
G1 F1800 X-10.583 Y29.579 E104.42708
G0 F2400 X-10.018 Y29.579
G1 F1800 X-38.329 Y1.268 E106.42458
G0 F2400 X-38.329 Y0.702
G1 F1800 X-9.452 Y29.579 E108.462
G0 F2400 X-8.886 Y29.579
G1 F1800 X-38.329 Y0.137 E110.53933
G0 F2400 X-38.329 Y-.428
G1 F1800 X-8.321 Y29.579 E112.65652
G0 F2400 X-7.755 Y29.579
G1 F1800 X-38.329 Y-.994 E114.81365
G0 F2400 X-38.329 Y-1.559
G1 F1800 X-7.189 Y29.579 E117.01067
G0 F2400 X-6.624 Y29.579
G1 F1800 X-38.329 Y-2.125 E119.2476
G0 F2400 X-38.329 Y-2.691
G1 F1800 X-6.058 Y29.579 E121.52446
G0 F2400 X-5.492 Y29.579
G1 F1800 X-38.329 Y-3.256 E123.84121
G0 F2400 X-38.329 Y-3.822
G1 F1800 X-4.927 Y29.579 E126.19787
G0 F2400 X-4.361 Y29.579
G1 F1800 X-38.329 Y-4.388 E128.59446
G0 F2400 X-38.329 Y-4.953
G1 F1800 X-3.795 Y29.579 E131.03095
G0 F2400 X-3.23 Y29.579
G1 F1800 X-38.329 Y-5.519 E133.50734
G0 F2400 X-38.329 Y-6.085
G1 F1800 X-2.664 Y29.579 E136.02366
G0 F2400 X-2.098 Y29.579
G1 F1800 X-38.329 Y-6.651 E138.57992
G0 F2400 X-38.329 Y-7.216
G1 F1800 X-1.533 Y29.579 E141.17604
G0 F2400 X-.967 Y29.579
G1 F1800 X-38.329 Y-7.782 E143.8121
G0 F2400 X-38.329 Y-8.348
G1 F1800 X-.401 Y29.579 E146.48809
G0 F2400 X0.164 Y29.579
G1 F1800 X-38.329 Y-8.913 E149.20394
G0 F2400 X-38.329 Y-9.479
G1 F1800 X0.729 Y29.579 E151.95969
G0 F2400 X1.295 Y29.579
G1 F1800 X-38.329 Y-10.045 E154.75538
G0 F2400 X-38.329 Y-10.61
G1 F1800 X1.861 Y29.579 E157.59097
G0 F2400 X2.426 Y29.579
G1 F1800 X-38.329 Y-11.176 E160.46645
G0 F2400 X-38.329 Y-11.742
G1 F1800 X2.992 Y29.579 E163.38187
G0 F2400 X3.558 Y29.579
G1 F1800 X-38.329 Y-12.307 E166.33719
G0 F2400 X-38.329 Y-12.873
G1 F1800 X4.123 Y29.579 E169.33241
G0 F2400 X4.689 Y29.579
G1 F1800 X-38.329 Y-13.439 E172.36756
G0 F2400 X-38.329 Y-14.004
G1 F1800 X5.255 Y29.579 E175.44261
G0 F2400 X5.82 Y29.579
G1 F1800 X-38.329 Y-14.57 E178.55756
G0 F2400 X-38.329 Y-15.136
G1 F1800 X6.386 Y29.579 E181.71245
G0 F2400 X6.952 Y29.579
G1 F1800 X-38.329 Y-15.702 E184.90726
G0 F2400 X-38.329 Y-16.267
G1 F1800 X7.517 Y29.579 E188.14195
G0 F2400 X8.083 Y29.579
G1 F1800 X-38.329 Y-16.833 E191.41657
G0 F2400 X-38.329 Y-17.399
G1 F1800 X8.649 Y29.579 E194.73112
G0 F2400 X9.215 Y29.579
G1 F1800 X-38.329 Y-17.964 E198.08557
G0 F2400 X-38.329 Y-18.53
G1 F1800 X9.78 Y29.579 E201.47992
G0 F2400 X10.346 Y29.579
G1 F1800 X-38.329 Y-19.096 E204.9142
G0 F2400 X-38.329 Y-19.661
G1 F1800 X10.912 Y29.579 E208.38838
G0 F2400 X11.477 Y29.579
G1 F1800 X-38.329 Y-20.227 E211.90247
G0 F2400 X-38.329 Y-20.793
G1 F1800 X12.043 Y29.579 E215.45648
G0 F2400 X12.609 Y29.579
G1 F1800 X-38.329 Y-21.358 E219.0504
G0 F2400 X-38.329 Y-21.924
G1 F1800 X13.174 Y29.579 E222.68421
G0 F2400 X13.74 Y29.579
G1 F1800 X-38.329 Y-22.49 E226.35796
G0 F2400 X-38.329 Y-23.055
G1 F1800 X14.306 Y29.579 E230.07161
G0 F2400 X14.871 Y29.579
G1 F1800 X-38.329 Y-23.621 E233.82516
G0 F2400 X-38.329 Y-24.187
G1 F1800 X15.437 Y29.579 E237.61864
G0 F2400 X16.003 Y29.579
G1 F1800 X-38.329 Y-24.752 E241.45202
G0 F2400 X-38.329 Y-25.318
G1 F1800 X16.568 Y29.579 E245.3253
G0 F2400 X17.134 Y29.579
G1 F1800 X-38.329 Y-25.884 E249.23852
G0 F2400 X-38.329 Y-26.45
G1 F1800 X17.7 Y29.579 E253.19166
G0 F2400 X18.265 Y29.579
G1 F1800 X-38.329 Y-27.015 E257.18468
G0 F2400 X-38.329 Y-27.581
G1 F1800 X18.831 Y29.579 E261.21762
G0 F2400 X19.397 Y29.579
G1 F1800 X-38.329 Y-28.147 E265.2905
G0 F2400 X-38.329 Y-28.712
G1 F1800 X19.963 Y29.579 E269.40328
G0 F2400 X20.528 Y29.579
G1 F1800 X-38.329 Y-29.278 E273.55596
G0 F2400 X-38.064 Y-29.579
G1 F1800 X21.094 Y29.579 E277.72988
G0 F2400 X21.66 Y29.579
G1 F1800 X-37.499 Y-29.579 E281.90383
G0 F2400 X-36.933 Y-29.579
G1 F1800 X22.225 Y29.579 E286.07775
G0 F2400 X22.791 Y29.579
G1 F1800 X-36.367 Y-29.579 E290.25166
G0 F2400 X-35.802 Y-29.579
G1 F1800 X23.357 Y29.579 E294.42562
G0 F2400 X23.922 Y29.579
G1 F1800 X-35.236 Y-29.579 E298.59953
G0 F2400 X-34.67 Y-29.579
G1 F1800 X24.488 Y29.579 E302.77345
G0 F2400 X25.054 Y29.579
G1 F1800 X-34.105 Y-29.579 E306.9474
G0 F2400 X-33.539 Y-29.579
G1 F1800 X25.619 Y29.579 E311.12132
G0 F2400 X26.185 Y29.579
G1 F1800 X-32.973 Y-29.579 E315.29523
G0 F2400 X-32.408 Y-29.579
G1 F1800 X26.751 Y29.579 E319.46919
G0 F2400 X27.316 Y29.579
G1 F1800 X-31.842 Y-29.579 E323.6431
G0 F2400 X-31.276 Y-29.579
G1 F1800 X27.882 Y29.579 E327.81702
G0 F2400 X28.448 Y29.579
G1 F1800 X-30.711 Y-29.579 E331.99097
G0 F2400 X-30.145 Y-29.579
G1 F1800 X29.014 Y29.579 E336.16492
G0 F2400 X29.579 Y29.579
G1 F1800 X-29.579 Y-29.579 E340.33884
G0 F2400 X-29.014 Y-29.579
G1 F1800 X30.145 Y29.579 E344.51279
G0 F2400 X30.711 Y29.579
G1 F1800 X-28.448 Y-29.579 E348.68674
G0 F2400 X-27.882 Y-29.579
G1 F1800 X31.276 Y29.579 E352.86066
G0 F2400 X31.842 Y29.579
G1 F1800 X-27.316 Y-29.579 E357.03457
G0 F2400 X-26.751 Y-29.579
G1 F1800 X32.408 Y29.579 E361.20853
G0 F2400 X32.973 Y29.579
G1 F1800 X-26.185 Y-29.579 E365.38244
G0 F2400 X-25.619 Y-29.579
G1 F1800 X33.539 Y29.579 E369.55636
G0 F2400 X34.105 Y29.579
G1 F1800 X-25.054 Y-29.579 E373.73031
G0 F2400 X-24.488 Y-29.579
G1 F1800 X34.67 Y29.579 E377.90423
G0 F2400 X35.236 Y29.579
G1 F1800 X-23.922 Y-29.579 E382.07814
G0 F2400 X-23.357 Y-29.579
G1 F1800 X35.802 Y29.579 E386.25209
G0 F2400 X36.367 Y29.579
G1 F1800 X-22.791 Y-29.579 E390.42601
G0 F2400 X-22.225 Y-29.579
G1 F1800 X36.933 Y29.579 E394.59993
G0 F2400 X37.499 Y29.579
G1 F1800 X-21.66 Y-29.579 E398.77388
G0 F2400 X-21.094 Y-29.579
G1 F1800 X38.064 Y29.579 E402.9478
G0 F2400 X38.329 Y29.278
G1 F1800 X-20.528 Y-29.579 E407.10048
G0 F2400 X-19.963 Y-29.579
G1 F1800 X38.329 Y28.712 E411.21326
G0 F2400 X38.329 Y28.147
G1 F1800 X-19.397 Y-29.579 E415.28614
G0 F2400 X-18.831 Y-29.579
G1 F1800 X38.329 Y27.581 E419.31908
G0 F2400 X38.329 Y27.015
G1 F1800 X-18.265 Y-29.579 E423.3121
G0 F2400 X-17.7 Y-29.579
G1 F1800 X38.329 Y26.45 E427.26524
G0 F2400 X38.329 Y25.884
G1 F1800 X-17.134 Y-29.579 E431.17846
G0 F2400 X-16.568 Y-29.579
G1 F1800 X38.329 Y25.318 E435.05174
G0 F2400 X38.329 Y24.752
G1 F1800 X-16.003 Y-29.579 E438.88512
G0 F2400 X-15.437 Y-29.579
G1 F1800 X38.329 Y24.187 E442.6786
G0 F2400 X38.329 Y23.621
G1 F1800 X-14.871 Y-29.579 E446.43215
G0 F2400 X-14.306 Y-29.579
G1 F1800 X38.329 Y23.055 E450.1458
G0 F2400 X38.329 Y22.49
G1 F1800 X-13.74 Y-29.579 E453.81955
G0 F2400 X-13.174 Y-29.579
G1 F1800 X38.329 Y21.924 E457.45336
G0 F2400 X38.329 Y21.358
G1 F1800 X-12.609 Y-29.579 E461.04728
G0 F2400 X-12.043 Y-29.579
G1 F1800 X38.329 Y20.793 E464.60129
G0 F2400 X38.329 Y20.227
G1 F1800 X-11.477 Y-29.579 E468.11537
G0 F2400 X-10.912 Y-29.579
G1 F1800 X38.329 Y19.661 E471.58956
G0 F2400 X38.329 Y19.096
G1 F1800 X-10.346 Y-29.579 E475.02384
G0 F2400 X-9.78 Y-29.579
G1 F1800 X38.329 Y18.53 E478.41819
G0 F2400 X38.329 Y17.964
G1 F1800 X-9.215 Y-29.579 E481.77264
G0 F2400 X-8.649 Y-29.579
G1 F1800 X38.329 Y17.399 E485.08719
G0 F2400 X38.329 Y16.833
G1 F1800 X-8.083 Y-29.579 E488.36181
G0 F2400 X-7.517 Y-29.579
G1 F1800 X38.329 Y16.267 E491.59649
G0 F2400 X38.329 Y15.702
G1 F1800 X-6.952 Y-29.579 E494.79131
G0 F2400 X-6.386 Y-29.579
G1 F1800 X38.329 Y15.136 E497.9462
G0 F2400 X38.329 Y14.57
G1 F1800 X-5.82 Y-29.579 E501.06115
G0 F2400 X-5.255 Y-29.579
G1 F1800 X38.329 Y14.004 E504.1362
G0 F2400 X38.329 Y13.439
G1 F1800 X-4.689 Y-29.579 E507.17135
G0 F2400 X-4.123 Y-29.579
G1 F1800 X38.329 Y12.873 E510.16657
G0 F2400 X38.329 Y12.307
G1 F1800 X-3.558 Y-29.579 E513.12189
G0 F2400 X-2.992 Y-29.579
G1 F1800 X38.329 Y11.742 E516.03731
G0 F2400 X38.329 Y11.176
G1 F1800 X-2.426 Y-29.579 E518.91279
G0 F2400 X-1.861 Y-29.579
G1 F1800 X38.329 Y10.61 E521.74838
G0 F2400 X38.329 Y10.045
G1 F1800 X-1.295 Y-29.579 E524.54407
G0 F2400 X-.729 Y-29.579
G1 F1800 X38.329 Y9.479 E527.29982
G0 F2400 X38.329 Y8.913
G1 F1800 X-.164 Y-29.579 E530.01567
G0 F2400 X0.401 Y-29.579
G1 F1800 X38.329 Y8.348 E532.69166
G0 F2400 X38.329 Y7.782
G1 F1800 X0.967 Y-29.579 E535.32772
G0 F2400 X1.533 Y-29.579
G1 F1800 X38.329 Y7.216 E537.92384
G0 F2400 X38.329 Y6.651
G1 F1800 X2.098 Y-29.579 E540.4801
G0 F2400 X2.664 Y-29.579
G1 F1800 X38.329 Y6.085 E542.99642
G0 F2400 X38.329 Y5.519
G1 F1800 X3.23 Y-29.579 E545.47281
G0 F2400 X3.795 Y-29.579
G1 F1800 X38.329 Y4.953 E547.9093
G0 F2400 X38.329 Y4.388
G1 F1800 X4.361 Y-29.579 E550.30589
G0 F2400 X4.927 Y-29.579
G1 F1800 X38.329 Y3.822 E552.66255
G0 F2400 X38.329 Y3.256
G1 F1800 X5.492 Y-29.579 E554.9793
G0 F2400 X6.058 Y-29.579
G1 F1800 X38.329 Y2.691 E557.25616
G0 F2400 X38.329 Y2.125
G1 F1800 X6.624 Y-29.579 E559.49309
G0 F2400 X7.189 Y-29.579
G1 F1800 X38.329 Y1.559 E561.69011
G0 F2400 X38.329 Y0.994
G1 F1800 X7.755 Y-29.579 E563.84724
G0 F2400 X8.321 Y-29.579
G1 F1800 X38.329 Y0.428 E565.96443
G0 F2400 X38.329 Y-.137
G1 F1800 X8.886 Y-29.579 E568.04175
G0 F2400 X9.452 Y-29.579
G1 F1800 X38.329 Y-.702 E570.07918
G0 F2400 X38.329 Y-1.268
G1 F1800 X10.018 Y-29.579 E572.07668
G0 F2400 X10.583 Y-29.579
G1 F1800 X38.329 Y-1.834 E574.03427
G0 F2400 X38.329 Y-2.399
G1 F1800 X11.149 Y-29.579 E575.95197
G0 F2400 X11.715 Y-29.579
G1 F1800 X38.329 Y-2.965 E577.82973
G0 F2400 X38.329 Y-3.531
G1 F1800 X12.281 Y-29.579 E579.66756
G0 F2400 X12.846 Y-29.579
G1 F1800 X38.329 Y-4.096 E581.46552
G0 F2400 X38.329 Y-4.662
G1 F1800 X13.412 Y-29.579 E583.22355
G0 F2400 X13.978 Y-29.579
G1 F1800 X38.329 Y-5.228 E584.94164
G0 F2400 X38.329 Y-5.794
G1 F1800 X14.543 Y-29.579 E586.61984
G0 F2400 X15.109 Y-29.579
G1 F1800 X38.329 Y-6.359 E588.25813
G0 F2400 X38.329 Y-6.925
G1 F1800 X15.675 Y-29.579 E589.8565
G0 F2400 X16.24 Y-29.579
G1 F1800 X38.329 Y-7.491 E591.41496
G0 F2400 X38.329 Y-8.056
G1 F1800 X16.806 Y-29.579 E592.93352
G0 F2400 X17.372 Y-29.579
G1 F1800 X38.329 Y-8.622 E594.41215
G0 F2400 X38.329 Y-9.188
G1 F1800 X17.937 Y-29.579 E595.85088
G0 F2400 X18.503 Y-29.579
G1 F1800 X38.329 Y-9.753 E597.24972
G0 F2400 X38.329 Y-10.319
G1 F1800 X19.069 Y-29.579 E598.60861
G0 F2400 X19.634 Y-29.579
G1 F1800 X38.329 Y-10.885 E599.92761
G0 F2400 X38.329 Y-11.45
G1 F1800 X20.2 Y-29.579 E601.20671
G0 F2400 X20.766 Y-29.579
G1 F1800 X38.329 Y-12.016 E602.44587
G0 F2400 X38.329 Y-12.582
G1 F1800 X21.331 Y-29.579 E603.64514
G0 F2400 X21.897 Y-29.579
G1 F1800 X38.329 Y-13.147 E604.80451
G0 F2400 X38.329 Y-13.713
G1 F1800 X22.463 Y-29.579 E605.92394
G0 F2400 X23.029 Y-29.579
G1 F1800 X38.329 Y-14.279 E607.00343
G0 F2400 X38.329 Y-14.844
G1 F1800 X23.594 Y-29.579 E608.04307
G0 F2400 X24.16 Y-29.579
G1 F1800 X38.329 Y-15.41 E609.04277
G0 F2400 X38.329 Y-15.976
G1 F1800 X24.726 Y-29.579 E610.00253
G0 F2400 X25.291 Y-29.579
G1 F1800 X38.329 Y-16.542 E610.9224
G0 F2400 X38.329 Y-17.107
G1 F1800 X25.857 Y-29.579 E611.80237
G0 F2400 X26.423 Y-29.579
G1 F1800 X38.329 Y-17.673 E612.6424
G0 F2400 X38.329 Y-18.239
G1 F1800 X26.988 Y-29.579 E613.44253
G0 F2400 X27.554 Y-29.579
G1 F1800 X38.329 Y-18.804 E614.20277
G0 F2400 X38.329 Y-19.37
G1 F1800 X28.12 Y-29.579 E614.92307
G0 F2400 X28.685 Y-29.579
G1 F1800 X38.329 Y-19.936 E615.60347
G0 F2400 X38.329 Y-20.501
G1 F1800 X29.251 Y-29.579 E616.24397
G0 F2400 X29.817 Y-29.579
G1 F1800 X38.329 Y-21.067 E616.84454
G0 F2400 X38.329 Y-21.633
G1 F1800 X30.382 Y-29.579 E617.40521
G0 F2400 X30.948 Y-29.579
G1 F1800 X38.329 Y-22.198 E617.92598
G0 F2400 X38.329 Y-22.764
G1 F1800 X31.514 Y-29.579 E618.40681
G0 F2400 X32.08 Y-29.579
G1 F1800 X38.329 Y-23.33 E618.84771
G0 F2400 X38.329 Y-23.895
G1 F1800 X32.645 Y-29.579 E619.24875
G0 F2400 X33.211 Y-29.579
G1 F1800 X38.329 Y-24.461 E619.60985
G0 F2400 X38.329 Y-25.027
G1 F1800 X33.777 Y-29.579 E619.93102
G0 F2400 X34.342 Y-29.579
G1 F1800 X38.329 Y-25.593 E620.21229
G0 F2400 X38.329 Y-26.158
G1 F1800 X34.908 Y-29.579 E620.45366
G0 F2400 X35.474 Y-29.579
G1 F1800 X38.329 Y-26.724 E620.65509
G0 F2400 X38.329 Y-27.29
G1 F1800 X36.039 Y-29.579 E620.81663
G0 F2400 X36.605 Y-29.579
G1 F1800 X38.329 Y-27.855 E620.93827
G0 F2400 X38.329 Y-28.421
G1 F1800 X37.171 Y-29.579 E621.01997
G0 F2400 X37.736 Y-29.579
