;FLAVOR:Marlin
;TIME:17223
;Filament used: 23.0987m
;Layer height: 0.2
;MINX:-66.8
;MINY:-44.3
;MINZ:0.3
;MAXX:66.8
;MAXY:44.3
;MAXZ:44.9
;Generated with Cura_SteamEngine 4.6.2
M104 S200
M105
M109 S200
M82 ;absolute extrusion mode
G90
G1 F300 Z1
G1 F5000 X77 Y26
G1 F300 Z0.315
G92 E0
G1 F2520 X77 Y-45 E4
G1 F2520 X77.5 Y-45 E4.05
G1 F2520 X77.5 Y26 E8
G1 F5000 X77.25 Y26
G92 E0
G1 F2520 X77.25 Y-45 E4
G1 F2520 X77.75 Y-45 E4.05
G1 F2520 X77.75 Y26 E8
G1 F5000 X77 Y0
G1 F300 Z1
G1 X0 Y0 F5000
G92 E0
G92 E0
G92 E0
G1 F900 E-6.5
;LAYER_COUNT:224
;LAYER:0
M106 S255
;MESH:tray.stl
G0 F2400 X-66 Y43.5 Z0.3
;TYPE:WALL-INNER
G1 F900 E0
G1 F1800 X-66 Y-43.5 E4.34045
G1 X66 Y-43.5 E10.92595
G1 X66 Y43.5 E15.2664
G1 X-66 Y43.5 E21.85191
G0 F2400 X-66.4 Y43.9
G1 F1800 X-66.4 Y-43.9 E26.23227
G1 X66.4 Y-43.9 E32.85769
G1 X66.4 Y43.9 E37.23805
G1 X-66.4 Y43.9 E43.86347
G0 F2400 X-66.8 Y44.3
;TYPE:WALL-OUTER
G1 F1800 X-66.8 Y-44.3 E48.28374
G1 X66.8 Y-44.3 E54.94907
G1 X66.8 Y44.3 E59.36934
G1 X-66.8 Y44.3 E66.03467
G0 F2400 X-66.8 Y44.1
G0 X-66.33 Y43.83
G0 X-65.61 Y43.11
;TYPE:SKIN
G1 F1800 X-65.61 Y-43.11 E70.33621
G1 X65.61 Y-43.11 E76.8828
G1 X65.61 Y43.11 E81.18433
G1 X-65.61 Y43.11 E87.73092
G0 F2400 X-65.429 Y42.616
G1 F1800 X-65.115 Y42.93 E87.75308
G0 F2400 X-64.549 Y42.93
G1 F1800 X-65.429 Y42.05 E87.81517
G0 F2400 X-65.429 Y41.485
G1 F1800 X-63.983 Y42.93 E87.91715
G0 F2400 X-63.418 Y42.93
G1 F1800 X-65.429 Y40.919 E88.05904
G0 F2400 X-65.429 Y40.353
G1 F1800 X-62.852 Y42.93 E88.24086
G0 F2400 X-62.286 Y42.93
G1 F1800 X-65.429 Y39.788 E88.46258
G0 F2400 X-65.429 Y39.222
G1 F1800 X-61.721 Y42.93 E88.7242
G0 F2400 X-61.155 Y42.93
G1 F1800 X-65.429 Y38.656 E89.02576
G0 F2400 X-65.429 Y38.091
G1 F1800 X-60.589 Y42.93 E89.36721
G0 F2400 X-60.024 Y42.93
G1 F1800 X-65.429 Y37.525 E89.74856
G0 F2400 X-65.429 Y36.959
G1 F1800 X-59.458 Y42.93 E90.16985
G0 F2400 X-58.892 Y42.93
G1 F1800 X-65.429 Y36.394 E90.63103
G0 F2400 X-65.429 Y35.828
G1 F1800 X-58.327 Y42.93 E91.13212
G0 F2400 X-57.761 Y42.93
G1 F1800 X-65.429 Y35.262 E91.67314
G0 F2400 X-65.429 Y34.697
G1 F1800 X-57.195 Y42.93 E92.25405
G0 F2400 X-56.63 Y42.93
G1 F1800 X-65.429 Y34.131 E92.87487
G0 F2400 X-65.429 Y33.565
G1 F1800 X-56.064 Y42.93 E93.53562
G0 F2400 X-55.498 Y42.93
G1 F1800 X-65.429 Y32.999 E94.23631
G0 F2400 X-65.429 Y32.434
G1 F1800 X-54.933 Y42.93 E94.97686
G0 F2400 X-54.367 Y42.93
G1 F1800 X-65.429 Y31.868 E95.75734
G0 F2400 X-65.429 Y31.302
G1 F1800 X-53.801 Y42.93 E96.57776
G0 F2400 X-53.235 Y42.93
G1 F1800 X-65.429 Y30.737 E97.43808
G0 F2400 X-65.429 Y30.171
G1 F1800 X-52.67 Y42.93 E98.33829
G0 F2400 X-52.104 Y42.93
G1 F1800 X-65.429 Y29.605 E99.27844
G0 F2400 X-65.429 Y29.04
G1 F1800 X-51.538 Y42.93 E100.25849
G0 F2400 X-50.973 Y42.93
G1 F1800 X-65.429 Y28.474 E101.27844
G0 F2400 X-65.429 Y27.908
G1 F1800 X-50.407 Y42.93 E102.33833
G0 F2400 X-49.841 Y42.93
G1 F1800 X-65.429 Y27.343 E103.43811
G0 F2400 X-65.429 Y26.777
G1 F1800 X-49.276 Y42.93 E104.57779
G0 F2400 X-48.71 Y42.93
G1 F1800 X-65.429 Y26.211 E105.75741
G0 F2400 X-65.429 Y25.646
G1 F1800 X-48.144 Y42.93 E106.97692
G0 F2400 X-47.579 Y42.93
G1 F1800 X-65.429 Y25.08 E108.23633
G0 F2400 X-65.429 Y24.514
G1 F1800 X-47.013 Y42.93 E109.53568
G0 F2400 X-46.447 Y42.93
G1 F1800 X-65.429 Y23.948 E110.87496
G0 F2400 X-65.429 Y23.383
G1 F1800 X-45.882 Y42.93 E112.25411
G0 F2400 X-45.316 Y42.93
G1 F1800 X-65.429 Y22.817 E113.67319
G0 F2400 X-65.429 Y22.251
G1 F1800 X-44.75 Y42.93 E115.13221
G0 F2400 X-44.184 Y42.93
G1 F1800 X-65.429 Y21.686 E116.63112
G0 F2400 X-65.429 Y21.12
G1 F1800 X-43.619 Y42.93 E118.16993
G0 F2400 X-43.053 Y42.93
G1 F1800 X-65.429 Y20.554 E119.74868
G0 F2400 X-65.429 Y19.989
G1 F1800 X-42.487 Y42.93 E121.36733
G0 F2400 X-41.922 Y42.93
G1 F1800 X-65.429 Y19.423 E123.02587
G0 F2400 X-65.429 Y18.857
G1 F1800 X-41.356 Y42.93 E124.72435
G0 F2400 X-40.79 Y42.93
G1 F1800 X-65.429 Y18.292 E126.46273
G0 F2400 X-65.429 Y17.726
G1 F1800 X-40.225 Y42.93 E128.24101
G0 F2400 X-39.659 Y42.93
G1 F1800 X-65.429 Y17.16 E130.05923
G0 F2400 X-65.429 Y16.595
G1 F1800 X-39.093 Y42.93 E131.91734
G0 F2400 X-38.528 Y42.93
G1 F1800 X-65.429 Y16.029 E133.81535
G0 F2400 X-65.429 Y15.463
G1 F1800 X-37.962 Y42.93 E135.75329
G0 F2400 X-37.396 Y42.93
G1 F1800 X-65.429 Y14.898 E137.73114
G0 F2400 X-65.429 Y14.332
G1 F1800 X-36.831 Y42.93 E139.74888
G0 F2400 X-36.265 Y42.93
G1 F1800 X-65.429 Y13.766 E141.80656
G0 F2400 X-65.429 Y13.2
G1 F1800 X-35.699 Y42.93 E143.90417
G0 F2400 X-35.134 Y42.93
G1 F1800 X-65.429 Y12.635 E146.04165
G0 F2400 X-65.429 Y12.069
G1 F1800 X-34.568 Y42.93 E148.21906
G0 F2400 X-34.002 Y42.93
G1 F1800 X-65.429 Y11.503 E150.4364
G0 F2400 X-65.429 Y10.938
G1 F1800 X-33.436 Y42.93 E152.69364
G0 F2400 X-32.871 Y42.93
G1 F1800 X-65.429 Y10.372 E154.99079
G0 F2400 X-65.429 Y9.806
G1 F1800 X-32.305 Y42.93 E157.32786
G0 F2400 X-31.739 Y42.93
G1 F1800 X-65.429 Y9.241 E159.70484
G0 F2400 X-65.429 Y8.675
G1 F1800 X-31.174 Y42.93 E162.12172
G0 F2400 X-30.608 Y42.93
G1 F1800 X-65.429 Y8.109 E164.57853
G0 F2400 X-65.429 Y7.544
G1 F1800 X-30.042 Y42.93 E167.07523
G0 F2400 X-29.477 Y42.93
G1 F1800 X-65.429 Y6.978 E169.61184
G0 F2400 X-65.429 Y6.412
G1 F1800 X-28.911 Y42.93 E172.18838
G0 F2400 X-28.345 Y42.93
G1 F1800 X-65.429 Y5.847 E174.80483
G0 F2400 X-65.429 Y5.281
G1 F1800 X-27.78 Y42.93 E177.46117
G0 F2400 X-27.214 Y42.93
G1 F1800 X-65.429 Y4.715 E180.15744
G0 F2400 X-65.429 Y4.15
G1 F1800 X-26.648 Y42.93 E182.89361
G0 F2400 X-26.083 Y42.93
G1 F1800 X-65.429 Y3.584 E185.66969
G0 F2400 X-65.429 Y3.018
G1 F1800 X-25.517 Y42.93 E188.48569
G0 F2400 X-24.951 Y42.93
G1 F1800 X-65.429 Y2.452 E191.34164
G0 F2400 X-65.429 Y1.887
G1 F1800 X-24.385 Y42.93 E194.23748
G0 F2400 X-23.82 Y42.93
G1 F1800 X-65.429 Y1.321 E197.17322
G0 F2400 X-65.429 Y0.755
G1 F1800 X-23.254 Y42.93 E200.14889
G0 F2400 X-22.688 Y42.93
G1 F1800 X-65.429 Y0.19 E203.16446
G0 F2400 X-65.429 Y-.375
G1 F1800 X-22.123 Y42.93 E206.2199
G0 F2400 X-21.557 Y42.93
G1 F1800 X-65.429 Y-.941 E209.31527
G0 F2400 X-65.429 Y-1.506
G1 F1800 X-20.991 Y42.93 E212.45054
G0 F2400 X-20.426 Y42.93
G1 F1800 X-65.429 Y-2.072 E215.62571
G0 F2400 X-65.429 Y-2.638
G1 F1800 X-19.86 Y42.93 E218.84082
G0 F2400 X-19.294 Y42.93
G1 F1800 X-65.429 Y-3.203 E222.09582
G0 F2400 X-65.429 Y-3.769
G1 F1800 X-18.729 Y42.93 E225.39072
G0 F2400 X-18.163 Y42.93
G1 F1800 X-65.429 Y-4.335 E228.72556
G0 F2400 X-65.429 Y-4.9
G1 F1800 X-17.597 Y42.93 E232.10029
G0 F2400 X-17.032 Y42.93
G1 F1800 X-65.429 Y-5.466 E235.51493
G0 F2400 X-65.429 Y-6.032
G1 F1800 X-16.466 Y42.93 E238.96949
G0 F2400 X-15.9 Y42.93
G1 F1800 X-65.429 Y-6.598 E242.464
G0 F2400 X-65.429 Y-7.163
G1 F1800 X-15.335 Y42.93 E245.99837
G0 F2400 X-14.769 Y42.93
G1 F1800 X-65.429 Y-7.729 E249.57267
G0 F2400 X-65.429 Y-8.295
G1 F1800 X-14.203 Y42.93 E253.1869
G0 F2400 X-13.637 Y42.93
G1 F1800 X-65.429 Y-8.86 E256.84104
G0 F2400 X-65.429 Y-9.426
G1 F1800 X-13.072 Y42.93 E260.53507
G0 F2400 X-12.506 Y42.93
G1 F1800 X-65.429 Y-9.992 E264.26904
G0 F2400 X-65.429 Y-10.557
G1 F1800 X-11.94 Y42.93 E268.04291
G0 F2400 X-11.375 Y42.93
G1 F1800 X-65.429 Y-11.123 E271.85667
G0 F2400 X-65.429 Y-11.689
G1 F1800 X-10.809 Y42.93 E275.71037
G0 F2400 X-10.243 Y42.93
G1 F1800 X-65.429 Y-12.254 E279.60397
G0 F2400 X-65.429 Y-12.82
G1 F1800 X-9.678 Y42.93 E283.53747
G0 F2400 X-9.112 Y42.93
G1 F1800 X-65.429 Y-13.386 E287.51091
G0 F2400 X-65.429 Y-13.951
G1 F1800 X-8.546 Y42.93 E291.52424
G0 F2400 X-7.981 Y42.93
G1 F1800 X-65.429 Y-14.517 E295.57747
G0 F2400 X-65.429 Y-15.083
G1 F1800 X-7.415 Y42.93 E299.67063
G0 F2400 X-6.849 Y42.93
G1 F1800 X-65.429 Y-15.648 E303.8037
G0 F2400 X-65.429 Y-16.214
G1 F1800 X-6.284 Y42.93 E307.97666
G0 F2400 X-5.718 Y42.93
G1 F1800 X-65.429 Y-16.78 E312.18956
G0 F2400 X-65.429 Y-17.346
G1 F1800 X-5.152 Y42.93 E316.44239
G0 F2400 X-4.587 Y42.93
G1 F1800 X-65.429 Y-17.911 E320.73509
G0 F2400 X-65.429 Y-18.477
G1 F1800 X-4.021 Y42.93 E325.06772
G0 F2400 X-3.455 Y42.93
G1 F1800 X-65.429 Y-19.043 E329.44029
G0 F2400 X-65.429 Y-19.608
G1 F1800 X-2.889 Y42.93 E333.85275
G0 F2400 X-2.324 Y42.93
G1 F1800 X-65.429 Y-20.174 E338.30511
G0 F2400 X-65.429 Y-20.74
G1 F1800 X-1.758 Y42.93 E342.79741
G0 F2400 X-1.192 Y42.93
G1 F1800 X-65.429 Y-21.305 E347.32961
G0 F2400 X-65.429 Y-21.871
G1 F1800 X-.627 Y42.93 E351.9017
G0 F2400 X-0.061 Y42.93
G1 F1800 X-65.429 Y-22.437 E356.51373
G0 F2400 X-65.429 Y-23.002
G1 F1800 X0.504 Y42.93 E361.16563
G0 F2400 X1.069 Y42.93
G1 F1800 X-65.429 Y-23.568 E365.85742
G0 F2400 X-65.429 Y-24.134
G1 F1800 X1.635 Y42.93 E370.58915
G0 F2400 X2.201 Y42.93
G1 F1800 X-65.429 Y-24.699 E375.36078
G0 F2400 X-65.429 Y-25.265
G1 F1800 X2.766 Y42.93 E380.1723
G0 F2400 X3.332 Y42.93
G1 F1800 X-65.429 Y-25.831 E385.02376
G0 F2400 X-65.429 Y-26.397
G1 F1800 X3.898 Y42.93 E389.91516
G0 F2400 X4.463 Y42.93
G1 F1800 X-65.429 Y-26.962 E394.84641
G0 F2400 X-65.429 Y-27.528
G1 F1800 X5.029 Y42.93 E399.81761
G0 F2400 X5.595 Y42.93
G1 F1800 X-65.429 Y-28.094 E404.82873
G0 F2400 X-65.429 Y-28.659
G1 F1800 X6.161 Y42.93 E409.87976
G0 F2400 X6.726 Y42.93
G1 F1800 X-65.429 Y-29.225 E414.97068
G0 F2400 X-65.429 Y-29.791
G1 F1800 X7.292 Y42.93 E420.10154
G0 F2400 X7.858 Y42.93
G1 F1800 X-65.429 Y-30.356 E425.2723
G0 F2400 X-65.429 Y-30.922
G1 F1800 X8.423 Y42.93 E430.48296
G0 F2400 X8.989 Y42.93
G1 F1800 X-65.429 Y-31.488 E435.73355
G0 F2400 X-65.429 Y-32.053
G1 F1800 X9.555 Y42.93 E441.02404
G0 F2400 X10.12 Y42.93
G1 F1800 X-65.429 Y-32.619 E446.35443
G0 F2400 X-65.429 Y-33.185
G1 F1800 X10.686 Y42.93 E451.72476
G0 F2400 X11.252 Y42.93
G1 F1800 X-65.429 Y-33.75 E457.13498
G0 F2400 X-65.429 Y-34.316
G1 F1800 X11.817 Y42.93 E462.5851
G0 F2400 X12.383 Y42.93
G1 F1800 X-65.429 Y-34.882 E468.07516
G0 F2400 X-65.429 Y-35.447
G1 F1800 X12.949 Y42.93 E473.60511
G0 F2400 X13.514 Y42.93
G1 F1800 X-65.429 Y-36.013 E479.17497
G0 F2400 X-65.429 Y-36.579
G1 F1800 X14.08 Y42.93 E484.78476
G0 F2400 X14.646 Y42.93
G1 F1800 X-65.429 Y-37.145 E490.43448
G0 F2400 X-65.429 Y-37.71
G1 F1800 X15.211 Y42.93 E496.12407
G0 F2400 X15.777 Y42.93
G1 F1800 X-65.429 Y-38.276 E501.85359
G0 F2400 X-65.429 Y-38.842
G1 F1800 X16.343 Y42.93 E507.62305
G0 F2400 X16.909 Y42.93
G1 F1800 X-65.429 Y-39.407 E513.4324
G0 F2400 X-65.429 Y-39.973
G1 F1800 X17.474 Y42.93 E519.28166
G0 F2400 X18.04 Y42.93
G1 F1800 X-65.429 Y-40.539 E525.17085
G0 F2400 X-65.429 Y-41.104
G1 F1800 X18.606 Y42.93 E531.09994
G0 F2400 X19.171 Y42.93
G1 F1800 X-65.429 Y-41.67 E537.06892
G0 F2400 X-65.429 Y-42.236
G1 F1800 X19.737 Y42.93 E543.07784
G0 F2400 X20.303 Y42.93
G1 F1800 X-65.429 Y-42.801 E549.12666
G0 F2400 X-64.992 Y-42.93
G1 F1800 X20.868 Y42.93 E555.18455
G0 F2400 X21.434 Y42.93
G1 F1800 X-64.426 Y-42.93 E561.24244
G0 F2400 X-63.86 Y-42.93
G1 F1800 X22 Y42.93 E567.30032
G0 F2400 X22.565 Y42.93
G1 F1800 X-63.295 Y-42.93 E573.35821
G0 F2400 X-62.729 Y-42.93
G1 F1800 X23.131 Y42.93 E579.4161
G0 F2400 X23.697 Y42.93
G1 F1800 X-62.163 Y-42.93 E585.47398
G0 F2400 X-61.598 Y-42.93
G1 F1800 X24.262 Y42.93 E591.53187
G0 F2400 X24.828 Y42.93
G1 F1800 X-61.032 Y-42.93 E597.58976
G0 F2400 X-60.466 Y-42.93
G1 F1800 X25.394 Y42.93 E603.64764
G0 F2400 X25.96 Y42.93
G1 F1800 X-59.901 Y-42.93 E609.70557
G0 F2400 X-59.335 Y-42.93
G1 F1800 X26.525 Y42.93 E615.76345
G0 F2400 X27.091 Y42.93
G1 F1800 X-58.769 Y-42.93 E621.82134
G0 F2400 X-58.204 Y-42.93
G1 F1800 X27.657 Y42.93 E627.87926
G0 F2400 X28.222 Y42.93
G1 F1800 X-57.638 Y-42.93 E633.93715
G0 F2400 X-57.072 Y-42.93
G1 F1800 X28.788 Y42.93 E639.99504
G0 F2400 X29.354 Y42.93
G1 F1800 X-56.507 Y-42.93 E646.05296
G0 F2400 X-55.941 Y-42.93
G1 F1800 X29.919 Y42.93 E652.11084
G0 F2400 X30.485 Y42.93
G1 F1800 X-55.375 Y-42.93 E658.16873
G0 F2400 X-54.809 Y-42.93
G1 F1800 X31.051 Y42.93 E664.22662
G0 F2400 X31.616 Y42.93
G1 F1800 X-54.244 Y-42.93 E670.2845
G0 F2400 X-53.678 Y-42.93
G1 F1800 X32.182 Y42.93 E676.34239
G0 F2400 X32.748 Y42.93
G1 F1800 X-53.112 Y-42.93 E682.40028
G0 F2400 X-52.547 Y-42.93
G1 F1800 X33.313 Y42.93 E688.45816
G0 F2400 X33.879 Y42.93
G1 F1800 X-51.981 Y-42.93 E694.51605
G0 F2400 X-51.415 Y-42.93
G1 F1800 X34.445 Y42.93 E700.57394
G0 F2400 X35.01 Y42.93
G1 F1800 X-50.85 Y-42.93 E706.63182
G0 F2400 X-50.284 Y-42.93
G1 F1800 X35.576 Y42.93 E712.68971
G0 F2400 X36.142 Y42.93
G1 F1800 X-49.718 Y-42.93 E718.7476
G0 F2400 X-49.153 Y-42.93
G1 F1800 X36.708 Y42.93 E724.80552
G0 F2400 X37.273 Y42.93
G1 F1800 X-48.587 Y-42.93 E730.86341
G0 F2400 X-48.021 Y-42.93
G1 F1800 X37.839 Y42.93 E736.92129
G0 F2400 X38.405 Y42.93
G1 F1800 X-47.456 Y-42.93 E742.97922
G0 F2400 X-46.89 Y-42.93
G1 F1800 X38.97 Y42.93 E749.0371
G0 F2400 X39.536 Y42.93
G1 F1800 X-46.324 Y-42.93 E755.09499
G0 F2400 X-45.759 Y-42.93
G1 F1800 X40.102 Y42.93 E761.15291
G0 F2400 X40.667 Y42.93
G1 F1800 X-45.193 Y-42.93 E767.2108
G0 F2400 X-44.627 Y-42.93
G1 F1800 X41.233 Y42.93 E773.26868
G0 F2400 X41.799 Y42.93
G1 F1800 X-44.061 Y-42.93 E779.32657
G0 F2400 X-43.496 Y-42.93
G1 F1800 X42.364 Y42.93 E785.38446
G0 F2400 X42.93 Y42.93
G1 F1800 X-42.93 Y-42.93 E791.44234
G0 F2400 X-42.364 Y-42.93
G1 F1800 X43.496 Y42.93 E797.50023
G0 F2400 X44.061 Y42.93
G1 F1800 X-41.799 Y-42.93 E803.55812
G0 F2400 X-41.233 Y-42.93
G1 F1800 X44.627 Y42.93 E809.61601
G0 F2400 X45.193 Y42.93
G1 F1800 X-40.667 Y-42.93 E815.67389
G0 F2400 X-40.102 Y-42.93
G1 F1800 X45.759 Y42.93 E821.73181
G0 F2400 X46.324 Y42.93
G1 F1800 X-39.536 Y-42.93 E827.7897
G0 F2400 X-38.97 Y-42.93
G1 F1800 X46.89 Y42.93 E833.84759
G0 F2400 X47.456 Y42.93
G1 F1800 X-38.405 Y-42.93 E839.90551
G0 F2400 X-37.839 Y-42.93
G1 F1800 X48.021 Y42.93 E845.9634
G0 F2400 X48.587 Y42.93
G1 F1800 X-37.273 Y-42.93 E852.02128
G0 F2400 X-36.708 Y-42.93
G1 F1800 X49.153 Y42.93 E858.0792
G0 F2400 X49.718 Y42.93
G1 F1800 X-36.142 Y-42.93 E864.13709
G0 F2400 X-35.576 Y-42.93
G1 F1800 X50.284 Y42.93 E870.19498
G0 F2400 X50.85 Y42.93
G1 F1800 X-35.01 Y-42.93 E876.25287
G0 F2400 X-34.445 Y-42.93
G1 F1800 X51.415 Y42.93 E882.31075
G0 F2400 X51.981 Y42.93
G1 F1800 X-33.879 Y-42.93 E888.36864
G0 F2400 X-33.313 Y-42.93
G1 F1800 X52.547 Y42.93 E894.42653
G0 F2400 X53.112 Y42.93
G1 F1800 X-32.748 Y-42.93 E900.48441
G0 F2400 X-32.182 Y-42.93
G1 F1800 X53.678 Y42.93 E906.5423
G0 F2400 X54.244 Y42.93
G1 F1800 X-31.616 Y-42.93 E912.60019
G0 F2400 X-31.051 Y-42.93
G1 F1800 X54.809 Y42.93 E918.65807
G0 F2400 X55.375 Y42.93
G1 F1800 X-30.485 Y-42.93 E924.71596
G0 F2400 X-29.919 Y-42.93
G1 F1800 X55.941 Y42.93 E930.77385
G0 F2400 X56.507 Y42.93
G1 F1800 X-29.354 Y-42.93 E936.83177
G0 F2400 X-28.788 Y-42.93
G1 F1800 X57.072 Y42.93 E942.88965
G0 F2400 X57.638 Y42.93
G1 F1800 X-28.222 Y-42.93 E948.94754
G0 F2400 X-27.657 Y-42.93
G1 F1800 X58.204 Y42.93 E955.00546
G0 F2400 X58.769 Y42.93
G1 F1800 X-27.091 Y-42.93 E961.06335
G0 F2400 X-26.525 Y-42.93
G1 F1800 X59.335 Y42.93 E967.12124
G0 F2400 X59.901 Y42.93
G1 F1800 X-25.96 Y-42.93 E973.17916
G0 F2400 X-25.394 Y-42.93
G1 F1800 X60.466 Y42.93 E979.23705
G0 F2400 X61.032 Y42.93
G1 F1800 X-24.828 Y-42.93 E985.29493
G0 F2400 X-24.262 Y-42.93
G1 F1800 X61.598 Y42.93 E991.35282
G0 F2400 X62.163 Y42.93
G1 F1800 X-23.697 Y-42.93 E997.41071
G0 F2400 X-23.131 Y-42.93
G1 F1800 X62.729 Y42.93 E1003.46859
G0 F2400 X63.295 Y42.93
G1 F1800 X-22.565 Y-42.93 E1009.52648
G0 F2400 X-22 Y-42.93
G1 F1800 X63.86 Y42.93 E1015.58437
G0 F2400 X64.426 Y42.93
G1 F1800 X-21.434 Y-42.93 E1021.64225
G0 F2400 X-20.868 Y-42.93
G1 F1800 X64.992 Y42.93 E1027.70014
G0 F2400 X65.429 Y42.801
G1 F1800 X-20.303 Y-42.93 E1033.74896
G0 F2400 X-19.737 Y-42.93
G1 F1800 X65.429 Y42.236 E1039.75788
G0 F2400 X65.429 Y41.67
G1 F1800 X-19.171 Y-42.93 E1045.72687
G0 F2400 X-18.606 Y-42.93
G1 F1800 X65.429 Y41.104 E1051.65596
G0 F2400 X65.429 Y40.539
G1 F1800 X-18.04 Y-42.93 E1057.54514
G0 F2400 X-17.474 Y-42.93
G1 F1800 X65.429 Y39.973 E1063.3944
G0 F2400 X65.429 Y39.407
G1 F1800 X-16.909 Y-42.93 E1069.20375
G0 F2400 X-16.343 Y-42.93
G1 F1800 X65.429 Y38.842 E1074.97321
G0 F2400 X65.429 Y38.276
G1 F1800 X-15.777 Y-42.93 E1080.70273
G0 F2400 X-15.211 Y-42.93
G1 F1800 X65.429 Y37.71 E1086.39232
G0 F2400 X65.429 Y37.145
